; G-Code generated by Simplify3D(R) Version 4.1.2
; Aug 3, 2020 at 4:28:15 PM
; Settings Summary
;   processName,Process1
;   applyToModels,Diffuser
;   profileName,MakerBot Replicator 2 HBP (modified)
;   profileVersion,2020-04-21 14:45:34
;   baseProfile,MakerBot Replicator 2(2)
;   printMaterial,PLA
;   printQuality,Medium
;   printExtruders,
;   extruderName,Primary Extruder
;   extruderToolheadNumber,0
;   extruderDiameter,0.4
;   extruderAutoWidth,0
;   extruderWidth,0.5
;   extrusionMultiplier,1
;   extruderUseRetract,1
;   extruderRetractionDistance,1.9
;   extruderExtraRestartDistance,0
;   extruderRetractionZLift,0.5
;   extruderRetractionSpeed,1200
;   extruderUseCoasting,0
;   extruderCoastingDistance,0.2
;   extruderUseWipe,0
;   extruderWipeDistance,5
;   primaryExtruder,0
;   layerHeight,0.35
;   topSolidLayers,4
;   bottomSolidLayers,3
;   perimeterOutlines,2
;   printPerimetersInsideOut,1
;   startPointOption,3
;   startPointOriginX,140
;   startPointOriginY,0
;   sequentialIslands,0
;   spiralVaseMode,0
;   firstLayerHeightPercentage,100
;   firstLayerWidthPercentage,100
;   firstLayerUnderspeed,0.5
;   useRaft,0
;   raftExtruder,0
;   raftTopLayers,2
;   raftBaseLayers,1
;   raftOffset,1
;   raftSeparationDistance,0.14
;   raftTopInfill,90
;   aboveRaftSpeedMultiplier,0.3
;   useSkirt,0
;   skirtExtruder,0
;   skirtLayers,1
;   skirtOutlines,5
;   skirtOffset,0
;   usePrimePillar,0
;   primePillarExtruder,999
;   primePillarWidth,12
;   primePillarLocation,7
;   primePillarSpeedMultiplier,1
;   useOozeShield,0
;   oozeShieldExtruder,999
;   oozeShieldOffset,2
;   oozeShieldOutlines,1
;   oozeShieldSidewallShape,1
;   oozeShieldSidewallAngle,30
;   oozeShieldSpeedMultiplier,1
;   infillExtruder,0
;   internalInfillPattern,Rectilinear
;   externalInfillPattern,Rectilinear
;   infillPercentage,100
;   outlineOverlapPercentage,20
;   infillExtrusionWidthPercentage,100
;   minInfillLength,5
;   infillLayerInterval,1
;   internalInfillAngles,45,-45
;   overlapInternalInfillAngles,0
;   externalInfillAngles,45,-45
;   generateSupport,0
;   supportExtruder,0
;   supportInfillPercentage,30
;   supportExtraInflation,0.6
;   supportBaseLayers,0
;   denseSupportExtruder,0
;   denseSupportLayers,2
;   denseSupportInfillPercentage,70
;   supportLayerInterval,1
;   supportHorizontalPartOffset,0.3
;   supportUpperSeparationLayers,1
;   supportLowerSeparationLayers,1
;   supportType,0
;   supportGridSpacing,99
;   maxOverhangAngle,45
;   supportAngles,0
;   temperatureName,Primary Extruder,Heated Build Platform
;   temperatureNumber,0,0
;   temperatureSetpointCount,1,1
;   temperatureSetpointLayers,1,1
;   temperatureSetpointTemperatures,210,65
;   temperatureStabilizeAtStartup,1,1
;   temperatureHeatedBed,0,1
;   fanLayers,1,2
;   fanSpeeds,0,100
;   blipFanToFullPower,1
;   adjustSpeedForCooling,1
;   minSpeedLayerTime,15
;   minCoolingSpeedSlowdown,20
;   increaseFanForCooling,1
;   minFanLayerTime,45
;   maxCoolingFanSpeed,100
;   increaseFanForBridging,1
;   bridgingFanSpeed,100
;   use5D,1
;   relativeEdistances,1
;   allowEaxisZeroing,0
;   independentExtruderAxes,1
;   includeM10123,0
;   stickySupport,1
;   applyToolheadOffsets,0
;   gcodeXoffset,0
;   gcodeYoffset,0
;   gcodeZoffset,0
;   overrideMachineDefinition,1
;   machineTypeOverride,0
;   strokeXoverride,280
;   strokeYoverride,150
;   strokeZoverride,150
;   originOffsetXoverride,140
;   originOffsetYoverride,75
;   originOffsetZoverride,0
;   homeXdirOverride,1
;   homeYdirOverride,1
;   homeZdirOverride,-1
;   flipXoverride,1
;   flipYoverride,-1
;   flipZoverride,1
;   toolheadOffsets,0,0|0,0|0,0|0,0|0,0|0,0
;   overrideFirmwareConfiguration,1
;   firmwareTypeOverride,MakerBot/Sailfish Firmware
;   GPXconfigOverride,r2h
;   baudRateOverride,115200
;   overridePrinterModels,1
;   printerModelsOverride,MakerBot_Replicator2.stl
;   startingGcode,; **** Replicator 2 start.gcode ****,M73 P0 ; enable build progress,G162 X Y F3000 ; home XY maximum,G161 Z F1200 ; home Z minimum,G92 Z-5 ; set Z to -5,G1 Z0 ; move Z to 0,G28 ; better homing homie,M132 X Y Z A B ; recall home offsets,G1 X-145 Y-75 Z30 F9000 ; move to wait position off table,G130 X20 Y20 Z20 A20 B20 ; lower stepper Vrefs while heating,M126 S[fan_speed_pwm],M140 S[bed0_temperature] T0,M134 T0 ; stabilize bed temperature,M104 S[extruder0_temperature] T0,M133 T0 ; stabilize extruder temperature,G130 X127 Y127 Z40 A127 B127 ; default stepper Vrefs,G92 A0 ; zero extruder,G1 Z0.4 ; position nozzle,G1 E25 F300 ; purge nozzle,G1 X-140 Y-70 Z0.15 F1200 ; slow wipe,G1 X-135 Y-65 Z0.5 F1200 ; lift,G92 A0 ; zero extruder,M73 P1 ;@body (notify GPX body has started),; **** end of start.gcode ****
;   layerChangeGcode,
;   retractionGcode,
;   toolChangeGcode,
;   endingGcode,; **** Replicator 2 end.gcode ****,M73 P100 ; end build progress,G1 Z155 F1000 ; send Z axis to bottom of machine,M104 S0 T0 ; cool down extruder,M140 S0 T0 ; cool down HBP,M127 ; stop blower fan,G162 X Y F3000 ; home XY maximum,M18 ; disable stepper,M0 ; stop codes,M72 P1 ; play Ta-Da song,; **** end of end.gcode ****
;   exportFileFormat,gcode
;   celebration,0
;   celebrationSong,Random Song
;   postProcessing,
;   defaultSpeed,4800
;   outlineUnderspeed,0.5
;   solidInfillUnderspeed,1
;   supportUnderspeed,1
;   rapidXYspeed,9000
;   rapidZspeed,1200
;   minBridgingArea,50
;   bridgingExtraInflation,0
;   bridgingExtrusionMultiplier,1
;   bridgingSpeedMultiplier,0.8
;   useFixedBridgingAngle,0
;   fixedBridgingAngle,0
;   applyBridgingToPerimeters,0
;   filamentDiameters,1.75|1.75|1.75|1.75|1.75|1.75
;   filamentPricesPerKg,46|46|46|46|46|46
;   filamentDensities,1.25|1.25|1.25|1.25|1.25|1.25
;   useMinPrintHeight,0
;   minPrintHeight,0
;   useMaxPrintHeight,0
;   maxPrintHeight,4.84
;   useDiaphragm,0
;   diaphragmLayerInterval,20
;   robustSlicing,1
;   mergeAllIntoSolid,0
;   onlyRetractWhenCrossingOutline,0
;   retractBetweenLayers,0
;   useRetractionMinTravel,1
;   retractionMinTravel,7
;   retractWhileWiping,1
;   onlyWipeOutlines,1
;   avoidCrossingOutline,0
;   maxMovementDetourFactor,3
;   toolChangeRetractionDistance,12
;   toolChangeExtraRestartDistance,-0.5
;   toolChangeRetractionSpeed,600
;   externalThinWallType,0
;   internalThinWallType,1
;   thinWallAllowedOverlapPercentage,10
;   singleExtrusionMinLength,1
;   singleExtrusionMinPrintingWidthPercentage,50
;   singleExtrusionMaxPrintingWidthPercentage,200
;   singleExtrusionEndpointExtension,0.2
;   horizontalSizeCompensation,0
G90
M83
; **** Replicator 2 start.gcode ****
M73 P0 ; enable build progress
G162 X Y F3000 ; home XY maximum
G161 Z F1200 ; home Z minimum
G92 Z-5 ; set Z to -5
G1 Z0 ; move Z to 0
G28 ; better homing homie
M132 X Y Z A B ; recall home offsets
G1 X-145 Y-75 Z30 F9000 ; move to wait position off table
G130 X20 Y20 Z20 A20 B20 ; lower stepper Vrefs while heating
M127
M140 S65 T0
M134 T0 ; stabilize bed temperature
M104 S210 T0
M133 T0 ; stabilize extruder temperature
G130 X127 Y127 Z40 A127 B127 ; default stepper Vrefs
G92 A0 ; zero extruder
G1 Z0.4 ; position nozzle
G1 E25 F300 ; purge nozzle
G1 X-140 Y-70 Z0.15 F1200 ; slow wipe
G1 X-135 Y-65 Z0.5 F1200 ; lift
G92 A0 ; zero extruder
M73 P1 ;@body (notify GPX body has started)
; **** end of start.gcode ****
; process Process1
; layer 1, Z = 0.350
M135 T0
G1 E-1.9000 F1200
; feature inner perimeter
; tool H0.350 W0.500
G1 Z0.500 F1200
G1 X16.649 Y0.000 F9000
G1 Z0.350 F1200
G1 E1.9000 F1200
G1 X16.564 Y1.684 E0.1227 F1800
G1 X16.308 Y3.351 E0.1227
G1 X15.885 Y4.984 E0.1227
G1 X15.300 Y6.566 E0.1227
G1 X14.557 Y8.080 E0.1227
G1 X13.665 Y9.511 E0.1227
G1 X12.633 Y10.845 E0.1227
G1 X11.471 Y12.067 E0.1227
G1 X10.191 Y13.166 E0.1227
G1 X8.807 Y14.129 E0.1227
G1 X7.332 Y14.948 E0.1227
G1 X5.782 Y15.613 E0.1227
G1 X4.173 Y16.118 E0.1227
G1 X2.521 Y16.457 E0.1227
G1 X0.843 Y16.628 E0.1227
G1 X-0.843 Y16.628 E0.1227
G1 X-2.521 Y16.457 E0.1227
G1 X-4.173 Y16.118 E0.1227
G1 X-5.782 Y15.613 E0.1227
G1 X-7.332 Y14.948 E0.1227
G1 X-8.807 Y14.129 E0.1227
G1 X-10.191 Y13.166 E0.1227
G1 X-11.471 Y12.067 E0.1227
G1 X-12.633 Y10.845 E0.1227
G1 X-13.665 Y9.511 E0.1227
G1 X-14.557 Y8.080 E0.1227
G1 X-15.300 Y6.566 E0.1227
G1 X-15.885 Y4.984 E0.1227
G1 X-16.308 Y3.351 E0.1227
G1 X-16.564 Y1.684 E0.1227
G1 X-16.649 Y0.000 E0.1227
G1 X-16.564 Y-1.684 E0.1227
G1 X-16.308 Y-3.351 E0.1227
G1 X-15.885 Y-4.984 E0.1227
G1 X-15.300 Y-6.566 E0.1227
G1 X-14.557 Y-8.080 E0.1227
G1 X-13.665 Y-9.511 E0.1227
G1 X-12.633 Y-10.845 E0.1227
G1 X-11.471 Y-12.067 E0.1227
G1 X-10.248 Y-13.116 E0.1172
G1 X-8.805 Y-14.130 E0.1283
G1 X-7.332 Y-14.948 E0.1226
G1 X-5.782 Y-15.613 E0.1227
G1 X-4.173 Y-16.118 E0.1227
G1 X-2.521 Y-16.457 E0.1227
G1 X-0.843 Y-16.628 E0.1227
G1 X0.843 Y-16.628 E0.1227
G1 X2.521 Y-16.457 E0.1227
G1 X4.173 Y-16.118 E0.1227
G1 X5.782 Y-15.613 E0.1227
G1 X7.332 Y-14.948 E0.1227
G1 X8.807 Y-14.129 E0.1227
G1 X10.191 Y-13.166 E0.1227
G1 X11.471 Y-12.067 E0.1227
G1 X12.633 Y-10.845 E0.1227
G1 X13.665 Y-9.511 E0.1227
G1 X14.557 Y-8.080 E0.1227
G1 X15.300 Y-6.566 E0.1227
G1 X15.885 Y-4.984 E0.1227
G1 X16.308 Y-3.351 E0.1227
G1 X16.564 Y-1.684 E0.1227
G1 X16.649 Y0.000 E0.1227
; feature outer perimeter
G1 X17.150 Y0.000 F9000
G1 X17.062 Y1.735 E0.1264 F1200
G1 X16.799 Y3.452 E0.1264
G1 X16.363 Y5.134 E0.1264
G1 X15.760 Y6.763 E0.1264
G1 X14.995 Y8.323 E0.1264
G1 X14.076 Y9.797 E0.1264
G1 X13.012 Y11.171 E0.1264
G1 X11.816 Y12.430 E0.1264
G1 X10.497 Y13.562 E0.1264
G1 X9.072 Y14.554 E0.1264
G1 X7.553 Y15.397 E0.1264
G1 X5.956 Y16.082 E0.1264
G1 X4.299 Y16.602 E0.1264
G1 X2.597 Y16.952 E0.1264
G1 X0.869 Y17.128 E0.1264
G1 X-0.869 Y17.128 E0.1264
G1 X-2.597 Y16.952 E0.1264
G1 X-4.299 Y16.602 E0.1264
G1 X-5.956 Y16.082 E0.1264
G1 X-7.553 Y15.397 E0.1264
G1 X-9.072 Y14.554 E0.1264
G1 X-10.497 Y13.562 E0.1264
G1 X-11.816 Y12.430 E0.1264
G1 X-13.012 Y11.171 E0.1264
G1 X-14.076 Y9.797 E0.1264
G1 X-14.995 Y8.323 E0.1264
G1 X-15.760 Y6.763 E0.1264
G1 X-16.363 Y5.134 E0.1264
G1 X-16.799 Y3.452 E0.1264
G1 X-17.062 Y1.735 E0.1264
G1 X-17.150 Y0.000 E0.1264
G1 X-17.062 Y-1.735 E0.1264
G1 X-16.799 Y-3.452 E0.1264
G1 X-16.363 Y-5.134 E0.1264
G1 X-15.760 Y-6.763 E0.1264
G1 X-14.995 Y-8.323 E0.1264
G1 X-14.076 Y-9.797 E0.1264
G1 X-13.012 Y-11.171 E0.1264
G1 X-11.816 Y-12.430 E0.1264
G1 X-10.556 Y-13.512 E0.1208
G1 X-9.071 Y-14.554 E0.1320
G1 X-7.553 Y-15.397 E0.1264
G1 X-5.956 Y-16.082 E0.1264
G1 X-4.299 Y-16.602 E0.1264
G1 X-2.597 Y-16.952 E0.1264
G1 X-0.869 Y-17.128 E0.1264
G1 X0.869 Y-17.128 E0.1264
G1 X2.597 Y-16.952 E0.1264
G1 X4.299 Y-16.602 E0.1264
G1 X5.956 Y-16.082 E0.1264
G1 X7.553 Y-15.397 E0.1264
G1 X9.072 Y-14.554 E0.1264
G1 X10.497 Y-13.562 E0.1264
G1 X11.816 Y-12.430 E0.1264
G1 X13.012 Y-11.171 E0.1264
G1 X14.076 Y-9.797 E0.1264
G1 X14.995 Y-8.323 E0.1264
G1 X15.760 Y-6.763 E0.1264
G1 X16.363 Y-5.134 E0.1264
G1 X16.799 Y-3.452 E0.1264
G1 X17.062 Y-1.735 E0.1264
G1 X17.150 Y0.000 E0.1264
G1 E-1.9000 F1200
; feature solid layer
G1 Z0.850 F1200
G1 X9.395 Y-13.232 F9000
G1 Z0.350 F1200
G1 E1.9000 F1200
G1 X13.305 Y-9.322 E0.4023 F2400
G1 X13.336 Y-9.282 E0.0037
G1 X14.207 Y-7.885 E0.1198
G1 X14.372 Y-7.548 E0.0273
G1 X7.553 Y-14.368 E0.7017
G1 X7.156 Y-14.588 E0.0330
G1 X6.226 Y-14.987 E0.0736
G1 X15.006 Y-6.207 E0.9034
G1 X15.422 Y-5.084 E0.0871
G1 X5.098 Y-15.408 E1.0623
G1 X4.068 Y-15.731 E0.0785
G1 X15.702 Y-4.097 E1.1970
G1 X15.916 Y-3.271 E0.0621
G1 X15.933 Y-3.159 E0.0082
G1 X3.178 Y-15.914 E1.3124
G1 X2.460 Y-16.061 E0.0533
G1 X2.308 Y-16.077 E0.0111
G1 X16.061 Y-2.324 E1.4151
G1 X16.165 Y-1.644 E0.0501
G1 X16.172 Y-1.506 E0.0101
G1 X1.521 Y-16.157 E1.5075
G1 X0.823 Y-16.228 E0.0510
G1 X0.743 Y-16.228 E0.0058
G1 X16.210 Y-0.761 E1.5915
G1 X16.248 Y-0.016 E0.0543
G1 X0.036 Y-16.228 E1.6681
G1 X-0.671 Y-16.228 E0.0514
G1 X16.215 Y0.659 E1.7375
G1 X16.181 Y1.332 E0.0490
G1 X-1.327 Y-16.176 E1.8015
G1 X-1.969 Y-16.111 E0.0469
G1 X16.115 Y1.973 E1.8607
G1 X16.021 Y2.586 E0.0451
G1 X-2.598 Y-16.033 E1.9157
G1 X-3.184 Y-15.912 E0.0436
G1 X15.927 Y3.199 E1.9664
G1 X15.916 Y3.271 E0.0053
G1 X15.788 Y3.767 E0.0373
G1 X-3.771 Y-15.792 E2.0124
G1 X-4.073 Y-15.730 E0.0224
G1 X-4.334 Y-15.648 E0.0199
G1 X15.642 Y4.328 E2.0554
G1 X15.503 Y4.864 E0.0403
G1 X15.495 Y4.888 E0.0018
G1 X-4.872 Y-15.479 E2.0956
G1 X-5.411 Y-15.310 E0.0410
G1 X15.303 Y5.404 E2.1313
G1 X15.112 Y5.920 E0.0400
G1 X-5.924 Y-15.117 E2.1645
G1 X-6.419 Y-14.904 E0.0392
G1 X14.919 Y6.434 E2.1955
G1 X14.686 Y6.908 E0.0384
G1 X-6.914 Y-14.692 E2.2225
G1 X-7.156 Y-14.588 E0.0192
G1 X-7.388 Y-14.459 E0.0193
G1 X14.454 Y7.382 E2.2474
G1 X14.221 Y7.857 E0.0384
G1 X-7.843 Y-14.207 E2.2702
G1 X-8.297 Y-13.954 E0.0378
G1 X13.952 Y8.295 E2.2893
G1 X13.680 Y8.730 E0.0373
G1 X-8.738 Y-13.688 E2.3067
G1 X-9.154 Y-13.396 E0.0369
G1 X13.409 Y9.166 E2.3215
G1 X13.336 Y9.282 E0.0100
G1 X13.110 Y9.574 E0.0269
G1 X-9.569 Y-13.105 E2.3335
G1 X-9.984 Y-12.813 E0.0369
G1 X12.801 Y9.973 E2.3445
G1 X12.493 Y10.372 E0.0367
G1 X-10.366 Y-12.488 E2.3521
G1 X-10.747 Y-12.161 E0.0365
G1 X12.168 Y10.753 E2.3578
G1 X11.823 Y11.116 E0.0364
G1 X-11.127 Y-11.835 E2.3614
G1 X-11.195 Y-11.777 E0.0064
G1 X-11.478 Y-11.478 E0.0300
G1 X11.478 Y11.478 E2.3621
G1 X11.195 Y11.777 E0.0300
G1 X11.127 Y11.835 E0.0064
G1 X-11.823 Y-11.116 E2.3614
G1 X-12.168 Y-10.753 E0.0364
G1 X10.747 Y12.161 E2.3578
G1 X10.366 Y12.488 E0.0365
G1 X-12.493 Y-10.372 E2.3521
G1 X-12.801 Y-9.973 E0.0367
G1 X9.986 Y12.814 E2.3447
G1 X9.946 Y12.849 E0.0038
G1 X9.573 Y13.108 E0.0331
G1 X-13.110 Y-9.574 E2.3339
G1 X-13.336 Y-9.282 E0.0269
G1 X-13.409 Y-9.166 E0.0100
G1 X9.156 Y13.399 E2.3218
G1 X8.739 Y13.689 E0.0370
G1 X-13.680 Y-8.730 E2.3068
G1 X-13.952 Y-8.295 E0.0373
G1 X8.297 Y13.954 E2.2893
G1 X7.843 Y14.207 E0.0378
G1 X-14.221 Y-7.857 E2.2702
G1 X-14.454 Y-7.382 E0.0384
G1 X7.388 Y14.459 E2.2474
G1 X7.156 Y14.588 E0.0193
G1 X6.914 Y14.692 E0.0192
G1 X-14.686 Y-6.908 E2.2225
G1 X-14.919 Y-6.434 E0.0384
G1 X6.419 Y14.904 E2.1955
G1 X5.924 Y15.117 E0.0392
G1 X-15.112 Y-5.920 E2.1645
G1 X-15.303 Y-5.404 E0.0400
G1 X5.411 Y15.310 E2.1313
G1 X4.872 Y15.479 E0.0410
G1 X-15.495 Y-4.888 E2.0956
G1 X-15.503 Y-4.864 E0.0018
G1 X-15.642 Y-4.328 E0.0403
G1 X4.334 Y15.648 E2.0554
G1 X4.073 Y15.730 E0.0199
G1 X3.771 Y15.792 E0.0224
G1 X-15.788 Y-3.767 E2.0124
G1 X-15.916 Y-3.271 E0.0373
G1 X-15.927 Y-3.199 E0.0053
G1 X3.184 Y15.912 E1.9664
G1 X2.598 Y16.033 E0.0436
G1 X-16.021 Y-2.586 E1.9157
G1 X-16.115 Y-1.973 E0.0451
G1 X1.969 Y16.111 E1.8607
G1 X1.327 Y16.176 E0.0469
G1 X-16.181 Y-1.332 E1.8015
G1 X-16.215 Y-0.659 E0.0490
G1 X0.671 Y16.228 E1.7375
G1 X-0.036 Y16.228 E0.0514
G1 X-16.248 Y0.016 E1.6681
G1 X-16.210 Y0.761 E0.0543
G1 X-0.743 Y16.228 E1.5915
G1 X-0.823 Y16.228 E0.0058
G1 X-1.521 Y16.157 E0.0510
G1 X-16.172 Y1.505 E1.5075
G1 X-16.165 Y1.644 E0.0101
G1 X-16.061 Y2.324 E0.0501
G1 X-2.308 Y16.077 E1.4151
G1 X-2.460 Y16.061 E0.0111
G1 X-3.178 Y15.914 E0.0533
G1 X-15.933 Y3.159 E1.3124
G1 X-15.916 Y3.271 E0.0082
G1 X-15.702 Y4.097 E0.0621
G1 X-4.073 Y15.730 E1.1974
G1 X-5.098 Y15.408 E0.0782
G1 X-15.422 Y5.084 E1.0623
G1 X-15.006 Y6.207 E0.0871
G1 X-6.226 Y14.987 E0.9034
G1 X-7.156 Y14.588 E0.0736
G1 X-7.553 Y14.368 E0.0330
G1 X-14.372 Y7.548 E0.7017
G1 X-14.207 Y7.885 E0.0274
G1 X-13.336 Y9.282 E0.1198
G1 X-13.306 Y9.322 E0.0036
G1 X-9.395 Y13.232 E0.4023
G1 E-1.9000 F1200
; layer 2, Z = 0.700
M126 S255
; feature inner perimeter
G1 Z0.850 F1200
G1 X16.649 Y0.000 F9000
G1 Z0.700 F1200
G1 E1.9000 F1200
G1 X16.564 Y1.684 E0.1227 F3600
G1 X16.308 Y3.351 E0.1227
G1 X15.885 Y4.984 E0.1227
G1 X15.300 Y6.566 E0.1227
G1 X14.557 Y8.080 E0.1227
G1 X13.665 Y9.511 E0.1227
G1 X12.633 Y10.845 E0.1227
G1 X11.471 Y12.067 E0.1227
G1 X10.191 Y13.166 E0.1227
G1 X8.807 Y14.129 E0.1227
G1 X7.332 Y14.948 E0.1227
G1 X5.782 Y15.613 E0.1227
G1 X4.173 Y16.118 E0.1227
G1 X2.521 Y16.457 E0.1227
G1 X0.843 Y16.628 E0.1227
G1 X-0.843 Y16.628 E0.1227
G1 X-2.521 Y16.457 E0.1227
G1 X-4.173 Y16.118 E0.1227
G1 X-5.782 Y15.613 E0.1227
G1 X-7.332 Y14.948 E0.1227
G1 X-8.807 Y14.129 E0.1227
G1 X-10.191 Y13.166 E0.1227
