; G-Code generated by Simplify3D(R) Version 4.1.2
; Aug 3, 2020 at 12:37:29 PM
; Settings Summary
;   processName,Process1
;   applyToModels,Bracket L,Bracket R
;   profileName,MakerBot Replicator 2 HBP (modified)
;   profileVersion,2020-04-21 14:45:34
;   baseProfile,MakerBot Replicator 2(2)
;   printMaterial,PLA
;   printQuality,Medium
;   printExtruders,
;   extruderName,Primary Extruder
;   extruderToolheadNumber,0
;   extruderDiameter,0.4
;   extruderAutoWidth,0
;   extruderWidth,0.5
;   extrusionMultiplier,1
;   extruderUseRetract,1
;   extruderRetractionDistance,1.9
;   extruderExtraRestartDistance,0
;   extruderRetractionZLift,0.5
;   extruderRetractionSpeed,1200
;   extruderUseCoasting,0
;   extruderCoastingDistance,0.2
;   extruderUseWipe,0
;   extruderWipeDistance,5
;   primaryExtruder,0
;   layerHeight,0.35
;   topSolidLayers,4
;   bottomSolidLayers,3
;   perimeterOutlines,2
;   printPerimetersInsideOut,1
;   startPointOption,3
;   startPointOriginX,140
;   startPointOriginY,0
;   sequentialIslands,0
;   spiralVaseMode,0
;   firstLayerHeightPercentage,100
;   firstLayerWidthPercentage,100
;   firstLayerUnderspeed,0.5
;   useRaft,0
;   raftExtruder,0
;   raftTopLayers,2
;   raftBaseLayers,1
;   raftOffset,1
;   raftSeparationDistance,0.14
;   raftTopInfill,90
;   aboveRaftSpeedMultiplier,0.3
;   useSkirt,0
;   skirtExtruder,0
;   skirtLayers,1
;   skirtOutlines,5
;   skirtOffset,0
;   usePrimePillar,0
;   primePillarExtruder,999
;   primePillarWidth,12
;   primePillarLocation,7
;   primePillarSpeedMultiplier,1
;   useOozeShield,0
;   oozeShieldExtruder,999
;   oozeShieldOffset,2
;   oozeShieldOutlines,1
;   oozeShieldSidewallShape,1
;   oozeShieldSidewallAngle,30
;   oozeShieldSpeedMultiplier,1
;   infillExtruder,0
;   internalInfillPattern,Rectilinear
;   externalInfillPattern,Rectilinear
;   infillPercentage,20
;   outlineOverlapPercentage,20
;   infillExtrusionWidthPercentage,100
;   minInfillLength,5
;   infillLayerInterval,1
;   internalInfillAngles,45,-45
;   overlapInternalInfillAngles,0
;   externalInfillAngles,45,-45
;   generateSupport,0
;   supportExtruder,0
;   supportInfillPercentage,30
;   supportExtraInflation,0.6
;   supportBaseLayers,0
;   denseSupportExtruder,0
;   denseSupportLayers,2
;   denseSupportInfillPercentage,70
;   supportLayerInterval,1
;   supportHorizontalPartOffset,0.3
;   supportUpperSeparationLayers,1
;   supportLowerSeparationLayers,1
;   supportType,0
;   supportGridSpacing,99
;   maxOverhangAngle,45
;   supportAngles,0
;   temperatureName,Primary Extruder,Heated Build Platform
;   temperatureNumber,0,0
;   temperatureSetpointCount,1,1
;   temperatureSetpointLayers,1,1
;   temperatureSetpointTemperatures,210,65
;   temperatureStabilizeAtStartup,1,1
;   temperatureHeatedBed,0,1
;   fanLayers,1,2
;   fanSpeeds,0,100
;   blipFanToFullPower,1
;   adjustSpeedForCooling,1
;   minSpeedLayerTime,15
;   minCoolingSpeedSlowdown,20
;   increaseFanForCooling,1
;   minFanLayerTime,45
;   maxCoolingFanSpeed,100
;   increaseFanForBridging,1
;   bridgingFanSpeed,100
;   use5D,1
;   relativeEdistances,1
;   allowEaxisZeroing,0
;   independentExtruderAxes,1
;   includeM10123,0
;   stickySupport,1
;   applyToolheadOffsets,0
;   gcodeXoffset,0
;   gcodeYoffset,0
;   gcodeZoffset,0
;   overrideMachineDefinition,1
;   machineTypeOverride,0
;   strokeXoverride,280
;   strokeYoverride,150
;   strokeZoverride,150
;   originOffsetXoverride,140
;   originOffsetYoverride,75
;   originOffsetZoverride,0
;   homeXdirOverride,1
;   homeYdirOverride,1
;   homeZdirOverride,-1
;   flipXoverride,1
;   flipYoverride,-1
;   flipZoverride,1
;   toolheadOffsets,0,0|0,0|0,0|0,0|0,0|0,0
;   overrideFirmwareConfiguration,1
;   firmwareTypeOverride,MakerBot/Sailfish Firmware
;   GPXconfigOverride,r2h
;   baudRateOverride,115200
;   overridePrinterModels,1
;   printerModelsOverride,MakerBot_Replicator2.stl
;   startingGcode,; **** Replicator 2 start.gcode ****,M73 P0 ; enable build progress,G162 X Y F3000 ; home XY maximum,G161 Z F1200 ; home Z minimum,G92 Z-5 ; set Z to -5,G1 Z0 ; move Z to 0,G28 ; better homing homie,M132 X Y Z A B ; recall home offsets,G1 X-145 Y-75 Z30 F9000 ; move to wait position off table,G130 X20 Y20 Z20 A20 B20 ; lower stepper Vrefs while heating,M126 S[fan_speed_pwm],M140 S[bed0_temperature] T0,M134 T0 ; stabilize bed temperature,M104 S[extruder0_temperature] T0,M133 T0 ; stabilize extruder temperature,G130 X127 Y127 Z40 A127 B127 ; default stepper Vrefs,G92 A0 ; zero extruder,G1 Z0.4 ; position nozzle,G1 E25 F300 ; purge nozzle,G1 X-140 Y-70 Z0.15 F1200 ; slow wipe,G1 X-135 Y-65 Z0.5 F1200 ; lift,G92 A0 ; zero extruder,M73 P1 ;@body (notify GPX body has started),; **** end of start.gcode ****
;   layerChangeGcode,
;   retractionGcode,
;   toolChangeGcode,
;   endingGcode,; **** Replicator 2 end.gcode ****,M73 P100 ; end build progress,G1 Z155 F1000 ; send Z axis to bottom of machine,M104 S0 T0 ; cool down extruder,M140 S0 T0 ; cool down HBP,M127 ; stop blower fan,G162 X Y F3000 ; home XY maximum,M18 ; disable stepper,M0 ; stop codes,M72 P1 ; play Ta-Da song,; **** end of end.gcode ****
;   exportFileFormat,gcode
;   celebration,0
;   celebrationSong,Random Song
;   postProcessing,
;   defaultSpeed,4800
;   outlineUnderspeed,0.5
;   solidInfillUnderspeed,1
;   supportUnderspeed,1
;   rapidXYspeed,9000
;   rapidZspeed,1200
;   minBridgingArea,50
;   bridgingExtraInflation,0
;   bridgingExtrusionMultiplier,1
;   bridgingSpeedMultiplier,0.8
;   useFixedBridgingAngle,0
;   fixedBridgingAngle,0
;   applyBridgingToPerimeters,0
;   filamentDiameters,1.75|1.75|1.75|1.75|1.75|1.75
;   filamentPricesPerKg,46|46|46|46|46|46
;   filamentDensities,1.25|1.25|1.25|1.25|1.25|1.25
;   useMinPrintHeight,0
;   minPrintHeight,0
;   useMaxPrintHeight,0
;   maxPrintHeight,4.84
;   useDiaphragm,0
;   diaphragmLayerInterval,20
;   robustSlicing,1
;   mergeAllIntoSolid,0
;   onlyRetractWhenCrossingOutline,0
;   retractBetweenLayers,0
;   useRetractionMinTravel,1
;   retractionMinTravel,7
;   retractWhileWiping,1
;   onlyWipeOutlines,1
;   avoidCrossingOutline,0
;   maxMovementDetourFactor,3
;   toolChangeRetractionDistance,12
;   toolChangeExtraRestartDistance,-0.5
;   toolChangeRetractionSpeed,600
;   externalThinWallType,0
;   internalThinWallType,0
;   thinWallAllowedOverlapPercentage,10
;   singleExtrusionMinLength,1
;   singleExtrusionMinPrintingWidthPercentage,50
;   singleExtrusionMaxPrintingWidthPercentage,200
;   singleExtrusionEndpointExtension,0.2
;   horizontalSizeCompensation,0
G90
M83
; **** Replicator 2 start.gcode ****
M73 P0 ; enable build progress
G162 X Y F3000 ; home XY maximum
G161 Z F1200 ; home Z minimum
G92 Z-5 ; set Z to -5
G1 Z0 ; move Z to 0
G28 ; better homing homie
M132 X Y Z A B ; recall home offsets
G1 X-145 Y-75 Z30 F9000 ; move to wait position off table
G130 X20 Y20 Z20 A20 B20 ; lower stepper Vrefs while heating
M127
M140 S65 T0
M134 T0 ; stabilize bed temperature
M104 S210 T0
M133 T0 ; stabilize extruder temperature
G130 X127 Y127 Z40 A127 B127 ; default stepper Vrefs
G92 A0 ; zero extruder
G1 Z0.4 ; position nozzle
G1 E25 F300 ; purge nozzle
G1 X-140 Y-70 Z0.15 F1200 ; slow wipe
G1 X-135 Y-65 Z0.5 F1200 ; lift
G92 A0 ; zero extruder
M73 P1 ;@body (notify GPX body has started)
; **** end of start.gcode ****
; process Process1
; layer 1, Z = 0.350
M135 T0
G1 E-1.9000 F1200
; feature inner perimeter
; tool H0.350 W0.500
G1 Z0.500 F1200
G1 X13.766 Y3.250 F9000
G1 Z0.350 F1200
G1 E1.9000 F1200
G1 X13.766 Y23.250 E1.4551 F1800
G1 X-22.956 Y23.250 E2.6718
G1 X-22.956 Y3.250 E1.4551
G1 X13.766 Y3.250 E2.6718
; feature outer perimeter
G1 X14.266 Y2.750 F9000
G1 X14.266 Y23.750 E1.5279 F1200
G1 X-23.456 Y23.750 E2.7446
G1 X-23.456 Y2.750 E1.5279
G1 X14.266 Y2.750 E2.7446
; feature inner perimeter
G1 X12.344 Y4.550 F9000
G1 X-21.656 Y4.550 E2.4737 F1800
G1 X-21.656 Y21.950 E1.2660
G1 X12.344 Y21.950 E2.4737
G1 X12.344 Y4.550 E1.2660
; feature outer perimeter
G1 X11.844 Y5.050 F9000
G1 X-21.156 Y5.050 E2.4010 F1200
G1 X-21.156 Y21.450 E1.1932
G1 X11.844 Y21.450 E2.4010
G1 X11.844 Y5.050 E1.1932
; feature solid layer
G1 X12.744 Y4.965 F9000
G1 X13.366 Y5.588 E0.0641 F2400
G1 X13.366 Y6.295 E0.0514
G1 X12.744 Y5.673 E0.0641
G1 X12.744 Y6.380 E0.0514
G1 X13.366 Y7.002 E0.0641
G1 X13.366 Y7.709 E0.0514
G1 X12.744 Y7.087 E0.0641
G1 X12.744 Y7.794 E0.0514
G1 X13.366 Y8.416 E0.0641
G1 X13.366 Y9.123 E0.0514
G1 X12.744 Y8.501 E0.0641
G1 X12.744 Y9.208 E0.0514
G1 X13.366 Y9.831 E0.0641
G1 X13.366 Y10.538 E0.0514
G1 X12.744 Y9.915 E0.0641
G1 X12.744 Y10.622 E0.0514
G1 X13.366 Y11.245 E0.0641
G1 X13.366 Y11.952 E0.0514
G1 X12.744 Y11.329 E0.0641
G1 X12.744 Y12.036 E0.0514
G1 X13.366 Y12.659 E0.0641
G1 X13.366 Y13.366 E0.0514
G1 X12.744 Y12.744 E0.0641
G1 X12.744 Y13.451 E0.0514
G1 X13.366 Y14.073 E0.0641
G1 X13.366 Y14.780 E0.0514
G1 X12.744 Y14.158 E0.0641
G1 X12.744 Y14.865 E0.0514
G1 X13.366 Y15.487 E0.0641
G1 X13.366 Y16.195 E0.0514
G1 X12.744 Y15.572 E0.0641
G1 X12.744 Y16.279 E0.0514
G1 X13.366 Y16.902 E0.0641
G1 X13.366 Y17.609 E0.0514
G1 X12.744 Y16.986 E0.0641
G1 X12.744 Y17.693 E0.0514
G1 X13.366 Y18.316 E0.0641
G1 X13.366 Y19.023 E0.0514
G1 X12.744 Y18.400 E0.0641
G1 X12.744 Y19.108 E0.0514
G1 X13.366 Y19.730 E0.0641
G1 X13.366 Y20.437 E0.0514
G1 X12.744 Y19.815 E0.0641
G1 X12.744 Y20.522 E0.0514
G1 X13.366 Y21.144 E0.0641
G1 X13.366 Y21.851 E0.0514
G1 X12.744 Y21.229 E0.0641
G1 X12.744 Y21.936 E0.0514
G1 X13.366 Y22.559 E0.0641
G1 X13.366 Y22.850 E0.0212
G1 X12.951 Y22.850 E0.0302
G1 X12.451 Y22.350 E0.0514
G1 X11.743 Y22.350 E0.0514
G1 X12.243 Y22.850 E0.0514
G1 X11.536 Y22.850 E0.0514
G1 X11.036 Y22.350 E0.0514
G1 X10.329 Y22.350 E0.0514
G1 X10.829 Y22.850 E0.0514
G1 X10.122 Y22.850 E0.0514
G1 X9.622 Y22.350 E0.0514
G1 X8.915 Y22.350 E0.0514
G1 X9.415 Y22.850 E0.0514
G1 X8.708 Y22.850 E0.0514
G1 X8.208 Y22.350 E0.0514
G1 X7.501 Y22.350 E0.0514
G1 X8.001 Y22.850 E0.0514
G1 X7.294 Y22.850 E0.0514
G1 X6.794 Y22.350 E0.0514
G1 X6.087 Y22.350 E0.0514
G1 X6.587 Y22.850 E0.0514
G1 X5.879 Y22.850 E0.0514
G1 X5.379 Y22.350 E0.0514
G1 X4.672 Y22.350 E0.0514
G1 X5.172 Y22.850 E0.0514
G1 X4.465 Y22.850 E0.0514
G1 X3.965 Y22.350 E0.0514
G1 X3.258 Y22.350 E0.0514
G1 X3.758 Y22.850 E0.0514
G1 X3.051 Y22.850 E0.0514
G1 X2.551 Y22.350 E0.0514
G1 X1.844 Y22.350 E0.0514
G1 X2.344 Y22.850 E0.0514
G1 X1.637 Y22.850 E0.0514
G1 X1.137 Y22.350 E0.0514
G1 X0.430 Y22.350 E0.0514
G1 X0.930 Y22.850 E0.0514
G1 X0.223 Y22.850 E0.0514
G1 X-0.277 Y22.350 E0.0514
G1 X-0.985 Y22.350 E0.0514
G1 X-0.485 Y22.850 E0.0514
G1 X-1.192 Y22.850 E0.0514
G1 X-1.692 Y22.350 E0.0514
G1 X-2.399 Y22.350 E0.0514
G1 X-1.899 Y22.850 E0.0514
G1 X-2.606 Y22.850 E0.0514
G1 X-3.106 Y22.350 E0.0514
G1 X-3.813 Y22.350 E0.0514
G1 X-3.313 Y22.850 E0.0514
G1 X-4.020 Y22.850 E0.0514
G1 X-4.520 Y22.350 E0.0514
G1 X-5.227 Y22.350 E0.0514
G1 X-4.727 Y22.850 E0.0514
G1 X-5.434 Y22.850 E0.0514
G1 X-5.934 Y22.350 E0.0514
G1 X-6.641 Y22.350 E0.0514
G1 X-6.141 Y22.850 E0.0514
G1 X-6.848 Y22.850 E0.0514
G1 X-7.348 Y22.350 E0.0514
G1 X-8.056 Y22.350 E0.0514
G1 X-7.556 Y22.850 E0.0514
G1 X-8.263 Y22.850 E0.0514
G1 X-8.763 Y22.350 E0.0514
G1 X-9.470 Y22.350 E0.0514
G1 X-8.970 Y22.850 E0.0514
G1 X-9.677 Y22.850 E0.0514
G1 X-10.177 Y22.350 E0.0514
G1 X-10.884 Y22.350 E0.0514
G1 X-10.384 Y22.850 E0.0514
G1 X-11.091 Y22.850 E0.0514
G1 X-11.591 Y22.350 E0.0514
G1 X-12.298 Y22.350 E0.0514
G1 X-11.798 Y22.850 E0.0514
G1 X-12.505 Y22.850 E0.0514
G1 X-13.005 Y22.350 E0.0514
G1 X-13.712 Y22.350 E0.0514
G1 X-13.212 Y22.850 E0.0514
G1 X-13.920 Y22.850 E0.0514
G1 X-14.420 Y22.350 E0.0514
G1 X-15.127 Y22.350 E0.0514
G1 X-14.627 Y22.850 E0.0514
G1 X-15.334 Y22.850 E0.0514
G1 X-15.834 Y22.350 E0.0514
G1 X-16.541 Y22.350 E0.0514
G1 X-16.041 Y22.850 E0.0514
G1 X-16.748 Y22.850 E0.0514
G1 X-17.248 Y22.350 E0.0514
G1 X-17.955 Y22.350 E0.0514
G1 X-17.455 Y22.850 E0.0514
G1 X-18.162 Y22.850 E0.0514
G1 X-18.662 Y22.350 E0.0514
G1 X-19.369 Y22.350 E0.0514
G1 X-18.869 Y22.850 E0.0514
G1 X-19.576 Y22.850 E0.0514
G1 X-20.076 Y22.350 E0.0514
G1 X-20.784 Y22.350 E0.0514
G1 X-20.284 Y22.850 E0.0514
G1 X-20.991 Y22.850 E0.0514
G1 X-21.491 Y22.350 E0.0514
G1 X-22.556 Y22.698 F9000
G1 X-22.405 Y22.850 E0.0156 F2400
G1 X-21.698 Y22.850 E0.0514
G1 X-22.556 Y21.991 E0.0884
G1 X-22.556 Y21.284 E0.0514
G1 X-22.056 Y21.784 E0.0514
G1 X-22.056 Y21.077 E0.0514
G1 X-22.556 Y20.577 E0.0514
G1 X-22.556 Y19.870 E0.0514
G1 X-22.056 Y20.370 E0.0514
G1 X-22.056 Y19.663 E0.0514
G1 X-22.556 Y19.163 E0.0514
G1 X-22.556 Y18.456 E0.0514
G1 X-22.056 Y18.956 E0.0514
G1 X-22.056 Y18.249 E0.0514
G1 X-22.556 Y17.749 E0.0514
G1 X-22.556 Y17.042 E0.0514
G1 X-22.056 Y17.542 E0.0514
G1 X-22.056 Y16.834 E0.0514
G1 X-22.556 Y16.334 E0.0514
G1 X-22.556 Y15.627 E0.0514
G1 X-22.056 Y16.127 E0.0514
G1 X-22.056 Y15.420 E0.0514
G1 X-22.556 Y14.920 E0.0514
G1 X-22.556 Y14.213 E0.0514
G1 X-22.056 Y14.713 E0.0514
G1 X-22.056 Y14.006 E0.0514
G1 X-22.556 Y13.506 E0.0514
G1 X-22.556 Y12.799 E0.0514
G1 X-22.056 Y13.299 E0.0514
G1 X-22.056 Y12.592 E0.0514
G1 X-22.556 Y12.092 E0.0514
G1 X-22.556 Y11.385 E0.0514
G1 X-22.056 Y11.885 E0.0514
G1 X-22.056 Y11.178 E0.0514
G1 X-22.556 Y10.678 E0.0514
G1 X-22.556 Y9.971 E0.0514
G1 X-22.056 Y10.471 E0.0514
G1 X-22.056 Y9.763 E0.0514
G1 X-22.556 Y9.263 E0.0514
G1 X-22.556 Y8.556 E0.0514
G1 X-22.056 Y9.056 E0.0514
G1 X-22.056 Y8.349 E0.0514
G1 X-22.556 Y7.849 E0.0514
G1 X-22.556 Y7.142 E0.0514
G1 X-22.056 Y7.642 E0.0514
G1 X-22.056 Y6.935 E0.0514
G1 X-22.556 Y6.435 E0.0514
G1 X-22.556 Y5.728 E0.0514
G1 X-22.056 Y6.228 E0.0514
G1 X-22.056 Y5.521 E0.0514
G1 X-22.556 Y5.021 E0.0514
G1 X-22.556 Y4.314 E0.0514
G1 X-22.056 Y4.814 E0.0514
G1 X-22.056 Y4.150 E0.0483
G1 X-22.013 Y4.150 E0.0032
G1 X-22.513 Y3.650 E0.0514
G1 X-21.806 Y3.650 E0.0514
G1 X-21.306 Y4.150 E0.0514
G1 X-20.599 Y4.150 E0.0514
G1 X-21.099 Y3.650 E0.0514
G1 X-20.392 Y3.650 E0.0514
G1 X-19.892 Y4.150 E0.0514
G1 X-19.185 Y4.150 E0.0514
G1 X-19.685 Y3.650 E0.0514
G1 X-18.977 Y3.650 E0.0514
G1 X-18.477 Y4.150 E0.0514
G1 X-17.770 Y4.150 E0.0514
G1 X-18.270 Y3.650 E0.0514
G1 X-17.563 Y3.650 E0.0514
G1 X-17.063 Y4.150 E0.0514
G1 X-16.356 Y4.150 E0.0514
G1 X-16.856 Y3.650 E0.0514
G1 X-16.149 Y3.650 E0.0514
G1 X-15.649 Y4.150 E0.0514
G1 X-14.942 Y4.150 E0.0514
G1 X-15.442 Y3.650 E0.0514
G1 X-14.735 Y3.650 E0.0514
G1 X-14.235 Y4.150 E0.0514
G1 X-13.528 Y4.150 E0.0514
G1 X-14.028 Y3.650 E0.0514
G1 X-13.321 Y3.650 E0.0514
G1 X-12.821 Y4.150 E0.0514
G1 X-12.113 Y4.150 E0.0514
G1 X-12.613 Y3.650 E0.0514
G1 X-11.906 Y3.650 E0.0514
G1 X-11.406 Y4.150 E0.0514
G1 X-10.699 Y4.150 E0.0514
G1 X-11.199 Y3.650 E0.0514
G1 X-10.492 Y3.650 E0.0514
G1 X-9.992 Y4.150 E0.0514
G1 X-9.285 Y4.150 E0.0514
G1 X-9.785 Y3.650 E0.0514
G1 X-9.078 Y3.650 E0.0514
G1 X-8.578 Y4.150 E0.0514
G1 X-7.871 Y4.150 E0.0514
G1 X-8.371 Y3.650 E0.0514
G1 X-7.664 Y3.650 E0.0514
G1 X-7.164 Y4.150 E0.0514
G1 X-6.457 Y4.150 E0.0514
G1 X-6.957 Y3.650 E0.0514
G1 X-6.249 Y3.650 E0.0514
G1 X-5.749 Y4.150 E0.0514
G1 X-5.042 Y4.150 E0.0514
G1 X-5.542 Y3.650 E0.0514
G1 X-4.835 Y3.650 E0.0514
G1 X-4.335 Y4.150 E0.0514
G1 X-3.628 Y4.150 E0.0514
G1 X-4.128 Y3.650 E0.0514
G1 X-3.421 Y3.650 E0.0514
G1 X-2.921 Y4.150 E0.0514
G1 X-2.214 Y4.150 E0.0514
G1 X-2.714 Y3.650 E0.0514
G1 X-2.007 Y3.650 E0.0514
G1 X-1.507 Y4.150 E0.0514
G1 X-0.800 Y4.150 E0.0514
G1 X-1.300 Y3.650 E0.0514
G1 X-0.593 Y3.650 E0.0514
G1 X-0.093 Y4.150 E0.0514
G1 X0.614 Y4.150 E0.0514
G1 X0.114 Y3.650 E0.0514
G1 X0.822 Y3.650 E0.0514
G1 X1.322 Y4.150 E0.0514
G1 X2.029 Y4.150 E0.0514
G1 X1.529 Y3.650 E0.0514
G1 X2.236 Y3.650 E0.0514
G1 X2.736 Y4.150 E0.0514
G1 X3.443 Y4.150 E0.0514
G1 X2.943 Y3.650 E0.0514
G1 X3.650 Y3.650 E0.0514
G1 X4.150 Y4.150 E0.0514
G1 X4.857 Y4.150 E0.0514
G1 X4.357 Y3.650 E0.0514
G1 X5.064 Y3.650 E0.0514
G1 X5.564 Y4.150 E0.0514
G1 X6.271 Y4.150 E0.0514
G1 X5.771 Y3.650 E0.0514
G1 X6.478 Y3.650 E0.0514
G1 X6.978 Y4.150 E0.0514
G1 X7.686 Y4.150 E0.0514
G1 X7.186 Y3.650 E0.0514
G1 X7.893 Y3.650 E0.0514
G1 X8.393 Y4.150 E0.0514
G1 X9.100 Y4.150 E0.0514
G1 X8.600 Y3.650 E0.0514
