; G-Code generated by Simplify3D(R) Version 4.1.2
; Aug 3, 2020 at 12:39:31 PM
; Settings Summary
;   processName,Process1
;   applyToModels,Case 1,Case 2
;   profileName,MakerBot Replicator 2 HBP (modified)
;   profileVersion,2020-04-21 14:45:34
;   baseProfile,MakerBot Replicator 2(2)
;   printMaterial,PLA
;   printQuality,Medium
;   printExtruders,
;   extruderName,Primary Extruder
;   extruderToolheadNumber,0
;   extruderDiameter,0.4
;   extruderAutoWidth,0
;   extruderWidth,0.5
;   extrusionMultiplier,1
;   extruderUseRetract,1
;   extruderRetractionDistance,1.9
;   extruderExtraRestartDistance,0
;   extruderRetractionZLift,0.5
;   extruderRetractionSpeed,1200
;   extruderUseCoasting,0
;   extruderCoastingDistance,0.2
;   extruderUseWipe,0
;   extruderWipeDistance,5
;   primaryExtruder,0
;   layerHeight,0.35
;   topSolidLayers,4
;   bottomSolidLayers,3
;   perimeterOutlines,2
;   printPerimetersInsideOut,1
;   startPointOption,3
;   startPointOriginX,140
;   startPointOriginY,0
;   sequentialIslands,0
;   spiralVaseMode,0
;   firstLayerHeightPercentage,100
;   firstLayerWidthPercentage,100
;   firstLayerUnderspeed,0.5
;   useRaft,0
;   raftExtruder,0
;   raftTopLayers,2
;   raftBaseLayers,1
;   raftOffset,1
;   raftSeparationDistance,0.14
;   raftTopInfill,90
;   aboveRaftSpeedMultiplier,0.3
;   useSkirt,0
;   skirtExtruder,0
;   skirtLayers,1
;   skirtOutlines,5
;   skirtOffset,0
;   usePrimePillar,0
;   primePillarExtruder,999
;   primePillarWidth,12
;   primePillarLocation,7
;   primePillarSpeedMultiplier,1
;   useOozeShield,0
;   oozeShieldExtruder,999
;   oozeShieldOffset,2
;   oozeShieldOutlines,1
;   oozeShieldSidewallShape,1
;   oozeShieldSidewallAngle,30
;   oozeShieldSpeedMultiplier,1
;   infillExtruder,0
;   internalInfillPattern,Rectilinear
;   externalInfillPattern,Rectilinear
;   infillPercentage,20
;   outlineOverlapPercentage,20
;   infillExtrusionWidthPercentage,100
;   minInfillLength,5
;   infillLayerInterval,1
;   internalInfillAngles,45,-45
;   overlapInternalInfillAngles,0
;   externalInfillAngles,45,-45
;   generateSupport,0
;   supportExtruder,0
;   supportInfillPercentage,30
;   supportExtraInflation,0.6
;   supportBaseLayers,0
;   denseSupportExtruder,0
;   denseSupportLayers,2
;   denseSupportInfillPercentage,70
;   supportLayerInterval,1
;   supportHorizontalPartOffset,0.3
;   supportUpperSeparationLayers,1
;   supportLowerSeparationLayers,1
;   supportType,0
;   supportGridSpacing,99
;   maxOverhangAngle,45
;   supportAngles,0
;   temperatureName,Primary Extruder,Heated Build Platform
;   temperatureNumber,0,0
;   temperatureSetpointCount,1,1
;   temperatureSetpointLayers,1,1
;   temperatureSetpointTemperatures,210,65
;   temperatureStabilizeAtStartup,1,1
;   temperatureHeatedBed,0,1
;   fanLayers,1,2
;   fanSpeeds,0,100
;   blipFanToFullPower,1
;   adjustSpeedForCooling,1
;   minSpeedLayerTime,15
;   minCoolingSpeedSlowdown,20
;   increaseFanForCooling,1
;   minFanLayerTime,45
;   maxCoolingFanSpeed,100
;   increaseFanForBridging,1
;   bridgingFanSpeed,100
;   use5D,1
;   relativeEdistances,1
;   allowEaxisZeroing,0
;   independentExtruderAxes,1
;   includeM10123,0
;   stickySupport,1
;   applyToolheadOffsets,0
;   gcodeXoffset,0
;   gcodeYoffset,0
;   gcodeZoffset,0
;   overrideMachineDefinition,1
;   machineTypeOverride,0
;   strokeXoverride,280
;   strokeYoverride,150
;   strokeZoverride,150
;   originOffsetXoverride,140
;   originOffsetYoverride,75
;   originOffsetZoverride,0
;   homeXdirOverride,1
;   homeYdirOverride,1
;   homeZdirOverride,-1
;   flipXoverride,1
;   flipYoverride,-1
;   flipZoverride,1
;   toolheadOffsets,0,0|0,0|0,0|0,0|0,0|0,0
;   overrideFirmwareConfiguration,1
;   firmwareTypeOverride,MakerBot/Sailfish Firmware
;   GPXconfigOverride,r2h
;   baudRateOverride,115200
;   overridePrinterModels,1
;   printerModelsOverride,MakerBot_Replicator2.stl
;   startingGcode,; **** Replicator 2 start.gcode ****,M73 P0 ; enable build progress,G162 X Y F3000 ; home XY maximum,G161 Z F1200 ; home Z minimum,G92 Z-5 ; set Z to -5,G1 Z0 ; move Z to 0,G28 ; better homing homie,M132 X Y Z A B ; recall home offsets,G1 X-145 Y-75 Z30 F9000 ; move to wait position off table,G130 X20 Y20 Z20 A20 B20 ; lower stepper Vrefs while heating,M126 S[fan_speed_pwm],M140 S[bed0_temperature] T0,M134 T0 ; stabilize bed temperature,M104 S[extruder0_temperature] T0,M133 T0 ; stabilize extruder temperature,G130 X127 Y127 Z40 A127 B127 ; default stepper Vrefs,G92 A0 ; zero extruder,G1 Z0.4 ; position nozzle,G1 E25 F300 ; purge nozzle,G1 X-140 Y-70 Z0.15 F1200 ; slow wipe,G1 X-135 Y-65 Z0.5 F1200 ; lift,G92 A0 ; zero extruder,M73 P1 ;@body (notify GPX body has started),; **** end of start.gcode ****
;   layerChangeGcode,
;   retractionGcode,
;   toolChangeGcode,
;   endingGcode,; **** Replicator 2 end.gcode ****,M73 P100 ; end build progress,G1 Z155 F1000 ; send Z axis to bottom of machine,M104 S0 T0 ; cool down extruder,M140 S0 T0 ; cool down HBP,M127 ; stop blower fan,G162 X Y F3000 ; home XY maximum,M18 ; disable stepper,M0 ; stop codes,M72 P1 ; play Ta-Da song,; **** end of end.gcode ****
;   exportFileFormat,gcode
;   celebration,0
;   celebrationSong,Random Song
;   postProcessing,
;   defaultSpeed,4800
;   outlineUnderspeed,0.5
;   solidInfillUnderspeed,1
;   supportUnderspeed,1
;   rapidXYspeed,9000
;   rapidZspeed,1200
;   minBridgingArea,50
;   bridgingExtraInflation,0
;   bridgingExtrusionMultiplier,1
;   bridgingSpeedMultiplier,0.8
;   useFixedBridgingAngle,0
;   fixedBridgingAngle,0
;   applyBridgingToPerimeters,0
;   filamentDiameters,1.75|1.75|1.75|1.75|1.75|1.75
;   filamentPricesPerKg,46|46|46|46|46|46
;   filamentDensities,1.25|1.25|1.25|1.25|1.25|1.25
;   useMinPrintHeight,0
;   minPrintHeight,0
;   useMaxPrintHeight,0
;   maxPrintHeight,4.84
;   useDiaphragm,0
;   diaphragmLayerInterval,20
;   robustSlicing,1
;   mergeAllIntoSolid,0
;   onlyRetractWhenCrossingOutline,0
;   retractBetweenLayers,0
;   useRetractionMinTravel,1
;   retractionMinTravel,7
;   retractWhileWiping,1
;   onlyWipeOutlines,1
;   avoidCrossingOutline,0
;   maxMovementDetourFactor,3
;   toolChangeRetractionDistance,12
;   toolChangeExtraRestartDistance,-0.5
;   toolChangeRetractionSpeed,600
;   externalThinWallType,0
;   internalThinWallType,0
;   thinWallAllowedOverlapPercentage,10
;   singleExtrusionMinLength,1
;   singleExtrusionMinPrintingWidthPercentage,50
;   singleExtrusionMaxPrintingWidthPercentage,200
;   singleExtrusionEndpointExtension,0.2
;   horizontalSizeCompensation,0
G90
M83
; **** Replicator 2 start.gcode ****
M73 P0 ; enable build progress
G162 X Y F3000 ; home XY maximum
G161 Z F1200 ; home Z minimum
G92 Z-5 ; set Z to -5
G1 Z0 ; move Z to 0
G28 ; better homing homie
M132 X Y Z A B ; recall home offsets
G1 X-145 Y-75 Z30 F9000 ; move to wait position off table
G130 X20 Y20 Z20 A20 B20 ; lower stepper Vrefs while heating
M127
M140 S65 T0
M134 T0 ; stabilize bed temperature
M104 S210 T0
M133 T0 ; stabilize extruder temperature
G130 X127 Y127 Z40 A127 B127 ; default stepper Vrefs
G92 A0 ; zero extruder
G1 Z0.4 ; position nozzle
G1 E25 F300 ; purge nozzle
G1 X-140 Y-70 Z0.15 F1200 ; slow wipe
G1 X-135 Y-65 Z0.5 F1200 ; lift
G92 A0 ; zero extruder
M73 P1 ;@body (notify GPX body has started)
; **** end of start.gcode ****
; process Process1
; layer 1, Z = 0.350
M135 T0
G1 E-1.9000 F1200
; feature inner perimeter
; tool H0.350 W0.500
G1 Z0.500 F1200
G1 X-3.250 Y16.300 F9000
G1 Z0.350 F1200
G1 E1.9000 F1200
G1 X-49.520 Y16.300 E3.3664 F1800
G1 X-49.520 Y-16.300 E2.3719
G1 X-3.250 Y-16.300 E3.3664
G1 X-3.250 Y16.300 E2.3719
; feature outer perimeter
G1 X-2.750 Y16.800 F9000
G1 X-50.020 Y16.800 E3.4392 F1200
G1 X-50.020 Y-16.800 E2.4446
G1 X-2.750 Y-16.800 E3.4392
G1 X-2.750 Y16.800 E2.4446
G1 E-1.9000 F1200
; feature solid layer
G1 Z0.850 F1200
G1 X-3.879 Y-15.900 F9000
G1 Z0.350 F1200
G1 E1.9000 F1200
G1 X-3.650 Y-15.671 E0.0236 F2400
G1 X-3.650 Y-14.964 E0.0514
G1 X-4.586 Y-15.900 E0.0963
G1 X-5.293 Y-15.900 E0.0514
G1 X-3.650 Y-14.257 E0.1691
G1 X-3.650 Y-13.550 E0.0514
G1 X-6.000 Y-15.900 E0.2418
G1 X-6.708 Y-15.900 E0.0514
G1 X-3.650 Y-12.842 E0.3146
G1 X-3.650 Y-12.135 E0.0514
G1 X-7.415 Y-15.900 E0.3874
G1 X-8.122 Y-15.900 E0.0514
G1 X-3.650 Y-11.428 E0.4601
G1 X-3.650 Y-10.721 E0.0514
G1 X-8.829 Y-15.900 E0.5329
G1 X-9.536 Y-15.900 E0.0514
G1 X-3.650 Y-10.014 E0.6056
G1 X-3.650 Y-9.307 E0.0514
G1 X-10.243 Y-15.900 E0.6784
G1 X-10.950 Y-15.900 E0.0514
G1 X-3.650 Y-8.600 E0.7511
G1 X-3.650 Y-7.893 E0.0514
G1 X-11.657 Y-15.900 E0.8239
G1 X-12.364 Y-15.900 E0.0514
G1 X-3.650 Y-7.186 E0.8967
G1 X-3.650 Y-6.478 E0.0514
G1 X-13.072 Y-15.900 E0.9694
G1 X-13.779 Y-15.900 E0.0514
G1 X-3.650 Y-5.771 E1.0422
G1 X-3.650 Y-5.064 E0.0514
G1 X-14.486 Y-15.900 E1.1149
G1 X-15.193 Y-15.900 E0.0514
G1 X-3.650 Y-4.357 E1.1877
G1 X-3.650 Y-3.650 E0.0514
G1 X-15.900 Y-15.900 E1.2604
G1 X-16.607 Y-15.900 E0.0514
G1 X-3.650 Y-2.943 E1.3332
G1 X-3.650 Y-2.236 E0.0514
G1 X-17.314 Y-15.900 E1.4060
G1 X-18.021 Y-15.900 E0.0514
G1 X-3.650 Y-1.529 E1.4787
G1 X-3.650 Y-0.822 E0.0514
G1 X-18.728 Y-15.900 E1.5515
G1 X-19.436 Y-15.900 E0.0514
G1 X-3.650 Y-0.114 E1.6242
G1 X-3.650 Y0.593 E0.0514
G1 X-20.143 Y-15.900 E1.6970
G1 X-20.850 Y-15.900 E0.0514
G1 X-3.650 Y1.300 E1.7697
G1 X-3.650 Y2.007 E0.0514
G1 X-21.557 Y-15.900 E1.8425
G1 X-22.264 Y-15.900 E0.0514
G1 X-3.650 Y2.714 E1.9152
G1 X-3.650 Y3.421 E0.0514
G1 X-22.971 Y-15.900 E1.9880
G1 X-23.678 Y-15.900 E0.0514
G1 X-3.650 Y4.128 E2.0608
G1 X-3.650 Y4.835 E0.0514
G1 X-24.385 Y-15.900 E2.1335
G1 X-25.092 Y-15.900 E0.0514
G1 X-3.650 Y5.542 E2.2063
G1 X-3.650 Y6.249 E0.0514
G1 X-25.799 Y-15.900 E2.2790
G1 X-26.507 Y-15.900 E0.0514
G1 X-3.650 Y6.957 E2.3518
G1 X-3.650 Y7.664 E0.0514
G1 X-27.214 Y-15.900 E2.4245
G1 X-27.921 Y-15.900 E0.0514
G1 X-3.650 Y8.371 E2.4973
G1 X-3.650 Y9.078 E0.0514
G1 X-28.628 Y-15.900 E2.5701
G1 X-29.335 Y-15.900 E0.0514
G1 X-3.650 Y9.785 E2.6428
G1 X-3.650 Y10.492 E0.0514
G1 X-30.042 Y-15.900 E2.7156
G1 X-30.749 Y-15.900 E0.0514
G1 X-3.650 Y11.199 E2.7883
G1 X-3.650 Y11.906 E0.0514
G1 X-31.456 Y-15.900 E2.8611
G1 X-32.163 Y-15.900 E0.0514
G1 X-3.650 Y12.613 E2.9338
G1 X-3.650 Y13.321 E0.0514
G1 X-32.871 Y-15.900 E3.0066
G1 X-33.578 Y-15.900 E0.0514
G1 X-3.650 Y14.028 E3.0794
G1 X-3.650 Y14.735 E0.0514
G1 X-34.285 Y-15.900 E3.1521
G1 X-34.992 Y-15.900 E0.0514
G1 X-3.650 Y15.442 E3.2249
G1 X-3.650 Y15.900 E0.0333
G1 X-3.899 Y15.900 E0.0181
G1 X-35.699 Y-15.900 E3.2720
G1 X-36.406 Y-15.900 E0.0514
G1 X-4.606 Y15.900 E3.2720
G1 X-5.313 Y15.900 E0.0514
G1 X-37.113 Y-15.900 E3.2720
G1 X-37.820 Y-15.900 E0.0514
G1 X-6.020 Y15.900 E3.2720
G1 X-6.727 Y15.900 E0.0514
G1 X-38.527 Y-15.900 E3.2720
G1 X-39.235 Y-15.900 E0.0514
G1 X-7.435 Y15.900 E3.2720
G1 X-8.142 Y15.900 E0.0514
G1 X-39.942 Y-15.900 E3.2720
G1 X-40.649 Y-15.900 E0.0514
G1 X-8.849 Y15.900 E3.2720
G1 X-9.556 Y15.900 E0.0514
G1 X-41.356 Y-15.900 E3.2720
G1 X-42.063 Y-15.900 E0.0514
G1 X-10.263 Y15.900 E3.2720
G1 X-10.970 Y15.900 E0.0514
G1 X-42.770 Y-15.900 E3.2720
G1 X-43.477 Y-15.900 E0.0514
G1 X-11.677 Y15.900 E3.2720
G1 X-12.384 Y15.900 E0.0514
G1 X-44.184 Y-15.900 E3.2720
G1 X-44.891 Y-15.900 E0.0514
G1 X-13.091 Y15.900 E3.2720
G1 X-13.798 Y15.900 E0.0514
G1 X-45.598 Y-15.900 E3.2720
G1 X-46.306 Y-15.900 E0.0514
G1 X-14.506 Y15.900 E3.2720
G1 X-15.213 Y15.900 E0.0514
G1 X-47.013 Y-15.900 E3.2720
G1 X-47.720 Y-15.900 E0.0514
G1 X-15.920 Y15.900 E3.2720
G1 X-16.627 Y15.900 E0.0514
G1 X-48.427 Y-15.900 E3.2720
G1 X-49.120 Y-15.900 E0.0504
G1 X-49.120 Y-15.886 E0.0010
G1 X-17.334 Y15.900 E3.2706
G1 X-18.041 Y15.900 E0.0514
G1 X-49.120 Y-15.179 E3.1978
G1 X-49.120 Y-14.472 E0.0514
G1 X-18.748 Y15.900 E3.1251
G1 X-19.455 Y15.900 E0.0514
G1 X-49.120 Y-13.765 E3.0523
G1 X-49.120 Y-13.058 E0.0514
G1 X-20.162 Y15.900 E2.9795
G1 X-20.870 Y15.900 E0.0514
G1 X-49.120 Y-12.350 E2.9068
G1 X-49.120 Y-11.643 E0.0514
G1 X-21.577 Y15.900 E2.8340
G1 X-22.284 Y15.900 E0.0514
G1 X-49.120 Y-10.936 E2.7613
G1 X-49.120 Y-10.229 E0.0514
G1 X-22.991 Y15.900 E2.6885
G1 X-23.698 Y15.900 E0.0514
G1 X-49.120 Y-9.522 E2.6158
G1 X-49.120 Y-8.815 E0.0514
G1 X-24.405 Y15.900 E2.5430
G1 X-25.112 Y15.900 E0.0514
G1 X-49.120 Y-8.108 E2.4702
G1 X-49.120 Y-7.401 E0.0514
G1 X-25.819 Y15.900 E2.3975
G1 X-26.526 Y15.900 E0.0514
G1 X-49.120 Y-6.694 E2.3247
G1 X-49.120 Y-5.986 E0.0514
G1 X-27.234 Y15.900 E2.2520
G1 X-27.941 Y15.900 E0.0514
G1 X-49.120 Y-5.279 E2.1792
G1 X-49.120 Y-4.572 E0.0514
G1 X-28.648 Y15.900 E2.1065
G1 X-29.355 Y15.900 E0.0514
G1 X-49.120 Y-3.865 E2.0337
G1 X-49.120 Y-3.158 E0.0514
G1 X-30.062 Y15.900 E1.9609
G1 X-30.769 Y15.900 E0.0514
G1 X-49.120 Y-2.451 E1.8882
G1 X-49.120 Y-1.744 E0.0514
G1 X-31.476 Y15.900 E1.8154
G1 X-32.183 Y15.900 E0.0514
G1 X-49.120 Y-1.037 E1.7427
G1 X-49.120 Y-0.330 E0.0514
G1 X-32.890 Y15.900 E1.6699
G1 X-33.597 Y15.900 E0.0514
G1 X-49.120 Y0.377 E1.5972
G1 X-49.120 Y1.085 E0.0514
G1 X-34.305 Y15.900 E1.5244
G1 X-35.012 Y15.900 E0.0514
G1 X-49.120 Y1.792 E1.4517
G1 X-49.120 Y2.499 E0.0514
G1 X-35.719 Y15.900 E1.3789
G1 X-36.426 Y15.900 E0.0514
G1 X-49.120 Y3.206 E1.3061
G1 X-49.120 Y3.913 E0.0514
G1 X-37.133 Y15.900 E1.2334
G1 X-37.840 Y15.900 E0.0514
G1 X-49.120 Y4.620 E1.1606
G1 X-49.120 Y5.327 E0.0514
G1 X-38.547 Y15.900 E1.0879
G1 X-39.254 Y15.900 E0.0514
G1 X-49.120 Y6.034 E1.0151
G1 X-49.120 Y6.741 E0.0514
G1 X-39.961 Y15.900 E0.9424
G1 X-40.669 Y15.900 E0.0514
G1 X-49.120 Y7.449 E0.8696
G1 X-49.120 Y8.156 E0.0514
G1 X-41.376 Y15.900 E0.7968
G1 X-42.083 Y15.900 E0.0514
G1 X-49.120 Y8.863 E0.7241
G1 X-49.120 Y9.570 E0.0514
G1 X-42.790 Y15.900 E0.6513
G1 X-43.497 Y15.900 E0.0514
G1 X-49.120 Y10.277 E0.5786
G1 X-49.120 Y10.984 E0.0514
G1 X-44.204 Y15.900 E0.5058
G1 X-44.911 Y15.900 E0.0514
G1 X-49.120 Y11.691 E0.4331
G1 X-49.120 Y12.398 E0.0514
G1 X-45.618 Y15.900 E0.3603
G1 X-46.325 Y15.900 E0.0514
G1 X-49.120 Y13.105 E0.2875
G1 X-49.120 Y13.812 E0.0514
G1 X-47.033 Y15.900 E0.2148
G1 X-47.740 Y15.900 E0.0514
G1 X-49.120 Y14.520 E0.1420
G1 X-49.120 Y15.227 E0.0514
G1 X-48.447 Y15.900 E0.0693
G1 E-1.9000 F1200
; feature inner perimeter
G1 Z0.850 F1200
G1 X49.520 Y16.300 F9000
G1 Z0.350 F1200
G1 E1.9000 F1200
G1 X3.250 Y16.300 E3.3664 F1800
G1 X3.250 Y-16.300 E2.3719
G1 X49.520 Y-16.300 E3.3664
G1 X49.520 Y16.300 E2.3719
; feature outer perimeter
G1 X50.020 Y16.800 F9000
G1 X2.750 Y16.800 E3.4392 F1200
G1 X2.750 Y-16.800 E2.4446
G1 X50.020 Y-16.800 E3.4392
G1 X50.020 Y16.800 E2.4446
G1 E-1.9000 F1200
; feature solid layer
G1 Z0.850 F1200
G1 X48.447 Y-15.900 F9000
G1 Z0.350 F1200
G1 E1.9000 F1200
G1 X49.120 Y-15.227 E0.0693 F2400
G1 X49.120 Y-14.520 E0.0514
G1 X47.740 Y-15.900 E0.1420
G1 X47.033 Y-15.900 E0.0514
G1 X49.120 Y-13.813 E0.2148
G1 X49.120 Y-13.105 E0.0514
G1 X46.325 Y-15.900 E0.2875
G1 X45.618 Y-15.900 E0.0514
G1 X49.120 Y-12.398 E0.3603
G1 X49.120 Y-11.691 E0.0514
G1 X44.911 Y-15.900 E0.4331
G1 X44.204 Y-15.900 E0.0514
G1 X49.120 Y-10.984 E0.5058
G1 X49.120 Y-10.277 E0.0514
G1 X43.497 Y-15.900 E0.5786
G1 X42.790 Y-15.900 E0.0514
G1 X49.120 Y-9.570 E0.6513
G1 X49.120 Y-8.863 E0.0514
G1 X42.083 Y-15.900 E0.7241
G1 X41.376 Y-15.900 E0.0514
G1 X49.120 Y-8.156 E0.7968
G1 X49.120 Y-7.449 E0.0514
G1 X40.669 Y-15.900 E0.8696
G1 X39.961 Y-15.900 E0.0514
G1 X49.120 Y-6.741 E0.9424
G1 X49.120 Y-6.034 E0.0514
G1 X39.254 Y-15.900 E1.0151
G1 X38.547 Y-15.900 E0.0514
G1 X49.120 Y-5.327 E1.0879
G1 X49.120 Y-4.620 E0.0514
G1 X37.840 Y-15.900 E1.1606
G1 X37.133 Y-15.900 E0.0514
G1 X49.120 Y-3.913 E1.2334
G1 X49.120 Y-3.206 E0.0514
G1 X36.426 Y-15.900 E1.3061
G1 X35.719 Y-15.900 E0.0514
G1 X49.120 Y-2.499 E1.3789
G1 X49.120 Y-1.792 E0.0514
G1 X35.012 Y-15.900 E1.4516
G1 X34.305 Y-15.900 E0.0514
G1 X49.120 Y-1.085 E1.5244
G1 X49.120 Y-0.377 E0.0514
G1 X33.597 Y-15.900 E1.5972
G1 X32.890 Y-15.900 E0.0514
G1 X49.120 Y0.330 E1.6699
G1 X49.120 Y1.037 E0.0514
G1 X32.183 Y-15.900 E1.7427
G1 X31.476 Y-15.900 E0.0514
G1 X49.120 Y1.744 E1.8154
G1 X49.120 Y2.451 E0.0514
G1 X30.769 Y-15.900 E1.8882
G1 X30.062 Y-15.900 E0.0514
G1 X49.120 Y3.158 E1.9609
