; G-Code generated by Simplify3D(R) Version 4.1.2
; Aug 3, 2020 at 12:36:31 PM
; Settings Summary
;   processName,Process1
;   applyToModels,Bracket L,Bracket R,Case 1,Case 2
;   profileName,MakerBot Replicator 2 HBP (modified)
;   profileVersion,2020-04-21 14:45:34
;   baseProfile,MakerBot Replicator 2(2)
;   printMaterial,PLA
;   printQuality,Medium
;   printExtruders,
;   extruderName,Primary Extruder
;   extruderToolheadNumber,0
;   extruderDiameter,0.4
;   extruderAutoWidth,0
;   extruderWidth,0.5
;   extrusionMultiplier,1
;   extruderUseRetract,1
;   extruderRetractionDistance,1.9
;   extruderExtraRestartDistance,0
;   extruderRetractionZLift,0.5
;   extruderRetractionSpeed,1200
;   extruderUseCoasting,0
;   extruderCoastingDistance,0.2
;   extruderUseWipe,0
;   extruderWipeDistance,5
;   primaryExtruder,0
;   layerHeight,0.35
;   topSolidLayers,4
;   bottomSolidLayers,3
;   perimeterOutlines,2
;   printPerimetersInsideOut,1
;   startPointOption,3
;   startPointOriginX,140
;   startPointOriginY,0
;   sequentialIslands,0
;   spiralVaseMode,0
;   firstLayerHeightPercentage,100
;   firstLayerWidthPercentage,100
;   firstLayerUnderspeed,0.5
;   useRaft,0
;   raftExtruder,0
;   raftTopLayers,2
;   raftBaseLayers,1
;   raftOffset,1
;   raftSeparationDistance,0.14
;   raftTopInfill,90
;   aboveRaftSpeedMultiplier,0.3
;   useSkirt,0
;   skirtExtruder,0
;   skirtLayers,1
;   skirtOutlines,5
;   skirtOffset,0
;   usePrimePillar,0
;   primePillarExtruder,999
;   primePillarWidth,12
;   primePillarLocation,7
;   primePillarSpeedMultiplier,1
;   useOozeShield,0
;   oozeShieldExtruder,999
;   oozeShieldOffset,2
;   oozeShieldOutlines,1
;   oozeShieldSidewallShape,1
;   oozeShieldSidewallAngle,30
;   oozeShieldSpeedMultiplier,1
;   infillExtruder,0
;   internalInfillPattern,Rectilinear
;   externalInfillPattern,Rectilinear
;   infillPercentage,20
;   outlineOverlapPercentage,20
;   infillExtrusionWidthPercentage,100
;   minInfillLength,5
;   infillLayerInterval,1
;   internalInfillAngles,45,-45
;   overlapInternalInfillAngles,0
;   externalInfillAngles,45,-45
;   generateSupport,0
;   supportExtruder,0
;   supportInfillPercentage,30
;   supportExtraInflation,0.6
;   supportBaseLayers,0
;   denseSupportExtruder,0
;   denseSupportLayers,2
;   denseSupportInfillPercentage,70
;   supportLayerInterval,1
;   supportHorizontalPartOffset,0.3
;   supportUpperSeparationLayers,1
;   supportLowerSeparationLayers,1
;   supportType,0
;   supportGridSpacing,99
;   maxOverhangAngle,45
;   supportAngles,0
;   temperatureName,Primary Extruder,Heated Build Platform
;   temperatureNumber,0,0
;   temperatureSetpointCount,1,1
;   temperatureSetpointLayers,1,1
;   temperatureSetpointTemperatures,210,65
;   temperatureStabilizeAtStartup,1,1
;   temperatureHeatedBed,0,1
;   fanLayers,1,2
;   fanSpeeds,0,100
;   blipFanToFullPower,1
;   adjustSpeedForCooling,1
;   minSpeedLayerTime,15
;   minCoolingSpeedSlowdown,20
;   increaseFanForCooling,1
;   minFanLayerTime,45
;   maxCoolingFanSpeed,100
;   increaseFanForBridging,1
;   bridgingFanSpeed,100
;   use5D,1
;   relativeEdistances,1
;   allowEaxisZeroing,0
;   independentExtruderAxes,1
;   includeM10123,0
;   stickySupport,1
;   applyToolheadOffsets,0
;   gcodeXoffset,0
;   gcodeYoffset,0
;   gcodeZoffset,0
;   overrideMachineDefinition,1
;   machineTypeOverride,0
;   strokeXoverride,280
;   strokeYoverride,150
;   strokeZoverride,150
;   originOffsetXoverride,140
;   originOffsetYoverride,75
;   originOffsetZoverride,0
;   homeXdirOverride,1
;   homeYdirOverride,1
;   homeZdirOverride,-1
;   flipXoverride,1
;   flipYoverride,-1
;   flipZoverride,1
;   toolheadOffsets,0,0|0,0|0,0|0,0|0,0|0,0
;   overrideFirmwareConfiguration,1
;   firmwareTypeOverride,MakerBot/Sailfish Firmware
;   GPXconfigOverride,r2h
;   baudRateOverride,115200
;   overridePrinterModels,1
;   printerModelsOverride,MakerBot_Replicator2.stl
;   startingGcode,; **** Replicator 2 start.gcode ****,M73 P0 ; enable build progress,G162 X Y F3000 ; home XY maximum,G161 Z F1200 ; home Z minimum,G92 Z-5 ; set Z to -5,G1 Z0 ; move Z to 0,G28 ; better homing homie,M132 X Y Z A B ; recall home offsets,G1 X-145 Y-75 Z30 F9000 ; move to wait position off table,G130 X20 Y20 Z20 A20 B20 ; lower stepper Vrefs while heating,M126 S[fan_speed_pwm],M140 S[bed0_temperature] T0,M134 T0 ; stabilize bed temperature,M104 S[extruder0_temperature] T0,M133 T0 ; stabilize extruder temperature,G130 X127 Y127 Z40 A127 B127 ; default stepper Vrefs,G92 A0 ; zero extruder,G1 Z0.4 ; position nozzle,G1 E25 F300 ; purge nozzle,G1 X-140 Y-70 Z0.15 F1200 ; slow wipe,G1 X-135 Y-65 Z0.5 F1200 ; lift,G92 A0 ; zero extruder,M73 P1 ;@body (notify GPX body has started),; **** end of start.gcode ****
;   layerChangeGcode,
;   retractionGcode,
;   toolChangeGcode,
;   endingGcode,; **** Replicator 2 end.gcode ****,M73 P100 ; end build progress,G1 Z155 F1000 ; send Z axis to bottom of machine,M104 S0 T0 ; cool down extruder,M140 S0 T0 ; cool down HBP,M127 ; stop blower fan,G162 X Y F3000 ; home XY maximum,M18 ; disable stepper,M0 ; stop codes,M72 P1 ; play Ta-Da song,; **** end of end.gcode ****
;   exportFileFormat,gcode
;   celebration,0
;   celebrationSong,Random Song
;   postProcessing,
;   defaultSpeed,4800
;   outlineUnderspeed,0.5
;   solidInfillUnderspeed,1
;   supportUnderspeed,1
;   rapidXYspeed,9000
;   rapidZspeed,1200
;   minBridgingArea,50
;   bridgingExtraInflation,0
;   bridgingExtrusionMultiplier,1
;   bridgingSpeedMultiplier,0.8
;   useFixedBridgingAngle,0
;   fixedBridgingAngle,0
;   applyBridgingToPerimeters,0
;   filamentDiameters,1.75|1.75|1.75|1.75|1.75|1.75
;   filamentPricesPerKg,46|46|46|46|46|46
;   filamentDensities,1.25|1.25|1.25|1.25|1.25|1.25
;   useMinPrintHeight,0
;   minPrintHeight,0
;   useMaxPrintHeight,0
;   maxPrintHeight,4.84
;   useDiaphragm,0
;   diaphragmLayerInterval,20
;   robustSlicing,1
;   mergeAllIntoSolid,0
;   onlyRetractWhenCrossingOutline,0
;   retractBetweenLayers,0
;   useRetractionMinTravel,1
;   retractionMinTravel,7
;   retractWhileWiping,1
;   onlyWipeOutlines,1
;   avoidCrossingOutline,0
;   maxMovementDetourFactor,3
;   toolChangeRetractionDistance,12
;   toolChangeExtraRestartDistance,-0.5
;   toolChangeRetractionSpeed,600
;   externalThinWallType,0
;   internalThinWallType,0
;   thinWallAllowedOverlapPercentage,10
;   singleExtrusionMinLength,1
;   singleExtrusionMinPrintingWidthPercentage,50
;   singleExtrusionMaxPrintingWidthPercentage,200
;   singleExtrusionEndpointExtension,0.2
;   horizontalSizeCompensation,0
G90
M83
; **** Replicator 2 start.gcode ****
M73 P0 ; enable build progress
G162 X Y F3000 ; home XY maximum
G161 Z F1200 ; home Z minimum
G92 Z-5 ; set Z to -5
G1 Z0 ; move Z to 0
G28 ; better homing homie
M132 X Y Z A B ; recall home offsets
G1 X-145 Y-75 Z30 F9000 ; move to wait position off table
G130 X20 Y20 Z20 A20 B20 ; lower stepper Vrefs while heating
M127
M140 S65 T0
M134 T0 ; stabilize bed temperature
M104 S210 T0
M133 T0 ; stabilize extruder temperature
G130 X127 Y127 Z40 A127 B127 ; default stepper Vrefs
G92 A0 ; zero extruder
G1 Z0.4 ; position nozzle
G1 E25 F300 ; purge nozzle
G1 X-140 Y-70 Z0.15 F1200 ; slow wipe
G1 X-135 Y-65 Z0.5 F1200 ; lift
G92 A0 ; zero extruder
M73 P1 ;@body (notify GPX body has started)
; **** end of start.gcode ****
; process Process1
; layer 1, Z = 0.350
M135 T0
G1 E-1.9000 F1200
; feature inner perimeter
; tool H0.350 W0.500
G1 Z0.500 F1200
G1 X-3.250 Y3.050 F9000
G1 Z0.350 F1200
G1 E1.9000 F1200
G1 X-49.520 Y3.050 E3.3664 F1800
G1 X-49.520 Y-29.550 E2.3719
G1 X-3.250 Y-29.550 E3.3664
G1 X-3.250 Y3.050 E2.3719
; feature outer perimeter
G1 X-2.750 Y3.550 F9000
G1 X-50.020 Y3.550 E3.4392 F1200
G1 X-50.020 Y-30.050 E2.4446
G1 X-2.750 Y-30.050 E3.4392
G1 X-2.750 Y3.550 E2.4446
G1 E-1.9000 F1200
; feature solid layer
G1 Z0.850 F1200
G1 X-3.694 Y-29.150 F9000
G1 Z0.350 F1200
G1 E1.9000 F1200
G1 X-3.650 Y-29.106 E0.0045 F2400
G1 X-3.650 Y-28.399 E0.0514
G1 X-4.401 Y-29.150 E0.0773
G1 X-5.108 Y-29.150 E0.0514
G1 X-3.650 Y-27.692 E0.1501
G1 X-3.650 Y-26.985 E0.0514
G1 X-5.815 Y-29.150 E0.2228
G1 X-6.523 Y-29.150 E0.0514
G1 X-3.650 Y-26.277 E0.2956
G1 X-3.650 Y-25.570 E0.0514
G1 X-7.230 Y-29.150 E0.3683
G1 X-7.937 Y-29.150 E0.0514
G1 X-3.650 Y-24.863 E0.4411
G1 X-3.650 Y-24.156 E0.0514
G1 X-8.644 Y-29.150 E0.5138
G1 X-9.351 Y-29.150 E0.0514
G1 X-3.650 Y-23.449 E0.5866
G1 X-3.650 Y-22.742 E0.0514
G1 X-10.058 Y-29.150 E0.6594
G1 X-10.765 Y-29.150 E0.0514
G1 X-3.650 Y-22.035 E0.7321
G1 X-3.650 Y-21.328 E0.0514
G1 X-11.472 Y-29.150 E0.8049
G1 X-12.179 Y-29.150 E0.0514
G1 X-3.650 Y-20.621 E0.8776
G1 X-3.650 Y-19.913 E0.0514
G1 X-12.887 Y-29.150 E0.9504
G1 X-13.594 Y-29.150 E0.0514
G1 X-3.650 Y-19.206 E1.0231
G1 X-3.650 Y-18.499 E0.0514
G1 X-14.301 Y-29.150 E1.0959
G1 X-15.008 Y-29.150 E0.0514
G1 X-3.650 Y-17.792 E1.1686
G1 X-3.650 Y-17.085 E0.0514
G1 X-15.715 Y-29.150 E1.2414
G1 X-16.422 Y-29.150 E0.0514
G1 X-3.650 Y-16.378 E1.3142
G1 X-3.650 Y-15.671 E0.0514
G1 X-17.129 Y-29.150 E1.3869
G1 X-17.836 Y-29.150 E0.0514
G1 X-3.650 Y-14.964 E1.4597
G1 X-3.650 Y-14.257 E0.0514
G1 X-18.543 Y-29.150 E1.5324
G1 X-19.250 Y-29.150 E0.0514
G1 X-3.650 Y-13.550 E1.6052
G1 X-3.650 Y-12.842 E0.0514
G1 X-19.958 Y-29.150 E1.6779
G1 X-20.665 Y-29.150 E0.0514
G1 X-3.650 Y-12.135 E1.7507
G1 X-3.650 Y-11.428 E0.0514
G1 X-21.372 Y-29.150 E1.8235
G1 X-22.079 Y-29.150 E0.0514
G1 X-3.650 Y-10.721 E1.8962
G1 X-3.650 Y-10.014 E0.0514
G1 X-22.786 Y-29.150 E1.9690
G1 X-23.493 Y-29.150 E0.0514
G1 X-3.650 Y-9.307 E2.0417
G1 X-3.650 Y-8.600 E0.0514
G1 X-24.200 Y-29.150 E2.1145
G1 X-24.907 Y-29.150 E0.0514
G1 X-3.650 Y-7.893 E2.1872
G1 X-3.650 Y-7.186 E0.0514
G1 X-25.614 Y-29.150 E2.2600
G1 X-26.322 Y-29.150 E0.0514
G1 X-3.650 Y-6.478 E2.3328
G1 X-3.650 Y-5.771 E0.0514
G1 X-27.029 Y-29.150 E2.4055
G1 X-27.736 Y-29.150 E0.0514
G1 X-3.650 Y-5.064 E2.4783
G1 X-3.650 Y-4.357 E0.0514
G1 X-28.443 Y-29.150 E2.5510
G1 X-29.150 Y-29.150 E0.0514
G1 X-3.650 Y-3.650 E2.6238
G1 X-3.650 Y-2.943 E0.0514
G1 X-29.857 Y-29.150 E2.6965
G1 X-30.564 Y-29.150 E0.0514
G1 X-3.650 Y-2.236 E2.7693
G1 X-3.650 Y-1.529 E0.0514
G1 X-31.271 Y-29.150 E2.8420
G1 X-31.978 Y-29.150 E0.0514
G1 X-3.650 Y-0.822 E2.9148
G1 X-3.650 Y-0.114 E0.0514
G1 X-32.686 Y-29.150 E2.9876
G1 X-33.393 Y-29.150 E0.0514
G1 X-3.650 Y0.593 E3.0603
G1 X-3.650 Y1.300 E0.0514
G1 X-34.100 Y-29.150 E3.1331
G1 X-34.807 Y-29.150 E0.0514
G1 X-3.650 Y2.007 E3.2058
G1 X-3.650 Y2.650 E0.0468
G1 X-3.714 Y2.650 E0.0047
G1 X-35.514 Y-29.150 E3.2720
G1 X-36.221 Y-29.150 E0.0514
G1 X-4.421 Y2.650 E3.2720
G1 X-5.128 Y2.650 E0.0514
G1 X-36.928 Y-29.150 E3.2720
G1 X-37.635 Y-29.150 E0.0514
G1 X-5.835 Y2.650 E3.2720
G1 X-6.542 Y2.650 E0.0514
G1 X-38.342 Y-29.150 E3.2720
G1 X-39.049 Y-29.150 E0.0514
G1 X-7.249 Y2.650 E3.2720
G1 X-7.957 Y2.650 E0.0514
G1 X-39.757 Y-29.150 E3.2720
G1 X-40.464 Y-29.150 E0.0514
G1 X-8.664 Y2.650 E3.2720
G1 X-9.371 Y2.650 E0.0514
G1 X-41.171 Y-29.150 E3.2720
G1 X-41.878 Y-29.150 E0.0514
G1 X-10.078 Y2.650 E3.2720
G1 X-10.785 Y2.650 E0.0514
G1 X-42.585 Y-29.150 E3.2720
G1 X-43.292 Y-29.150 E0.0514
G1 X-11.492 Y2.650 E3.2720
G1 X-12.199 Y2.650 E0.0514
G1 X-43.999 Y-29.150 E3.2720
G1 X-44.706 Y-29.150 E0.0514
G1 X-12.906 Y2.650 E3.2720
G1 X-13.613 Y2.650 E0.0514
G1 X-45.413 Y-29.150 E3.2720
G1 X-46.121 Y-29.150 E0.0514
G1 X-14.321 Y2.650 E3.2720
G1 X-15.028 Y2.650 E0.0514
G1 X-46.828 Y-29.150 E3.2720
G1 X-47.535 Y-29.150 E0.0514
G1 X-15.735 Y2.650 E3.2720
G1 X-16.442 Y2.650 E0.0514
G1 X-48.242 Y-29.150 E3.2720
G1 X-48.949 Y-29.150 E0.0514
G1 X-17.149 Y2.650 E3.2720
G1 X-17.856 Y2.650 E0.0514
G1 X-49.120 Y-28.614 E3.2168
G1 X-49.120 Y-27.907 E0.0514
G1 X-18.563 Y2.650 E3.1441
G1 X-19.270 Y2.650 E0.0514
G1 X-49.120 Y-27.200 E3.0713
G1 X-49.120 Y-26.493 E0.0514
G1 X-19.977 Y2.650 E2.9986
G1 X-20.685 Y2.650 E0.0514
G1 X-49.120 Y-25.785 E2.9258
G1 X-49.120 Y-25.078 E0.0514
G1 X-21.392 Y2.650 E2.8531
G1 X-22.099 Y2.650 E0.0514
G1 X-49.120 Y-24.371 E2.7803
G1 X-49.120 Y-23.664 E0.0514
G1 X-22.806 Y2.650 E2.7076
G1 X-23.513 Y2.650 E0.0514
G1 X-49.120 Y-22.957 E2.6348
G1 X-49.120 Y-22.250 E0.0514
G1 X-24.220 Y2.650 E2.5620
G1 X-24.927 Y2.650 E0.0514
G1 X-49.120 Y-21.543 E2.4893
G1 X-49.120 Y-20.836 E0.0514
G1 X-25.634 Y2.650 E2.4165
G1 X-26.341 Y2.650 E0.0514
G1 X-49.120 Y-20.129 E2.3438
G1 X-49.120 Y-19.422 E0.0514
G1 X-27.048 Y2.650 E2.2710
G1 X-27.756 Y2.650 E0.0514
G1 X-49.120 Y-18.714 E2.1983
G1 X-49.120 Y-18.007 E0.0514
G1 X-28.463 Y2.650 E2.1255
G1 X-29.170 Y2.650 E0.0514
G1 X-49.120 Y-17.300 E2.0527
G1 X-49.120 Y-16.593 E0.0514
G1 X-29.877 Y2.650 E1.9800
G1 X-30.584 Y2.650 E0.0514
G1 X-49.120 Y-15.886 E1.9072
G1 X-49.120 Y-15.179 E0.0514
G1 X-31.291 Y2.650 E1.8345
G1 X-31.998 Y2.650 E0.0514
G1 X-49.120 Y-14.472 E1.7617
G1 X-49.120 Y-13.765 E0.0514
G1 X-32.705 Y2.650 E1.6890
G1 X-33.412 Y2.650 E0.0514
G1 X-49.120 Y-13.058 E1.6162
G1 X-49.120 Y-12.350 E0.0514
G1 X-34.120 Y2.650 E1.5434
G1 X-34.827 Y2.650 E0.0514
G1 X-49.120 Y-11.643 E1.4707
G1 X-49.120 Y-10.936 E0.0514
G1 X-35.534 Y2.650 E1.3979
G1 X-36.241 Y2.650 E0.0514
G1 X-49.120 Y-10.229 E1.3252
G1 X-49.120 Y-9.522 E0.0514
G1 X-36.948 Y2.650 E1.2524
G1 X-37.655 Y2.650 E0.0514
G1 X-49.120 Y-8.815 E1.1797
G1 X-49.120 Y-8.108 E0.0514
G1 X-38.362 Y2.650 E1.1069
G1 X-39.069 Y2.650 E0.0514
G1 X-49.120 Y-7.401 E1.0341
G1 X-49.120 Y-6.694 E0.0514
G1 X-39.776 Y2.650 E0.9614
G1 X-40.484 Y2.650 E0.0514
G1 X-49.120 Y-5.986 E0.8886
G1 X-49.120 Y-5.279 E0.0514
G1 X-41.191 Y2.650 E0.8159
G1 X-41.898 Y2.650 E0.0514
G1 X-49.120 Y-4.572 E0.7431
G1 X-49.120 Y-3.865 E0.0514
G1 X-42.605 Y2.650 E0.6704
G1 X-43.312 Y2.650 E0.0514
G1 X-49.120 Y-3.158 E0.5976
G1 X-49.120 Y-2.451 E0.0514
G1 X-44.019 Y2.650 E0.5249
G1 X-44.726 Y2.650 E0.0514
G1 X-49.120 Y-1.744 E0.4521
G1 X-49.120 Y-1.037 E0.0514
G1 X-45.433 Y2.650 E0.3793
G1 X-46.140 Y2.650 E0.0514
G1 X-49.120 Y-0.330 E0.3066
G1 X-49.120 Y0.377 E0.0514
G1 X-46.847 Y2.650 E0.2338
G1 X-47.555 Y2.650 E0.0514
G1 X-49.120 Y1.085 E0.1611
G1 X-49.120 Y1.792 E0.0514
G1 X-48.262 Y2.650 E0.0883
G1 X-48.969 Y2.650 E0.0514
G1 X-49.120 Y2.499 E0.0156
G1 E-1.9000 F1200
; feature inner perimeter
G1 Z0.850 F1200
G1 X-12.797 Y9.550 F9000
G1 Z0.350 F1200
G1 E1.9000 F1200
G1 X-12.797 Y29.550 E1.4551 F1800
G1 X-49.520 Y29.550 E2.6718
G1 X-49.520 Y9.550 E1.4551
G1 X-12.797 Y9.550 E2.6718
; feature outer perimeter
G1 X-12.297 Y9.050 F9000
G1 X-12.297 Y30.050 E1.5279 F1200
G1 X-50.020 Y30.050 E2.7446
G1 X-50.020 Y9.050 E1.5279
G1 X-12.297 Y9.050 E2.7446
; feature inner perimeter
G1 X-14.220 Y10.850 F9000
G1 X-48.220 Y10.850 E2.4737 F1800
G1 X-48.220 Y28.250 E1.2660
G1 X-14.220 Y28.250 E2.4737
G1 X-14.220 Y10.850 E1.2660
; feature outer perimeter
G1 X-14.720 Y11.350 F9000
G1 X-47.720 Y11.350 E2.4010 F1200
G1 X-47.720 Y27.750 E1.1932
G1 X-14.720 Y27.750 E2.4010
G1 X-14.720 Y11.350 E1.1932
; feature solid layer
G1 X-13.820 Y10.929 F9000
G1 X-13.197 Y11.551 E0.0641 F2400
G1 X-13.197 Y12.258 E0.0514
G1 X-13.820 Y11.636 E0.0641
G1 X-13.820 Y12.343 E0.0514
G1 X-13.197 Y12.965 E0.0641
G1 X-13.197 Y13.673 E0.0514
G1 X-13.820 Y13.050 E0.0641
G1 X-13.820 Y13.757 E0.0514
G1 X-13.197 Y14.380 E0.0641
G1 X-13.197 Y15.087 E0.0514
G1 X-13.820 Y14.464 E0.0641
G1 X-13.820 Y15.171 E0.0514
G1 X-13.197 Y15.794 E0.0641
G1 X-13.197 Y16.501 E0.0514
G1 X-13.820 Y15.878 E0.0641
G1 X-13.820 Y16.586 E0.0514
G1 X-13.197 Y17.208 E0.0641
G1 X-13.197 Y17.915 E0.0514
G1 X-13.820 Y17.293 E0.0641
G1 X-13.820 Y18.000 E0.0514
G1 X-13.197 Y18.622 E0.0641
G1 X-13.197 Y19.329 E0.0514
G1 X-13.820 Y18.707 E0.0641
G1 X-13.820 Y19.414 E0.0514
G1 X-13.197 Y20.037 E0.0641
G1 X-13.197 Y20.744 E0.0514
G1 X-13.820 Y20.121 E0.0641
G1 X-13.820 Y20.828 E0.0514
G1 X-13.197 Y21.451 E0.0641
G1 X-13.197 Y22.158 E0.0514
G1 X-13.820 Y21.535 E0.0641
G1 X-13.820 Y22.242 E0.0514
G1 X-13.197 Y22.865 E0.0641
G1 X-13.197 Y23.572 E0.0514
G1 X-13.820 Y22.950 E0.0641
G1 X-13.820 Y23.657 E0.0514
G1 X-13.197 Y24.279 E0.0641
G1 X-13.197 Y24.986 E0.0514
G1 X-13.820 Y24.364 E0.0641
G1 X-13.820 Y25.071 E0.0514
G1 X-13.197 Y25.693 E0.0641
