; G-Code generated by Simplify3D(R) Version 4.1.2
; Apr 20, 2020 at 5:40:26 PM
; Settings Summary
;   processName,Process1
;   applyToModels,wonka ramp LED bracket,wonka rampV1R4,Gob rampV1R4
;   profileName,MakerBot Replicator 2 HBP (modified)
;   profileVersion,2019-10-28 12:37:50
;   baseProfile,MakerBot Replicator 2(2)
;   printMaterial,PLA
;   printQuality,Medium
;   printExtruders,
;   extruderName,Primary Extruder
;   extruderToolheadNumber,0
;   extruderDiameter,0.4
;   extruderAutoWidth,0
;   extruderWidth,0.4
;   extrusionMultiplier,1
;   extruderUseRetract,1
;   extruderRetractionDistance,1.9
;   extruderExtraRestartDistance,0
;   extruderRetractionZLift,0.5
;   extruderRetractionSpeed,1200
;   extruderUseCoasting,0
;   extruderCoastingDistance,0.2
;   extruderUseWipe,0
;   extruderWipeDistance,5
;   primaryExtruder,0
;   layerHeight,0.2
;   topSolidLayers,3
;   bottomSolidLayers,3
;   perimeterOutlines,2
;   printPerimetersInsideOut,1
;   startPointOption,3
;   startPointOriginX,140
;   startPointOriginY,0
;   sequentialIslands,0
;   spiralVaseMode,0
;   firstLayerHeightPercentage,100
;   firstLayerWidthPercentage,100
;   firstLayerUnderspeed,0.5
;   useRaft,0
;   raftExtruder,0
;   raftTopLayers,2
;   raftBaseLayers,1
;   raftOffset,1
;   raftSeparationDistance,0.14
;   raftTopInfill,90
;   aboveRaftSpeedMultiplier,0.3
;   useSkirt,0
;   skirtExtruder,0
;   skirtLayers,1
;   skirtOutlines,5
;   skirtOffset,0
;   usePrimePillar,0
;   primePillarExtruder,999
;   primePillarWidth,12
;   primePillarLocation,7
;   primePillarSpeedMultiplier,1
;   useOozeShield,0
;   oozeShieldExtruder,999
;   oozeShieldOffset,2
;   oozeShieldOutlines,1
;   oozeShieldSidewallShape,1
;   oozeShieldSidewallAngle,30
;   oozeShieldSpeedMultiplier,1
;   infillExtruder,0
;   internalInfillPattern,Rectilinear
;   externalInfillPattern,Rectilinear
;   infillPercentage,15
;   outlineOverlapPercentage,20
;   infillExtrusionWidthPercentage,100
;   minInfillLength,5
;   infillLayerInterval,1
;   internalInfillAngles,45,-45
;   overlapInternalInfillAngles,0
;   externalInfillAngles,45,-45
;   generateSupport,1
;   supportExtruder,0
;   supportInfillPercentage,20
;   supportExtraInflation,0.5
;   supportBaseLayers,0
;   denseSupportExtruder,0
;   denseSupportLayers,2
;   denseSupportInfillPercentage,70
;   supportLayerInterval,1
;   supportHorizontalPartOffset,0.3
;   supportUpperSeparationLayers,1
;   supportLowerSeparationLayers,1
;   supportType,0
;   supportGridSpacing,2
;   maxOverhangAngle,45
;   supportAngles,0
;   temperatureName,Primary Extruder,Heated Build Platform
;   temperatureNumber,0,0
;   temperatureSetpointCount,1,1
;   temperatureSetpointLayers,1,1
;   temperatureSetpointTemperatures,230,60
;   temperatureStabilizeAtStartup,1,1
;   temperatureHeatedBed,0,1
;   fanLayers,1,2
;   fanSpeeds,0,100
;   blipFanToFullPower,1
;   adjustSpeedForCooling,1
;   minSpeedLayerTime,15
;   minCoolingSpeedSlowdown,20
;   increaseFanForCooling,1
;   minFanLayerTime,45
;   maxCoolingFanSpeed,100
;   increaseFanForBridging,1
;   bridgingFanSpeed,100
;   use5D,1
;   relativeEdistances,1
;   allowEaxisZeroing,0
;   independentExtruderAxes,1
;   includeM10123,0
;   stickySupport,1
;   applyToolheadOffsets,0
;   gcodeXoffset,0
;   gcodeYoffset,0
;   gcodeZoffset,0
;   overrideMachineDefinition,1
;   machineTypeOverride,0
;   strokeXoverride,280
;   strokeYoverride,150
;   strokeZoverride,150
;   originOffsetXoverride,140
;   originOffsetYoverride,75
;   originOffsetZoverride,0
;   homeXdirOverride,1
;   homeYdirOverride,1
;   homeZdirOverride,-1
;   flipXoverride,1
;   flipYoverride,-1
;   flipZoverride,1
;   toolheadOffsets,0,0|0,0|0,0|0,0|0,0|0,0
;   overrideFirmwareConfiguration,1
;   firmwareTypeOverride,MakerBot/Sailfish Firmware
;   GPXconfigOverride,r2h
;   baudRateOverride,115200
;   overridePrinterModels,1
;   printerModelsOverride,MakerBot_Replicator2.stl
;   startingGcode,; **** Replicator 2 start.gcode ****,M73 P0 ; enable build progress,G162 X Y F3000 ; home XY maximum,G161 Z F1200 ; home Z minimum,G92 Z-5 ; set Z to -5,G1 Z0 ; move Z to 0,G161 Z F100 ; home Z slowly,M132 X Y Z A B ; recall home offsets,G1 X-145 Y-75 Z30 F9000 ; move to wait position off table,G130 X20 Y20 Z20 A20 B20 ; lower stepper Vrefs while heating,M126 S[fan_speed_pwm],M140 S[bed0_temperature] T0,M134 T0 ; stabilize bed temperature,M104 S[extruder0_temperature] T0,M133 T0 ; stabilize extruder temperature,G130 X127 Y127 Z40 A127 B127 ; default stepper Vrefs,G92 A0 ; zero extruder,G1 Z0.4 ; position nozzle,G1 E25 F300 ; purge nozzle,G1 X-140 Y-70 Z0.15 F1200 ; slow wipe,G1 X-135 Y-65 Z0.5 F1200 ; lift,G92 A0 ; zero extruder,M73 P1 ;@body (notify GPX body has started),; **** end of start.gcode ****
;   layerChangeGcode,
;   retractionGcode,
;   toolChangeGcode,
;   endingGcode,; **** Replicator 2 end.gcode ****,M73 P100 ; end build progress,G1 Z155 F1000 ; send Z axis to bottom of machine,M104 S0 T0 ; cool down extruder,M140 S0 T0 ; cool down HBP,M127 ; stop blower fan,G162 X Y F3000 ; home XY maximum,M18 ; disable stepper,M0 ; stop codes,M72 P1 ; play Ta-Da song,; **** end of end.gcode ****
;   exportFileFormat,gcode
;   celebration,0
;   celebrationSong,Random Song
;   postProcessing,
;   defaultSpeed,4800
;   outlineUnderspeed,0.5
;   solidInfillUnderspeed,1
;   supportUnderspeed,1
;   rapidXYspeed,9000
;   rapidZspeed,1200
;   minBridgingArea,50
;   bridgingExtraInflation,0
;   bridgingExtrusionMultiplier,1
;   bridgingSpeedMultiplier,0.8
;   useFixedBridgingAngle,0
;   fixedBridgingAngle,0
;   applyBridgingToPerimeters,0
;   filamentDiameters,1.75|1.75|1.75|1.75|1.75|1.75
;   filamentPricesPerKg,46|46|46|46|46|46
;   filamentDensities,1.25|1.25|1.25|1.25|1.25|1.25
;   useMinPrintHeight,0
;   minPrintHeight,0
;   useMaxPrintHeight,0
;   maxPrintHeight,4.84
;   useDiaphragm,0
;   diaphragmLayerInterval,20
;   robustSlicing,1
;   mergeAllIntoSolid,0
;   onlyRetractWhenCrossingOutline,0
;   retractBetweenLayers,0
;   useRetractionMinTravel,1
;   retractionMinTravel,7
;   retractWhileWiping,1
;   onlyWipeOutlines,1
;   avoidCrossingOutline,0
;   maxMovementDetourFactor,3
;   toolChangeRetractionDistance,12
;   toolChangeExtraRestartDistance,-0.5
;   toolChangeRetractionSpeed,600
;   externalThinWallType,0
;   internalThinWallType,0
;   thinWallAllowedOverlapPercentage,10
;   singleExtrusionMinLength,1
;   singleExtrusionMinPrintingWidthPercentage,50
;   singleExtrusionMaxPrintingWidthPercentage,200
;   singleExtrusionEndpointExtension,0.2
;   horizontalSizeCompensation,0
G90
M83
; **** Replicator 2 start.gcode ****
M73 P0 ; enable build progress
G162 X Y F3000 ; home XY maximum
G161 Z F1200 ; home Z minimum
G92 Z-5 ; set Z to -5
G1 Z0 ; move Z to 0
G161 Z F100 ; home Z slowly
M132 X Y Z A B ; recall home offsets
G1 X-145 Y-75 Z30 F9000 ; move to wait position off table
G130 X20 Y20 Z20 A20 B20 ; lower stepper Vrefs while heating
M127
M140 S60 T0
M134 T0 ; stabilize bed temperature
M104 S230 T0
M133 T0 ; stabilize extruder temperature
G130 X127 Y127 Z40 A127 B127 ; default stepper Vrefs
G92 A0 ; zero extruder
G1 Z0.4 ; position nozzle
G1 E25 F300 ; purge nozzle
G1 X-140 Y-70 Z0.15 F1200 ; slow wipe
G1 X-135 Y-65 Z0.5 F1200 ; lift
G92 A0 ; zero extruder
M73 P1 ;@body (notify GPX body has started)
; **** end of start.gcode ****
; process Process1
; layer 1, Z = 0.200
M135 T0
G1 E-1.9000 F1200
; feature inner perimeter
; tool H0.200 W0.400
G1 Z0.500 F1200
G1 X4.400 Y-16.489 F9000
G1 Z0.200 F1200
G1 E1.9000 F1200
G1 X-0.396 Y-16.489 E0.1595 F1800
G1 X-0.396 Y-27.043 E0.3510
G1 X-14.592 Y-27.043 E0.4722
G1 X-14.592 Y-16.489 E0.3510
G1 X-39.399 Y-16.489 E0.8251
G1 X-39.399 Y-27.043 E0.3510
G1 X-53.600 Y-27.043 E0.4723
G1 X-53.600 Y-16.489 E0.3510
G1 X-59.400 Y-16.489 E0.1929
G1 X-59.400 Y-33.837 E0.5770
G1 X4.400 Y-33.837 E2.1220
G1 X4.400 Y-16.489 E0.5770
; feature outer perimeter
G1 X4.800 Y-16.089 F9000
G1 X-0.796 Y-16.089 E0.1861 F1200
G1 X-0.796 Y-26.643 E0.3510
G1 X-14.192 Y-26.643 E0.4456
G1 X-14.192 Y-16.089 E0.3510
G1 X-39.799 Y-16.089 E0.8517
G1 X-39.799 Y-26.643 E0.3510
G1 X-53.200 Y-26.643 E0.4457
G1 X-53.200 Y-16.089 E0.3510
G1 X-59.800 Y-16.089 E0.2195
G1 X-59.800 Y-34.237 E0.6036
G1 X4.800 Y-34.237 E2.1486
G1 X4.800 Y-16.089 E0.6036
; feature solid layer
G1 X0.162 Y-16.809 F9000
G1 X-0.076 Y-17.046 E0.0112 F2400
G1 X-0.076 Y-17.612 E0.0188
G1 X0.727 Y-16.809 E0.0378
G1 X1.293 Y-16.809 E0.0188
G1 X-0.076 Y-18.178 E0.0644
G1 X-0.076 Y-18.743 E0.0188
G1 X1.859 Y-16.809 E0.0910
G1 X2.424 Y-16.809 E0.0188
G1 X-0.076 Y-19.309 E0.1176
G1 X-0.076 Y-19.875 E0.0188
G1 X2.990 Y-16.809 E0.1442
G1 X3.556 Y-16.809 E0.0188
G1 X-0.076 Y-20.440 E0.1708
G1 X-0.076 Y-21.006 E0.0188
G1 X4.080 Y-16.850 E0.1955
G1 X4.080 Y-17.416 E0.0188
G1 X-0.076 Y-21.572 E0.1955
G1 X-0.076 Y-22.137 E0.0188
G1 X4.080 Y-17.982 E0.1955
G1 X4.080 Y-18.547 E0.0188
G1 X-0.076 Y-22.703 E0.1955
G1 X-0.076 Y-23.269 E0.0188
G1 X4.080 Y-19.113 E0.1955
G1 X4.080 Y-19.679 E0.0188
G1 X-0.076 Y-23.834 E0.1955
G1 X-0.076 Y-24.400 E0.0188
G1 X4.080 Y-20.244 E0.1955
G1 X4.080 Y-20.810 E0.0188
G1 X-0.076 Y-24.966 E0.1955
G1 X-0.076 Y-25.531 E0.0188
G1 X4.080 Y-21.376 E0.1955
G1 X4.080 Y-21.942 E0.0188
G1 X-0.076 Y-26.097 E0.1955
G1 X-0.076 Y-26.663 E0.0188
G1 X4.080 Y-22.507 E0.1955
G1 X4.080 Y-23.073 E0.0188
G1 X-0.076 Y-27.229 E0.1955
G1 E-1.9000 F1200
G1 Z0.700 F1200
G1 X3.818 Y-33.517 F9000
G1 Z0.200 F1200
G1 E1.9000 F1200
G1 X4.080 Y-33.255 E0.0123 F2400
G1 X4.080 Y-32.690 E0.0188
G1 X3.252 Y-33.517 E0.0389
G1 X2.686 Y-33.517 E0.0188
G1 X4.080 Y-32.124 E0.0655
G1 X4.080 Y-31.558 E0.0188
G1 X2.121 Y-33.517 E0.0922
G1 X1.555 Y-33.517 E0.0188
G1 X4.080 Y-30.993 E0.1188
G1 X4.080 Y-30.427 E0.0188
G1 X0.989 Y-33.517 E0.1454
G1 X0.424 Y-33.517 E0.0188
G1 X4.080 Y-29.861 E0.1720
G1 X4.080 Y-29.295 E0.0188
G1 X-0.142 Y-33.517 E0.1986
G1 X-0.708 Y-33.517 E0.0188
G1 X4.080 Y-28.730 E0.2252
G1 X4.080 Y-28.164 E0.0188
G1 X-1.273 Y-33.517 E0.2518
G1 X-1.839 Y-33.517 E0.0188
G1 X4.080 Y-27.598 E0.2784
G1 X4.080 Y-27.033 E0.0188
G1 X-2.405 Y-33.517 E0.3050
G1 X-2.970 Y-33.517 E0.0188
G1 X4.080 Y-26.467 E0.3316
G1 X4.080 Y-25.901 E0.0188
G1 X-3.536 Y-33.517 E0.3582
G1 X-4.102 Y-33.517 E0.0188
G1 X4.080 Y-25.336 E0.3848
G1 X4.080 Y-24.770 E0.0188
G1 X-4.667 Y-33.517 E0.4115
G1 X-5.233 Y-33.517 E0.0188
G1 X4.080 Y-24.204 E0.4381
G1 X4.080 Y-23.639 E0.0188
G1 X-5.799 Y-33.517 E0.4647
G1 X-6.365 Y-33.517 E0.0188
G1 X-0.210 Y-27.363 E0.2895
G1 X-0.776 Y-27.363 E0.0188
G1 X-6.930 Y-33.517 E0.2895
G1 X-7.496 Y-33.517 E0.0188
G1 X-1.342 Y-27.363 E0.2895
G1 X-1.907 Y-27.363 E0.0188
G1 X-8.062 Y-33.517 E0.2895
G1 X-8.627 Y-33.517 E0.0188
G1 X-2.473 Y-27.363 E0.2895
G1 X-3.039 Y-27.363 E0.0188
G1 X-9.193 Y-33.517 E0.2895
G1 X-9.759 Y-33.517 E0.0188
G1 X-3.604 Y-27.363 E0.2895
G1 X-4.170 Y-27.363 E0.0188
G1 X-10.324 Y-33.517 E0.2895
G1 X-10.890 Y-33.517 E0.0188
G1 X-4.736 Y-27.363 E0.2895
G1 X-5.301 Y-27.363 E0.0188
G1 X-11.456 Y-33.517 E0.2895
G1 X-12.021 Y-33.517 E0.0188
G1 X-5.867 Y-27.363 E0.2895
G1 X-6.433 Y-27.363 E0.0188
G1 X-12.587 Y-33.517 E0.2895
G1 X-13.153 Y-33.517 E0.0188
G1 X-6.998 Y-27.363 E0.2895
G1 X-7.564 Y-27.363 E0.0188
G1 X-13.718 Y-33.517 E0.2895
G1 X-14.284 Y-33.517 E0.0188
G1 X-8.130 Y-27.363 E0.2895
G1 X-8.696 Y-27.363 E0.0188
G1 X-14.850 Y-33.517 E0.2895
G1 X-15.416 Y-33.517 E0.0188
G1 X-9.261 Y-27.363 E0.2895
G1 X-9.827 Y-27.363 E0.0188
G1 X-15.981 Y-33.517 E0.2895
G1 X-16.547 Y-33.517 E0.0188
G1 X-10.393 Y-27.363 E0.2895
G1 X-10.958 Y-27.363 E0.0188
G1 X-17.113 Y-33.517 E0.2895
G1 X-17.678 Y-33.517 E0.0188
G1 X-11.524 Y-27.363 E0.2895
G1 X-12.090 Y-27.363 E0.0188
G1 X-18.244 Y-33.517 E0.2895
G1 X-18.810 Y-33.517 E0.0188
G1 X-12.655 Y-27.363 E0.2895
G1 X-13.221 Y-27.363 E0.0188
G1 X-19.375 Y-33.517 E0.2895
G1 X-19.941 Y-33.517 E0.0188
G1 X-13.787 Y-27.363 E0.2895
G1 X-14.352 Y-27.363 E0.0188
G1 X-20.507 Y-33.517 E0.2895
G1 X-21.072 Y-33.517 E0.0188
G1 X-14.912 Y-27.357 E0.2898
G1 X-14.912 Y-26.791 E0.0188
G1 X-21.638 Y-33.517 E0.3164
G1 X-22.204 Y-33.517 E0.0188
G1 X-14.912 Y-26.225 E0.3430
G1 X-14.912 Y-25.660 E0.0188
G1 X-22.769 Y-33.517 E0.3696
G1 X-23.335 Y-33.517 E0.0188
G1 X-14.912 Y-25.094 E0.3962
G1 X-14.912 Y-24.528 E0.0188
G1 X-23.901 Y-33.517 E0.4228
G1 X-24.466 Y-33.517 E0.0188
G1 X-14.912 Y-23.963 E0.4494
G1 X-14.912 Y-23.397 E0.0188
G1 X-25.032 Y-33.517 E0.4760
G1 X-25.598 Y-33.517 E0.0188
G1 X-14.912 Y-22.831 E0.5027
G1 X-14.912 Y-22.265 E0.0188
G1 X-26.164 Y-33.517 E0.5293
G1 X-26.729 Y-33.517 E0.0188
G1 X-14.912 Y-21.700 E0.5559
G1 X-14.912 Y-21.134 E0.0188
G1 X-27.295 Y-33.517 E0.5825
G1 X-27.861 Y-33.517 E0.0188
G1 X-14.912 Y-20.568 E0.6091
G1 X-14.912 Y-20.003 E0.0188
G1 X-28.426 Y-33.517 E0.6357
G1 X-28.992 Y-33.517 E0.0188
G1 X-14.912 Y-19.437 E0.6623
G1 X-14.912 Y-18.871 E0.0188
G1 X-29.558 Y-33.517 E0.6889
G1 X-30.123 Y-33.517 E0.0188
G1 X-14.912 Y-18.306 E0.7155
G1 X-14.912 Y-17.740 E0.0188
G1 X-30.689 Y-33.517 E0.7421
G1 X-31.255 Y-33.517 E0.0188
G1 X-14.912 Y-17.174 E0.7687
G1 X-14.912 Y-16.809 E0.0122
G1 X-15.112 Y-16.809 E0.0067
G1 X-31.820 Y-33.517 E0.7859
G1 X-32.386 Y-33.517 E0.0188
G1 X-15.677 Y-16.809 E0.7859
G1 X-16.243 Y-16.809 E0.0188
G1 X-32.952 Y-33.517 E0.7859
G1 X-33.517 Y-33.517 E0.0188
G1 X-16.809 Y-16.809 E0.7859
G1 X-17.375 Y-16.809 E0.0188
G1 X-34.083 Y-33.517 E0.7859
G1 X-34.649 Y-33.517 E0.0188
G1 X-17.940 Y-16.809 E0.7859
G1 X-18.506 Y-16.809 E0.0188
G1 X-35.215 Y-33.517 E0.7859
G1 X-35.780 Y-33.517 E0.0188
G1 X-19.072 Y-16.809 E0.7859
G1 X-19.637 Y-16.809 E0.0188
G1 X-36.346 Y-33.517 E0.7859
G1 X-36.912 Y-33.517 E0.0188
G1 X-20.203 Y-16.809 E0.7859
G1 X-20.769 Y-16.809 E0.0188
G1 X-37.477 Y-33.517 E0.7859
G1 X-38.043 Y-33.517 E0.0188
G1 X-21.334 Y-16.809 E0.7859
G1 X-21.900 Y-16.809 E0.0188
G1 X-38.609 Y-33.517 E0.7859
G1 X-39.174 Y-33.517 E0.0188
G1 X-22.466 Y-16.809 E0.7859
G1 X-23.031 Y-16.809 E0.0188
G1 X-39.740 Y-33.517 E0.7859
G1 X-40.306 Y-33.517 E0.0188
G1 X-23.597 Y-16.809 E0.7859
G1 X-24.163 Y-16.809 E0.0188
G1 X-40.871 Y-33.517 E0.7859
G1 X-41.437 Y-33.517 E0.0188
G1 X-24.728 Y-16.809 E0.7859
G1 X-25.294 Y-16.809 E0.0188
G1 X-42.003 Y-33.517 E0.7859
G1 X-42.568 Y-33.517 E0.0188
G1 X-25.860 Y-16.809 E0.7859
G1 X-26.425 Y-16.809 E0.0188
G1 X-43.134 Y-33.517 E0.7859
G1 X-43.700 Y-33.517 E0.0188
G1 X-26.991 Y-16.809 E0.7859
G1 X-27.557 Y-16.809 E0.0188
G1 X-44.265 Y-33.517 E0.7859
G1 X-44.831 Y-33.517 E0.0188
G1 X-28.123 Y-16.809 E0.7859
G1 X-28.688 Y-16.809 E0.0188
G1 X-39.079 Y-27.200 E0.4888
G1 X-39.079 Y-27.363 E0.0054
G1 X-39.243 Y-27.363 E0.0054
G1 X-45.397 Y-33.517 E0.2895
G1 X-45.963 Y-33.517 E0.0188
G1 X-39.808 Y-27.363 E0.2895
G1 X-40.374 Y-27.363 E0.0188
G1 X-46.528 Y-33.517 E0.2895
G1 X-47.094 Y-33.517 E0.0188
G1 X-40.940 Y-27.363 E0.2895
G1 X-41.505 Y-27.363 E0.0188
G1 X-47.660 Y-33.517 E0.2895
G1 X-48.225 Y-33.517 E0.0188
G1 X-42.071 Y-27.363 E0.2895
G1 X-42.637 Y-27.363 E0.0188
G1 X-48.791 Y-33.517 E0.2895
G1 X-49.357 Y-33.517 E0.0188
G1 X-43.202 Y-27.363 E0.2895
G1 X-43.768 Y-27.363 E0.0188
G1 X-49.922 Y-33.517 E0.2895
G1 X-50.488 Y-33.517 E0.0188
G1 X-44.334 Y-27.363 E0.2895
G1 X-44.899 Y-27.363 E0.0188
G1 X-51.054 Y-33.517 E0.2895
G1 X-51.619 Y-33.517 E0.0188
G1 X-45.465 Y-27.363 E0.2895
G1 X-46.031 Y-27.363 E0.0188
G1 X-52.185 Y-33.517 E0.2895
G1 X-52.751 Y-33.517 E0.0188
G1 X-46.596 Y-27.363 E0.2895
G1 X-47.162 Y-27.363 E0.0188
G1 X-53.316 Y-33.517 E0.2895
G1 X-53.882 Y-33.517 E0.0188
G1 X-47.728 Y-27.363 E0.2895
G1 X-48.294 Y-27.363 E0.0188
G1 X-54.448 Y-33.517 E0.2895
G1 X-55.014 Y-33.517 E0.0188
G1 X-48.859 Y-27.363 E0.2895
G1 X-49.425 Y-27.363 E0.0188
G1 X-55.579 Y-33.517 E0.2895
G1 X-56.145 Y-33.517 E0.0188
G1 X-49.991 Y-27.363 E0.2895
G1 X-50.556 Y-27.363 E0.0188
G1 X-56.711 Y-33.517 E0.2895
G1 X-57.276 Y-33.517 E0.0188
G1 X-51.122 Y-27.363 E0.2895
G1 X-51.688 Y-27.363 E0.0188
G1 X-57.842 Y-33.517 E0.2895
G1 X-58.408 Y-33.517 E0.0188
G1 X-52.253 Y-27.363 E0.2895
G1 X-52.819 Y-27.363 E0.0188
G1 X-58.973 Y-33.517 E0.2895
G1 X-59.080 Y-33.517 E0.0035
G1 X-59.080 Y-33.058 E0.0153
