; G-Code generated by Simplify3D(R) Version 4.1.2
; Aug 3, 2020 at 4:28:48 PM
; Settings Summary
;   processName,Process1
;   applyToModels,Diffuser,Diffuser(2),Diffuser(3),Diffuser(2)(2)
;   profileName,MakerBot Replicator 2 HBP (modified)
;   profileVersion,2020-04-21 14:45:34
;   baseProfile,MakerBot Replicator 2(2)
;   printMaterial,PLA
;   printQuality,Medium
;   printExtruders,
;   extruderName,Primary Extruder
;   extruderToolheadNumber,0
;   extruderDiameter,0.4
;   extruderAutoWidth,0
;   extruderWidth,0.5
;   extrusionMultiplier,1
;   extruderUseRetract,1
;   extruderRetractionDistance,1.9
;   extruderExtraRestartDistance,0
;   extruderRetractionZLift,0.5
;   extruderRetractionSpeed,1200
;   extruderUseCoasting,0
;   extruderCoastingDistance,0.2
;   extruderUseWipe,0
;   extruderWipeDistance,5
;   primaryExtruder,0
;   layerHeight,0.35
;   topSolidLayers,4
;   bottomSolidLayers,3
;   perimeterOutlines,2
;   printPerimetersInsideOut,1
;   startPointOption,3
;   startPointOriginX,140
;   startPointOriginY,0
;   sequentialIslands,0
;   spiralVaseMode,0
;   firstLayerHeightPercentage,100
;   firstLayerWidthPercentage,100
;   firstLayerUnderspeed,0.5
;   useRaft,0
;   raftExtruder,0
;   raftTopLayers,2
;   raftBaseLayers,1
;   raftOffset,1
;   raftSeparationDistance,0.14
;   raftTopInfill,90
;   aboveRaftSpeedMultiplier,0.3
;   useSkirt,0
;   skirtExtruder,0
;   skirtLayers,1
;   skirtOutlines,5
;   skirtOffset,0
;   usePrimePillar,0
;   primePillarExtruder,999
;   primePillarWidth,12
;   primePillarLocation,7
;   primePillarSpeedMultiplier,1
;   useOozeShield,0
;   oozeShieldExtruder,999
;   oozeShieldOffset,2
;   oozeShieldOutlines,1
;   oozeShieldSidewallShape,1
;   oozeShieldSidewallAngle,30
;   oozeShieldSpeedMultiplier,1
;   infillExtruder,0
;   internalInfillPattern,Rectilinear
;   externalInfillPattern,Rectilinear
;   infillPercentage,100
;   outlineOverlapPercentage,20
;   infillExtrusionWidthPercentage,100
;   minInfillLength,5
;   infillLayerInterval,1
;   internalInfillAngles,45,-45
;   overlapInternalInfillAngles,0
;   externalInfillAngles,45,-45
;   generateSupport,0
;   supportExtruder,0
;   supportInfillPercentage,30
;   supportExtraInflation,0.6
;   supportBaseLayers,0
;   denseSupportExtruder,0
;   denseSupportLayers,2
;   denseSupportInfillPercentage,70
;   supportLayerInterval,1
;   supportHorizontalPartOffset,0.3
;   supportUpperSeparationLayers,1
;   supportLowerSeparationLayers,1
;   supportType,0
;   supportGridSpacing,99
;   maxOverhangAngle,45
;   supportAngles,0
;   temperatureName,Primary Extruder,Heated Build Platform
;   temperatureNumber,0,0
;   temperatureSetpointCount,1,1
;   temperatureSetpointLayers,1,1
;   temperatureSetpointTemperatures,210,65
;   temperatureStabilizeAtStartup,1,1
;   temperatureHeatedBed,0,1
;   fanLayers,1,2
;   fanSpeeds,0,100
;   blipFanToFullPower,1
;   adjustSpeedForCooling,1
;   minSpeedLayerTime,15
;   minCoolingSpeedSlowdown,20
;   increaseFanForCooling,1
;   minFanLayerTime,45
;   maxCoolingFanSpeed,100
;   increaseFanForBridging,1
;   bridgingFanSpeed,100
;   use5D,1
;   relativeEdistances,1
;   allowEaxisZeroing,0
;   independentExtruderAxes,1
;   includeM10123,0
;   stickySupport,1
;   applyToolheadOffsets,0
;   gcodeXoffset,0
;   gcodeYoffset,0
;   gcodeZoffset,0
;   overrideMachineDefinition,1
;   machineTypeOverride,0
;   strokeXoverride,280
;   strokeYoverride,150
;   strokeZoverride,150
;   originOffsetXoverride,140
;   originOffsetYoverride,75
;   originOffsetZoverride,0
;   homeXdirOverride,1
;   homeYdirOverride,1
;   homeZdirOverride,-1
;   flipXoverride,1
;   flipYoverride,-1
;   flipZoverride,1
;   toolheadOffsets,0,0|0,0|0,0|0,0|0,0|0,0
;   overrideFirmwareConfiguration,1
;   firmwareTypeOverride,MakerBot/Sailfish Firmware
;   GPXconfigOverride,r2h
;   baudRateOverride,115200
;   overridePrinterModels,1
;   printerModelsOverride,MakerBot_Replicator2.stl
;   startingGcode,; **** Replicator 2 start.gcode ****,M73 P0 ; enable build progress,G162 X Y F3000 ; home XY maximum,G161 Z F1200 ; home Z minimum,G92 Z-5 ; set Z to -5,G1 Z0 ; move Z to 0,G28 ; better homing homie,M132 X Y Z A B ; recall home offsets,G1 X-145 Y-75 Z30 F9000 ; move to wait position off table,G130 X20 Y20 Z20 A20 B20 ; lower stepper Vrefs while heating,M126 S[fan_speed_pwm],M140 S[bed0_temperature] T0,M134 T0 ; stabilize bed temperature,M104 S[extruder0_temperature] T0,M133 T0 ; stabilize extruder temperature,G130 X127 Y127 Z40 A127 B127 ; default stepper Vrefs,G92 A0 ; zero extruder,G1 Z0.4 ; position nozzle,G1 E25 F300 ; purge nozzle,G1 X-140 Y-70 Z0.15 F1200 ; slow wipe,G1 X-135 Y-65 Z0.5 F1200 ; lift,G92 A0 ; zero extruder,M73 P1 ;@body (notify GPX body has started),; **** end of start.gcode ****
;   layerChangeGcode,
;   retractionGcode,
;   toolChangeGcode,
;   endingGcode,; **** Replicator 2 end.gcode ****,M73 P100 ; end build progress,G1 Z155 F1000 ; send Z axis to bottom of machine,M104 S0 T0 ; cool down extruder,M140 S0 T0 ; cool down HBP,M127 ; stop blower fan,G162 X Y F3000 ; home XY maximum,M18 ; disable stepper,M0 ; stop codes,M72 P1 ; play Ta-Da song,; **** end of end.gcode ****
;   exportFileFormat,gcode
;   celebration,0
;   celebrationSong,Random Song
;   postProcessing,
;   defaultSpeed,4800
;   outlineUnderspeed,0.5
;   solidInfillUnderspeed,1
;   supportUnderspeed,1
;   rapidXYspeed,9000
;   rapidZspeed,1200
;   minBridgingArea,50
;   bridgingExtraInflation,0
;   bridgingExtrusionMultiplier,1
;   bridgingSpeedMultiplier,0.8
;   useFixedBridgingAngle,0
;   fixedBridgingAngle,0
;   applyBridgingToPerimeters,0
;   filamentDiameters,1.75|1.75|1.75|1.75|1.75|1.75
;   filamentPricesPerKg,46|46|46|46|46|46
;   filamentDensities,1.25|1.25|1.25|1.25|1.25|1.25
;   useMinPrintHeight,0
;   minPrintHeight,0
;   useMaxPrintHeight,0
;   maxPrintHeight,4.84
;   useDiaphragm,0
;   diaphragmLayerInterval,20
;   robustSlicing,1
;   mergeAllIntoSolid,0
;   onlyRetractWhenCrossingOutline,0
;   retractBetweenLayers,0
;   useRetractionMinTravel,1
;   retractionMinTravel,7
;   retractWhileWiping,1
;   onlyWipeOutlines,1
;   avoidCrossingOutline,0
;   maxMovementDetourFactor,3
;   toolChangeRetractionDistance,12
;   toolChangeExtraRestartDistance,-0.5
;   toolChangeRetractionSpeed,600
;   externalThinWallType,0
;   internalThinWallType,1
;   thinWallAllowedOverlapPercentage,10
;   singleExtrusionMinLength,1
;   singleExtrusionMinPrintingWidthPercentage,50
;   singleExtrusionMaxPrintingWidthPercentage,200
;   singleExtrusionEndpointExtension,0.2
;   horizontalSizeCompensation,0
G90
M83
; **** Replicator 2 start.gcode ****
M73 P0 ; enable build progress
G162 X Y F3000 ; home XY maximum
G161 Z F1200 ; home Z minimum
G92 Z-5 ; set Z to -5
G1 Z0 ; move Z to 0
G28 ; better homing homie
M132 X Y Z A B ; recall home offsets
G1 X-145 Y-75 Z30 F9000 ; move to wait position off table
G130 X20 Y20 Z20 A20 B20 ; lower stepper Vrefs while heating
M127
M140 S65 T0
M134 T0 ; stabilize bed temperature
M104 S210 T0
M133 T0 ; stabilize extruder temperature
G130 X127 Y127 Z40 A127 B127 ; default stepper Vrefs
G92 A0 ; zero extruder
G1 Z0.4 ; position nozzle
G1 E25 F300 ; purge nozzle
G1 X-140 Y-70 Z0.15 F1200 ; slow wipe
G1 X-135 Y-65 Z0.5 F1200 ; lift
G92 A0 ; zero extruder
M73 P1 ;@body (notify GPX body has started)
; **** end of start.gcode ****
; process Process1
; layer 1, Z = 0.350
M135 T0
G1 E-1.9000 F1200
; feature inner perimeter
; tool H0.350 W0.500
G1 Z0.500 F1200
G1 X16.564 Y-18.193 F9000
G1 Z0.350 F1200
G1 E1.9000 F1200
G1 X16.308 Y-16.526 E0.1227 F1800
G1 X15.885 Y-14.894 E0.1227
G1 X15.300 Y-13.312 E0.1227
G1 X14.557 Y-11.798 E0.1227
G1 X13.665 Y-10.367 E0.1227
G1 X12.633 Y-9.033 E0.1227
G1 X11.471 Y-7.811 E0.1227
G1 X10.191 Y-6.712 E0.1227
G1 X8.807 Y-5.749 E0.1227
G1 X7.332 Y-4.930 E0.1227
G1 X5.782 Y-4.265 E0.1227
G1 X4.173 Y-3.760 E0.1227
G1 X2.521 Y-3.421 E0.1227
G1 X0.843 Y-3.250 E0.1227
G1 X-0.843 Y-3.250 E0.1227
G1 X-2.521 Y-3.421 E0.1227
G1 X-4.173 Y-3.760 E0.1227
G1 X-5.782 Y-4.265 E0.1227
G1 X-7.332 Y-4.930 E0.1227
G1 X-8.807 Y-5.749 E0.1227
G1 X-10.191 Y-6.712 E0.1227
G1 X-11.471 Y-7.811 E0.1227
G1 X-12.633 Y-9.033 E0.1227
G1 X-13.665 Y-10.367 E0.1227
G1 X-14.557 Y-11.798 E0.1227
G1 X-15.300 Y-13.312 E0.1227
G1 X-15.885 Y-14.894 E0.1227
G1 X-16.308 Y-16.526 E0.1227
G1 X-16.564 Y-18.193 E0.1227
G1 X-16.649 Y-19.878 E0.1227
G1 X-16.564 Y-21.562 E0.1227
G1 X-16.308 Y-23.229 E0.1227
G1 X-15.885 Y-24.862 E0.1227
G1 X-15.300 Y-26.443 E0.1227
G1 X-14.557 Y-27.957 E0.1227
G1 X-13.665 Y-29.389 E0.1227
G1 X-12.633 Y-30.722 E0.1227
G1 X-11.471 Y-31.945 E0.1227
G1 X-10.248 Y-32.994 E0.1172
G1 X-8.805 Y-34.008 E0.1283
G1 X-7.332 Y-34.825 E0.1226
G1 X-5.782 Y-35.490 E0.1227
G1 X-4.173 Y-35.995 E0.1227
G1 X-2.521 Y-36.335 E0.1227
G1 X-0.843 Y-36.505 E0.1227
G1 X0.843 Y-36.505 E0.1227
G1 X2.521 Y-36.335 E0.1227
G1 X4.173 Y-35.995 E0.1227
G1 X5.782 Y-35.490 E0.1227
G1 X7.332 Y-34.825 E0.1227
G1 X8.807 Y-34.007 E0.1227
G1 X10.191 Y-33.043 E0.1227
G1 X11.471 Y-31.945 E0.1227
G1 X12.633 Y-30.722 E0.1227
G1 X13.665 Y-29.389 E0.1227
G1 X14.557 Y-27.957 E0.1227
G1 X15.300 Y-26.443 E0.1227
G1 X15.885 Y-24.862 E0.1227
G1 X16.308 Y-23.229 E0.1227
G1 X16.564 Y-21.562 E0.1227
G1 X16.649 Y-19.878 E0.1227
G1 X16.564 Y-18.193 E0.1227
; feature outer perimeter
G1 X17.062 Y-18.143 F9000
G1 X16.799 Y-16.425 E0.1264 F1200
G1 X16.363 Y-14.744 E0.1264
G1 X15.760 Y-13.115 E0.1264
G1 X14.995 Y-11.555 E0.1264
G1 X14.076 Y-10.081 E0.1264
G1 X13.012 Y-8.707 E0.1264
G1 X11.816 Y-7.448 E0.1264
G1 X10.497 Y-6.316 E0.1264
G1 X9.072 Y-5.324 E0.1264
G1 X7.553 Y-4.481 E0.1264
G1 X5.956 Y-3.795 E0.1264
G1 X4.299 Y-3.275 E0.1264
G1 X2.597 Y-2.926 E0.1264
G1 X0.869 Y-2.750 E0.1264
G1 X-0.869 Y-2.750 E0.1264
G1 X-2.597 Y-2.926 E0.1264
G1 X-4.299 Y-3.275 E0.1264
G1 X-5.956 Y-3.796 E0.1264
G1 X-7.553 Y-4.481 E0.1264
G1 X-9.072 Y-5.324 E0.1264
G1 X-10.497 Y-6.316 E0.1264
G1 X-11.816 Y-7.448 E0.1264
G1 X-13.012 Y-8.707 E0.1264
G1 X-14.076 Y-10.081 E0.1264
G1 X-14.995 Y-11.555 E0.1264
G1 X-15.760 Y-13.115 E0.1264
G1 X-16.363 Y-14.744 E0.1264
G1 X-16.799 Y-16.425 E0.1264
G1 X-17.062 Y-18.143 E0.1264
G1 X-17.150 Y-19.878 E0.1264
G1 X-17.062 Y-21.613 E0.1264
G1 X-16.799 Y-23.330 E0.1264
G1 X-16.363 Y-25.012 E0.1264
G1 X-15.760 Y-26.641 E0.1264
G1 X-14.995 Y-28.200 E0.1264
G1 X-14.076 Y-29.675 E0.1264
G1 X-13.012 Y-31.048 E0.1264
G1 X-11.816 Y-32.308 E0.1264
G1 X-10.556 Y-33.389 E0.1208
G1 X-9.071 Y-34.432 E0.1320
G1 X-7.553 Y-35.275 E0.1264
G1 X-5.956 Y-35.960 E0.1264
G1 X-4.299 Y-36.480 E0.1264
G1 X-2.597 Y-36.830 E0.1264
G1 X-0.869 Y-37.005 E0.1264
G1 X0.869 Y-37.005 E0.1264
G1 X2.597 Y-36.830 E0.1264
G1 X4.299 Y-36.480 E0.1264
G1 X5.956 Y-35.960 E0.1264
G1 X7.553 Y-35.275 E0.1264
G1 X9.072 Y-34.432 E0.1264
G1 X10.497 Y-33.439 E0.1264
G1 X11.816 Y-32.308 E0.1264
G1 X13.012 Y-31.048 E0.1264
G1 X14.076 Y-29.675 E0.1264
G1 X14.995 Y-28.200 E0.1264
G1 X15.760 Y-26.641 E0.1264
G1 X16.363 Y-25.012 E0.1264
G1 X16.799 Y-23.330 E0.1264
G1 X17.062 Y-21.613 E0.1264
G1 X17.150 Y-19.878 E0.1264
G1 X17.062 Y-18.143 E0.1264
G1 E-1.9000 F1200
; feature solid layer
G1 Z0.850 F1200
G1 X9.137 Y-33.290 F9000
G1 Z0.350 F1200
G1 E1.9000 F1200
G1 X13.452 Y-28.975 E0.4440 F2400
G1 X14.207 Y-27.763 E0.1039
G1 X14.448 Y-27.271 E0.0399
G1 X7.376 Y-34.344 E0.7277
G1 X7.156 Y-34.466 E0.0183
G1 X6.089 Y-34.924 E0.0845
G1 X15.052 Y-25.960 E0.9223
G1 X15.468 Y-24.837 E0.0871
G1 X4.983 Y-35.322 E1.0788
G1 X4.073 Y-35.607 E0.0694
G1 X3.969 Y-35.629 E0.0077
G1 X15.729 Y-23.869 E1.2100
G1 X15.916 Y-23.148 E0.0541
G1 X15.947 Y-22.944 E0.0151
G1 X3.079 Y-35.812 E1.3240
G1 X2.460 Y-35.939 E0.0460
G1 X2.221 Y-35.963 E0.0175
G1 X16.075 Y-22.109 E1.4255
G1 X16.165 Y-21.521 E0.0432
G1 X16.176 Y-21.300 E0.0161
G1 X1.433 Y-36.043 E1.5169
G1 X0.823 Y-36.105 E0.0446
G1 X0.664 Y-36.105 E0.0115
G1 X16.214 Y-20.555 E1.6000
G1 X16.249 Y-19.878 E0.0494
G1 X16.245 Y-19.817 E0.0044
G1 X-0.043 Y-36.105 E1.6760
G1 X-0.750 Y-36.105 E0.0514
G1 X16.211 Y-19.144 E1.7452
G1 X16.177 Y-18.471 E0.0490
G1 X-1.399 Y-36.047 E1.8084
G1 X-2.040 Y-35.982 E0.0469
G1 X16.104 Y-17.837 E1.8670
G1 X16.010 Y-17.224 E0.0451
G1 X-2.663 Y-35.897 E1.9214
G1 X-3.250 Y-35.777 E0.0436
G1 X15.916 Y-16.607 E1.9723
G1 X15.771 Y-16.048 E0.0420
G1 X-3.836 Y-35.656 E2.0175
G1 X-4.073 Y-35.607 E0.0176
G1 X-4.394 Y-35.507 E0.0245
G1 X15.626 Y-15.487 E2.0599
G1 X15.503 Y-15.014 E0.0356
G1 X15.473 Y-14.932 E0.0063
G1 X-4.932 Y-35.338 E2.0996
G1 X-5.470 Y-35.169 E0.0410
G1 X15.282 Y-14.416 E2.1353
G1 X15.091 Y-13.900 E0.0400
G1 X-5.979 Y-34.971 E2.1680
G1 X-6.474 Y-34.758 E0.0392
G1 X14.893 Y-13.391 E2.1985
G1 X14.660 Y-12.917 E0.0384
G1 X-6.969 Y-34.546 E2.2255
G1 X-7.156 Y-34.466 E0.0148
G1 X-7.439 Y-34.309 E0.0235
G1 X14.428 Y-12.442 E2.2499
G1 X14.207 Y-11.992 E0.0365
G1 X14.193 Y-11.970 E0.0019
G1 X-7.893 Y-34.056 E2.2725
G1 X-8.348 Y-33.804 E0.0378
G1 X13.921 Y-11.534 E2.2914
G1 X13.650 Y-11.099 E0.0373
G1 X-8.785 Y-33.533 E2.3084
G1 X-9.200 Y-33.242 E0.0369
G1 X13.378 Y-10.663 E2.3232
G1 X13.336 Y-10.595 E0.0058
G1 X13.076 Y-10.259 E0.0310
G1 X-9.615 Y-32.950 E2.3348
G1 X-10.002 Y-32.678 E0.0344
G1 X-10.028 Y-32.656 E0.0025
G1 X12.767 Y-9.860 E2.3455
G1 X12.459 Y-9.462 E0.0367
G1 X-10.409 Y-32.329 E2.3529
G1 X-10.789 Y-32.002 E0.0365
G1 X12.129 Y-9.084 E2.3582
G1 X11.785 Y-8.721 E0.0364
G1 X-11.170 Y-31.676 E2.3619
G1 X-11.195 Y-31.654 E0.0024
G1 X-11.517 Y-31.316 E0.0340
G1 X11.440 Y-8.359 E2.3621
G1 X11.195 Y-8.101 E0.0259
G1 X11.085 Y-8.007 E0.0105
G1 X-11.861 Y-30.953 E2.3610
G1 X-12.206 Y-30.591 E0.0364
G1 X10.705 Y-7.680 E2.3573
G1 X10.324 Y-7.354 E0.0365
G1 X-12.527 Y-30.205 E2.3513
G1 X-12.836 Y-29.806 E0.0367
G1 X9.943 Y-7.027 E2.3438
G1 X9.527 Y-6.737 E0.0370
G1 X-13.144 Y-29.408 E2.3327
G1 X-13.336 Y-29.160 E0.0228
G1 X-13.439 Y-28.995 E0.0141
G1 X9.110 Y-6.447 E2.3201
G1 X8.693 Y-6.157 E0.0370
G1 X-13.710 Y-28.560 E2.3051
G1 X-13.982 Y-28.124 E0.0373
G1 X8.247 Y-5.895 E2.2872
G1 X7.792 Y-5.643 E0.0378
G1 X-14.247 Y-27.682 E2.2677
G1 X-14.479 Y-27.207 E0.0384
G1 X7.337 Y-5.391 E2.2448
G1 X7.156 Y-5.290 E0.0151
G1 X6.859 Y-5.162 E0.0235
G1 X-14.712 Y-26.733 E2.2195
G1 X-14.932 Y-26.285 E0.0363
G1 X-14.942 Y-26.256 E0.0023
G1 X6.364 Y-4.950 E2.1923
G1 X5.869 Y-4.738 E0.0392
G1 X-15.134 Y-25.740 E2.1610
G1 X-15.325 Y-25.224 E0.0400
G1 X5.351 Y-4.549 E2.1274
G1 X4.812 Y-4.380 E0.0410
G1 X-15.513 Y-24.705 E2.0913
G1 X-15.658 Y-24.144 E0.0422
G1 X4.274 Y-4.211 E2.0509
G1 X4.073 Y-4.148 E0.0154
G1 X3.706 Y-4.072 E0.0273
G1 X-15.804 Y-23.582 E2.0074
G1 X-15.916 Y-23.148 E0.0326
G1 X-15.937 Y-23.008 E0.0103
G1 X3.119 Y-3.952 E1.9608
G1 X2.533 Y-3.831 E0.0436
G1 X-16.031 Y-22.395 E1.9101
G1 X-16.125 Y-21.782 E0.0451
G1 X1.898 Y-3.759 E1.8544
G1 X1.256 Y-3.694 E0.0469
G1 X-16.185 Y-21.135 E1.7945
G1 X-16.219 Y-20.462 E0.0490
G1 X0.593 Y-3.650 E1.7298
G1 X-0.114 Y-3.650 E0.0514
G1 X-16.244 Y-19.779 E1.6596
G1 X-16.206 Y-19.034 E0.0543
G1 X-0.823 Y-3.650 E1.5830
G1 X-1.609 Y-3.730 E0.0575
G1 X-16.168 Y-18.289 E1.4981
G1 X-16.165 Y-18.234 E0.0040
G1 X-16.047 Y-17.461 E0.0569
G1 X-2.396 Y-3.810 E1.4046
G1 X-2.460 Y-3.817 E0.0047
G1 X-3.277 Y-3.984 E0.0607
G1 X-15.919 Y-16.626 E1.3007
G1 X-15.916 Y-16.607 E0.0014
G1 X-15.675 Y-15.675 E0.0701
G1 X-4.182 Y-4.182 E1.1825
G1 X-5.213 Y-4.505 E0.0786
G1 X-15.376 Y-14.668 E1.0457
G1 X-14.960 Y-13.545 E0.0871
G1 X-6.364 Y-4.950 E0.8844
G1 X-7.156 Y-5.290 E0.0627
G1 X-7.729 Y-5.608 E0.0477
G1 X-14.297 Y-12.175 E0.6757
G1 X-14.207 Y-11.992 E0.0148
G1 X-13.336 Y-10.595 E0.1198
G1 X-13.036 Y-10.208 E0.0357
G1 X-9.654 Y-6.826 E0.3480
G1 E-1.9000 F1200
; feature inner perimeter
G1 Z0.850 F1200
G1 X-23.236 Y-18.193 F9000
G1 Z0.350 F1200
G1 E1.9000 F1200
G1 X-23.492 Y-16.526 E0.1227 F1800
G1 X-23.915 Y-14.894 E0.1227
G1 X-24.500 Y-13.312 E0.1227
G1 X-25.243 Y-11.798 E0.1227
G1 X-26.135 Y-10.367 E0.1227
G1 X-27.167 Y-9.033 E0.1227
G1 X-28.329 Y-7.811 E0.1227
G1 X-29.609 Y-6.712 E0.1227
G1 X-30.993 Y-5.749 E0.1227
G1 X-32.468 Y-4.930 E0.1227
G1 X-34.018 Y-4.265 E0.1227
G1 X-35.627 Y-3.760 E0.1227
G1 X-37.279 Y-3.421 E0.1227
G1 X-38.957 Y-3.250 E0.1227
