; G-Code generated by Simplify3D(R) Version 4.1.2
; Aug 3, 2020 at 12:01:22 PM
; Settings Summary
;   processName,Process1
;   applyToModels,Diffuser,Diffuser(2)
;   profileName,MakerBot Replicator 2 HBP (modified)
;   profileVersion,2020-04-21 14:45:34
;   baseProfile,MakerBot Replicator 2(2)
;   printMaterial,PLA
;   printQuality,Medium
;   printExtruders,
;   extruderName,Primary Extruder
;   extruderToolheadNumber,0
;   extruderDiameter,0.4
;   extruderAutoWidth,0
;   extruderWidth,0.4
;   extrusionMultiplier,1
;   extruderUseRetract,1
;   extruderRetractionDistance,1.9
;   extruderExtraRestartDistance,0
;   extruderRetractionZLift,0.5
;   extruderRetractionSpeed,1200
;   extruderUseCoasting,0
;   extruderCoastingDistance,0.2
;   extruderUseWipe,0
;   extruderWipeDistance,5
;   primaryExtruder,0
;   layerHeight,0.2
;   topSolidLayers,4
;   bottomSolidLayers,3
;   perimeterOutlines,2
;   printPerimetersInsideOut,1
;   startPointOption,3
;   startPointOriginX,140
;   startPointOriginY,0
;   sequentialIslands,0
;   spiralVaseMode,0
;   firstLayerHeightPercentage,100
;   firstLayerWidthPercentage,100
;   firstLayerUnderspeed,0.5
;   useRaft,0
;   raftExtruder,0
;   raftTopLayers,2
;   raftBaseLayers,1
;   raftOffset,1
;   raftSeparationDistance,0.14
;   raftTopInfill,90
;   aboveRaftSpeedMultiplier,0.3
;   useSkirt,0
;   skirtExtruder,0
;   skirtLayers,1
;   skirtOutlines,5
;   skirtOffset,0
;   usePrimePillar,0
;   primePillarExtruder,999
;   primePillarWidth,12
;   primePillarLocation,7
;   primePillarSpeedMultiplier,1
;   useOozeShield,0
;   oozeShieldExtruder,999
;   oozeShieldOffset,2
;   oozeShieldOutlines,1
;   oozeShieldSidewallShape,1
;   oozeShieldSidewallAngle,30
;   oozeShieldSpeedMultiplier,1
;   infillExtruder,0
;   internalInfillPattern,Rectilinear
;   externalInfillPattern,Rectilinear
;   infillPercentage,100
;   outlineOverlapPercentage,20
;   infillExtrusionWidthPercentage,100
;   minInfillLength,5
;   infillLayerInterval,1
;   internalInfillAngles,45,-45
;   overlapInternalInfillAngles,0
;   externalInfillAngles,45,-45
;   generateSupport,0
;   supportExtruder,0
;   supportInfillPercentage,30
;   supportExtraInflation,0.6
;   supportBaseLayers,0
;   denseSupportExtruder,0
;   denseSupportLayers,2
;   denseSupportInfillPercentage,70
;   supportLayerInterval,1
;   supportHorizontalPartOffset,0.3
;   supportUpperSeparationLayers,1
;   supportLowerSeparationLayers,1
;   supportType,0
;   supportGridSpacing,99
;   maxOverhangAngle,45
;   supportAngles,0
;   temperatureName,Primary Extruder,Heated Build Platform
;   temperatureNumber,0,0
;   temperatureSetpointCount,1,1
;   temperatureSetpointLayers,1,1
;   temperatureSetpointTemperatures,210,65
;   temperatureStabilizeAtStartup,1,1
;   temperatureHeatedBed,0,1
;   fanLayers,1,2
;   fanSpeeds,0,100
;   blipFanToFullPower,1
;   adjustSpeedForCooling,1
;   minSpeedLayerTime,15
;   minCoolingSpeedSlowdown,20
;   increaseFanForCooling,1
;   minFanLayerTime,45
;   maxCoolingFanSpeed,100
;   increaseFanForBridging,1
;   bridgingFanSpeed,100
;   use5D,1
;   relativeEdistances,1
;   allowEaxisZeroing,0
;   independentExtruderAxes,1
;   includeM10123,0
;   stickySupport,1
;   applyToolheadOffsets,0
;   gcodeXoffset,0
;   gcodeYoffset,0
;   gcodeZoffset,0
;   overrideMachineDefinition,1
;   machineTypeOverride,0
;   strokeXoverride,280
;   strokeYoverride,150
;   strokeZoverride,150
;   originOffsetXoverride,140
;   originOffsetYoverride,75
;   originOffsetZoverride,0
;   homeXdirOverride,1
;   homeYdirOverride,1
;   homeZdirOverride,-1
;   flipXoverride,1
;   flipYoverride,-1
;   flipZoverride,1
;   toolheadOffsets,0,0|0,0|0,0|0,0|0,0|0,0
;   overrideFirmwareConfiguration,1
;   firmwareTypeOverride,MakerBot/Sailfish Firmware
;   GPXconfigOverride,r2h
;   baudRateOverride,115200
;   overridePrinterModels,1
;   printerModelsOverride,MakerBot_Replicator2.stl
;   startingGcode,; **** Replicator 2 start.gcode ****,M73 P0 ; enable build progress,G162 X Y F3000 ; home XY maximum,G161 Z F1200 ; home Z minimum,G92 Z-5 ; set Z to -5,G1 Z0 ; move Z to 0,G28 ; better homing homie,M132 X Y Z A B ; recall home offsets,G1 X-145 Y-75 Z30 F9000 ; move to wait position off table,G130 X20 Y20 Z20 A20 B20 ; lower stepper Vrefs while heating,M126 S[fan_speed_pwm],M140 S[bed0_temperature] T0,M134 T0 ; stabilize bed temperature,M104 S[extruder0_temperature] T0,M133 T0 ; stabilize extruder temperature,G130 X127 Y127 Z40 A127 B127 ; default stepper Vrefs,G92 A0 ; zero extruder,G1 Z0.4 ; position nozzle,G1 E25 F300 ; purge nozzle,G1 X-140 Y-70 Z0.15 F1200 ; slow wipe,G1 X-135 Y-65 Z0.5 F1200 ; lift,G92 A0 ; zero extruder,M73 P1 ;@body (notify GPX body has started),; **** end of start.gcode ****
;   layerChangeGcode,
;   retractionGcode,
;   toolChangeGcode,
;   endingGcode,; **** Replicator 2 end.gcode ****,M73 P100 ; end build progress,G1 Z155 F1000 ; send Z axis to bottom of machine,M104 S0 T0 ; cool down extruder,M140 S0 T0 ; cool down HBP,M127 ; stop blower fan,G162 X Y F3000 ; home XY maximum,M18 ; disable stepper,M0 ; stop codes,M72 P1 ; play Ta-Da song,; **** end of end.gcode ****
;   exportFileFormat,gcode
;   celebration,0
;   celebrationSong,Random Song
;   postProcessing,
;   defaultSpeed,4800
;   outlineUnderspeed,0.5
;   solidInfillUnderspeed,1
;   supportUnderspeed,1
;   rapidXYspeed,9000
;   rapidZspeed,1200
;   minBridgingArea,50
;   bridgingExtraInflation,0
;   bridgingExtrusionMultiplier,1
;   bridgingSpeedMultiplier,0.8
;   useFixedBridgingAngle,0
;   fixedBridgingAngle,0
;   applyBridgingToPerimeters,0
;   filamentDiameters,1.75|1.75|1.75|1.75|1.75|1.75
;   filamentPricesPerKg,46|46|46|46|46|46
;   filamentDensities,1.25|1.25|1.25|1.25|1.25|1.25
;   useMinPrintHeight,0
;   minPrintHeight,0
;   useMaxPrintHeight,0
;   maxPrintHeight,4.84
;   useDiaphragm,0
;   diaphragmLayerInterval,20
;   robustSlicing,1
;   mergeAllIntoSolid,0
;   onlyRetractWhenCrossingOutline,0
;   retractBetweenLayers,0
;   useRetractionMinTravel,1
;   retractionMinTravel,7
;   retractWhileWiping,1
;   onlyWipeOutlines,1
;   avoidCrossingOutline,0
;   maxMovementDetourFactor,3
;   toolChangeRetractionDistance,12
;   toolChangeExtraRestartDistance,-0.5
;   toolChangeRetractionSpeed,600
;   externalThinWallType,0
;   internalThinWallType,0
;   thinWallAllowedOverlapPercentage,10
;   singleExtrusionMinLength,1
;   singleExtrusionMinPrintingWidthPercentage,50
;   singleExtrusionMaxPrintingWidthPercentage,200
;   singleExtrusionEndpointExtension,0.2
;   horizontalSizeCompensation,0
G90
M83
; **** Replicator 2 start.gcode ****
M73 P0 ; enable build progress
G162 X Y F3000 ; home XY maximum
G161 Z F1200 ; home Z minimum
G92 Z-5 ; set Z to -5
G1 Z0 ; move Z to 0
G28 ; better homing homie
M132 X Y Z A B ; recall home offsets
G1 X-145 Y-75 Z30 F9000 ; move to wait position off table
G130 X20 Y20 Z20 A20 B20 ; lower stepper Vrefs while heating
M127
M140 S65 T0
M134 T0 ; stabilize bed temperature
M104 S210 T0
M133 T0 ; stabilize extruder temperature
G130 X127 Y127 Z40 A127 B127 ; default stepper Vrefs
G92 A0 ; zero extruder
G1 Z0.4 ; position nozzle
G1 E25 F300 ; purge nozzle
G1 X-140 Y-70 Z0.15 F1200 ; slow wipe
G1 X-135 Y-65 Z0.5 F1200 ; lift
G92 A0 ; zero extruder
M73 P1 ;@body (notify GPX body has started)
; **** end of start.gcode ****
; process Process1
; layer 1, Z = 0.200
M135 T0
G1 E-1.9000 F1200
; feature inner perimeter
; tool H0.200 W0.400
G1 Z0.500 F1200
G1 X-3.101 Y0.000 F9000
G1 Z0.200 F1200
G1 E1.9000 F1200
G1 X-3.187 Y1.700 E0.0566 F1800
G1 X-3.445 Y3.382 E0.0566
G1 X-3.871 Y5.029 E0.0566
G1 X-4.462 Y6.625 E0.0566
G1 X-5.212 Y8.153 E0.0566
G1 X-6.112 Y9.597 E0.0566
G1 X-7.153 Y10.943 E0.0566
G1 X-8.326 Y12.176 E0.0566
G1 X-9.617 Y13.284 E0.0566
G1 X-11.014 Y14.257 E0.0566
G1 X-12.502 Y15.082 E0.0566
G1 X-14.065 Y15.753 E0.0566
G1 X-15.689 Y16.263 E0.0566
G1 X-17.356 Y16.606 E0.0566
G1 X-19.049 Y16.778 E0.0566
G1 X-20.751 Y16.778 E0.0566
G1 X-22.444 Y16.606 E0.0566
G1 X-24.111 Y16.263 E0.0566
G1 X-25.735 Y15.753 E0.0566
G1 X-27.298 Y15.082 E0.0566
G1 X-28.786 Y14.257 E0.0566
G1 X-30.183 Y13.284 E0.0566
G1 X-31.474 Y12.176 E0.0566
G1 X-32.647 Y10.942 E0.0566
G1 X-33.688 Y9.597 E0.0566
G1 X-34.588 Y8.153 E0.0566
G1 X-35.338 Y6.625 E0.0566
G1 X-35.929 Y5.029 E0.0566
G1 X-36.355 Y3.382 E0.0566
G1 X-36.613 Y1.700 E0.0566
G1 X-36.699 Y0.000 E0.0566
G1 X-36.613 Y-1.700 E0.0566
G1 X-36.355 Y-3.382 E0.0566
G1 X-35.929 Y-5.029 E0.0566
G1 X-35.338 Y-6.625 E0.0566
G1 X-34.588 Y-8.153 E0.0566
G1 X-33.688 Y-9.597 E0.0566
G1 X-32.647 Y-10.943 E0.0566
G1 X-31.474 Y-12.176 E0.0566
G1 X-30.216 Y-13.256 E0.0552
G1 X-28.786 Y-14.257 E0.0581
G1 X-27.298 Y-15.082 E0.0566
G1 X-25.735 Y-15.753 E0.0566
G1 X-24.111 Y-16.263 E0.0566
G1 X-22.444 Y-16.605 E0.0566
G1 X-20.751 Y-16.778 E0.0566
G1 X-19.049 Y-16.778 E0.0566
G1 X-17.356 Y-16.605 E0.0566
G1 X-15.689 Y-16.263 E0.0566
G1 X-14.065 Y-15.753 E0.0566
G1 X-12.502 Y-15.082 E0.0566
G1 X-11.014 Y-14.257 E0.0566
G1 X-9.617 Y-13.284 E0.0566
G1 X-8.326 Y-12.176 E0.0566
G1 X-7.153 Y-10.943 E0.0566
G1 X-6.112 Y-9.597 E0.0566
G1 X-5.212 Y-8.153 E0.0566
G1 X-4.462 Y-6.625 E0.0566
G1 X-3.871 Y-5.029 E0.0566
G1 X-3.445 Y-3.382 E0.0566
G1 X-3.187 Y-1.700 E0.0566
G1 X-3.101 Y0.000 E0.0566
; feature outer perimeter
G1 X-2.700 Y0.000 F9000
G1 X-2.788 Y1.740 E0.0579 F1200
G1 X-3.052 Y3.462 E0.0579
G1 X-3.489 Y5.149 E0.0580
G1 X-4.094 Y6.783 E0.0579
G1 X-4.861 Y8.347 E0.0579
G1 X-5.783 Y9.826 E0.0579
G1 X-6.850 Y11.203 E0.0580
G1 X-8.050 Y12.466 E0.0579
G1 X-9.372 Y13.601 E0.0579
G1 X-10.802 Y14.596 E0.0579
G1 X-12.325 Y15.442 E0.0580
G1 X-13.926 Y16.129 E0.0579
G1 X-15.589 Y16.651 E0.0579
G1 X-17.296 Y17.001 E0.0580
G1 X-19.029 Y17.178 E0.0579
G1 X-20.771 Y17.178 E0.0580
G1 X-22.504 Y17.001 E0.0579
G1 X-24.211 Y16.651 E0.0580
G1 X-25.874 Y16.129 E0.0579
G1 X-27.475 Y15.442 E0.0579
G1 X-28.998 Y14.596 E0.0580
G1 X-30.428 Y13.601 E0.0579
G1 X-31.750 Y12.466 E0.0580
G1 X-32.950 Y11.203 E0.0579
G1 X-34.017 Y9.826 E0.0579
G1 X-34.939 Y8.347 E0.0580
G1 X-35.706 Y6.783 E0.0579
G1 X-36.311 Y5.149 E0.0579
G1 X-36.748 Y3.462 E0.0580
G1 X-37.011 Y1.740 E0.0579
G1 X-37.100 Y0.000 E0.0579
G1 X-37.011 Y-1.740 E0.0579
G1 X-36.748 Y-3.462 E0.0579
G1 X-36.311 Y-5.149 E0.0580
G1 X-35.706 Y-6.783 E0.0579
G1 X-34.939 Y-8.347 E0.0579
G1 X-34.017 Y-9.826 E0.0580
G1 X-32.950 Y-11.203 E0.0579
G1 X-31.750 Y-12.466 E0.0580
G1 X-30.461 Y-13.573 E0.0565
G1 X-28.998 Y-14.597 E0.0594
G1 X-27.475 Y-15.442 E0.0579
G1 X-25.874 Y-16.129 E0.0579
G1 X-24.211 Y-16.651 E0.0579
G1 X-22.504 Y-17.001 E0.0580
G1 X-20.771 Y-17.178 E0.0579
G1 X-19.029 Y-17.178 E0.0580
G1 X-17.296 Y-17.001 E0.0579
G1 X-15.589 Y-16.651 E0.0580
G1 X-13.926 Y-16.129 E0.0579
G1 X-12.325 Y-15.442 E0.0579
G1 X-10.802 Y-14.596 E0.0580
G1 X-9.372 Y-13.601 E0.0579
G1 X-8.050 Y-12.466 E0.0579
G1 X-6.850 Y-11.203 E0.0579
G1 X-5.783 Y-9.826 E0.0580
G1 X-4.861 Y-8.347 E0.0579
G1 X-4.094 Y-6.783 E0.0579
G1 X-3.489 Y-5.149 E0.0579
G1 X-3.052 Y-3.462 E0.0580
G1 X-2.788 Y-1.740 E0.0579
G1 X-2.700 Y0.000 E0.0579
G1 E-1.9000 F1200
; feature solid layer
G1 Z0.700 F1200
G1 X-8.568 Y-11.962 F9000
G1 Z0.200 F1200
G1 E1.9000 F1200
G1 X-8.489 Y-11.883 E0.0037 F2400
G1 X-7.397 Y-10.734 E0.0528
G1 X-6.375 Y-9.414 E0.0555
G1 X-6.026 Y-8.855 E0.0219
G1 X-11.094 Y-13.923 E0.2384
G1 X-11.183 Y-13.985 E0.0036
G1 X-12.394 Y-14.657 E0.0461
G1 X-5.258 Y-7.521 E0.3356
G1 X-4.757 Y-6.498 E0.0379
G1 X-4.730 Y-6.427 E0.0025
G1 X-13.440 Y-15.137 E0.4097
G1 X-14.177 Y-15.453 E0.0267
G1 X-14.388 Y-15.519 E0.0074
G1 X-4.398 Y-5.529 E0.4699
G1 X-4.177 Y-4.933 E0.0211
G1 X-4.110 Y-4.676 E0.0088
G1 X-15.212 Y-15.778 E0.5222
G1 X-15.769 Y-15.953 E0.0194
G1 X-16.000 Y-16.000 E0.0078
G1 X-3.913 Y-3.913 E0.5686
G1 X-3.758 Y-3.317 E0.0205
G1 X-3.736 Y-3.170 E0.0049
G1 X-16.712 Y-16.146 E0.6104
G1 X-17.405 Y-16.289 E0.0235
G1 X-17.422 Y-16.291 E0.0006
G1 X-3.634 Y-2.502 E0.6486
G1 X-3.531 Y-1.834 E0.0225
G1 X-18.052 Y-16.355 E0.6830
G1 X-18.681 Y-16.419 E0.0211
G1 X-3.483 Y-1.220 E0.7149
G1 X-3.453 Y-0.624 E0.0198
G1 X-19.286 Y-16.458 E0.7447
G1 X-19.852 Y-16.458 E0.0188
G1 X-3.423 Y-0.029 E0.7728
G1 X-3.421 Y0.000 E0.0009
G1 X-3.447 Y0.513 E0.0171
G1 X-20.417 Y-16.458 E0.7982
G1 X-20.735 Y-16.458 E0.0105
G1 X-20.960 Y-16.435 E0.0075
G1 X-3.474 Y1.051 E0.8225
G1 X-3.502 Y1.589 E0.0179
G1 X-21.474 Y-16.382 E0.8453
G1 X-21.987 Y-16.330 E0.0172
G1 X-3.570 Y2.087 E0.8663
G1 X-3.645 Y2.577 E0.0165
G1 X-22.492 Y-16.269 E0.8865
G1 X-22.961 Y-16.173 E0.0159
G1 X-3.720 Y3.068 E0.9050
G1 X-3.758 Y3.317 E0.0084
G1 X-3.816 Y3.538 E0.0076
G1 X-23.430 Y-16.076 E0.9226
G1 X-23.899 Y-15.980 E0.0159
G1 X-3.932 Y3.988 E0.9392
G1 X-4.048 Y4.437 E0.0154
G1 X-24.341 Y-15.855 E0.9545
G1 X-24.771 Y-15.720 E0.0150
G1 X-4.165 Y4.886 E0.9693
G1 X-4.177 Y4.933 E0.0016
G1 X-4.314 Y5.303 E0.0131
G1 X-25.202 Y-15.585 E0.9825
G1 X-25.623 Y-15.453 E0.0147
G1 X-25.632 Y-15.449 E0.0003
G1 X-4.467 Y5.716 E0.9955
G1 X-4.620 Y6.128 E0.0146
G1 X-26.028 Y-15.280 E1.0070
G1 X-26.423 Y-15.110 E0.0143
G1 X-4.776 Y6.538 E1.0182
G1 X-4.962 Y6.917 E0.0141
G1 X-26.819 Y-14.940 E1.0281
G1 X-27.157 Y-14.795 E0.0122
G1 X-27.210 Y-14.765 E0.0020
G1 X-5.148 Y7.297 E1.0377
G1 X-5.334 Y7.676 E0.0141
G1 X-27.574 Y-14.563 E1.0461
G1 X-27.938 Y-14.361 E0.0138
G1 X-5.525 Y8.051 E1.0542
G1 X-5.743 Y8.400 E0.0137
G1 X-28.302 Y-14.160 E1.0611
G1 X-28.616 Y-13.985 E0.0119
G1 X-28.661 Y-13.953 E0.0018
G1 X-5.960 Y8.748 E1.0678
G1 X-6.177 Y9.097 E0.0137
G1 X-28.994 Y-13.720 E1.0732
G1 X-29.327 Y-13.488 E0.0135
G1 X-6.397 Y9.442 E1.0786
G1 X-6.644 Y9.761 E0.0134
G1 X-29.660 Y-13.255 E1.0826
G1 X-29.992 Y-13.022 E0.0135
G1 X-6.890 Y10.080 E1.0866
G1 X-7.137 Y10.399 E0.0134
G1 X-30.299 Y-12.763 E1.0895
G1 X-30.604 Y-12.502 E0.0133
G1 X-7.384 Y10.718 E1.0922
G1 X-7.397 Y10.734 E0.0007
G1 X-7.658 Y11.009 E0.0126
G1 X-30.908 Y-12.240 E1.0936
G1 X-31.212 Y-11.979 E0.0133
G1 X-7.934 Y11.299 E1.0949
G1 X-8.210 Y11.589 E0.0133
G1 X-31.492 Y-11.693 E1.0951
G1 X-31.768 Y-11.403 E0.0133
G1 X-8.485 Y11.879 E1.0951
G1 X-8.547 Y11.944 E0.0030
G1 X-8.783 Y12.147 E0.0104
G1 X-32.043 Y-11.113 E1.0941
G1 X-32.319 Y-10.823 E0.0133
G1 X-9.088 Y12.408 E1.0927
G1 X-9.392 Y12.670 E0.0133
G1 X-32.575 Y-10.513 E1.0904
G1 X-32.821 Y-10.194 E0.0134
G1 X-9.697 Y12.931 E1.0877
G1 X-9.813 Y13.031 E0.0051
G1 X-10.019 Y13.174 E0.0083
G1 X-33.068 Y-9.875 E1.0842
G1 X-33.315 Y-9.556 E0.0134
G1 X-10.352 Y13.406 E1.0801
G1 X-10.686 Y13.639 E0.0135
G1 X-33.545 Y-9.221 E1.0752
G1 X-33.763 Y-8.872 E0.0137
G1 X-11.019 Y13.871 E1.0698
G1 X-11.183 Y13.985 E0.0066
G1 X-11.368 Y14.087 E0.0070
G1 X-33.980 Y-8.524 E1.0636
G1 X-34.197 Y-8.176 E0.0137
G1 X-11.732 Y14.289 E1.0567
G1 X-12.096 Y14.491 E0.0138
G1 X-34.399 Y-7.812 E1.0491
G1 X-34.585 Y-7.432 E0.0141
G1 X-12.460 Y14.693 E1.0407
G1 X-12.643 Y14.795 E0.0070
G1 X-12.839 Y14.879 E0.0071
G1 X-34.771 Y-7.053 E1.0316
G1 X-34.958 Y-6.673 E0.0141
G1 X-13.235 Y15.049 E1.0218
G1 X-13.631 Y15.219 E0.0143
G1 X-35.126 Y-6.276 E1.0110
G1 X-35.279 Y-5.863 E0.0146
G1 X-14.027 Y15.389 E0.9996
G1 X-14.177 Y15.453 E0.0054
G1 X-14.444 Y15.537 E0.0093
G1 X-35.432 Y-5.450 E0.9872
G1 X-35.584 Y-5.037 E0.0146
G1 X-14.875 Y15.672 E0.9741
G1 X-15.306 Y15.807 E0.0150
G1 X-35.710 Y-4.597 E0.9598
G1 X-35.826 Y-4.148 E0.0154
G1 X-15.736 Y15.942 E0.9450
G1 X-15.769 Y15.953 E0.0012
G1 X-16.202 Y16.042 E0.0147
G1 X-35.943 Y-3.699 E0.9285
G1 X-36.041 Y-3.317 E0.0131
G1 X-36.053 Y-3.243 E0.0025
G1 X-16.672 Y16.138 E0.9116
G1 X-17.141 Y16.235 E0.0159
G1 X-36.128 Y-2.753 E0.8931
G1 X-36.203 Y-2.262 E0.0165
G1 X-17.629 Y16.312 E0.8736
G1 X-18.143 Y16.364 E0.0172
G1 X-36.278 Y-1.771 E0.8530
G1 X-36.294 Y-1.667 E0.0035
G1 X-36.316 Y-1.243 E0.0141
G1 X-18.656 Y16.416 E0.8306
G1 X-19.065 Y16.458 E0.0137
G1 X-19.181 Y16.458 E0.0038
G1 X-36.343 Y-0.705 E0.8073
G1 X-36.370 Y-0.167 E0.0179
G1 X-19.746 Y16.458 E0.7819
G1 X-20.312 Y16.458 E0.0188
G1 X-36.358 Y0.412 E0.7548
G1 X-36.328 Y1.008 E0.0198
G1 X-20.894 Y16.441 E0.7260
G1 X-21.523 Y16.377 E0.0211
G1 X-36.297 Y1.603 E0.6949
G1 X-36.294 Y1.667 E0.0021
G1 X-36.203 Y2.264 E0.0201
G1 X-22.153 Y16.313 E0.6609
