; G-Code generated by Simplify3D(R) Version 4.1.2
; Aug 3, 2020 at 12:01:31 PM
; Settings Summary
;   processName,Process1
;   applyToModels,Diffuser,Diffuser(2),Diffuser(3),Diffuser(2)(2)
;   profileName,MakerBot Replicator 2 HBP (modified)
;   profileVersion,2020-04-21 14:45:34
;   baseProfile,MakerBot Replicator 2(2)
;   printMaterial,PLA
;   printQuality,Medium
;   printExtruders,
;   extruderName,Primary Extruder
;   extruderToolheadNumber,0
;   extruderDiameter,0.4
;   extruderAutoWidth,0
;   extruderWidth,0.4
;   extrusionMultiplier,1
;   extruderUseRetract,1
;   extruderRetractionDistance,1.9
;   extruderExtraRestartDistance,0
;   extruderRetractionZLift,0.5
;   extruderRetractionSpeed,1200
;   extruderUseCoasting,0
;   extruderCoastingDistance,0.2
;   extruderUseWipe,0
;   extruderWipeDistance,5
;   primaryExtruder,0
;   layerHeight,0.2
;   topSolidLayers,4
;   bottomSolidLayers,3
;   perimeterOutlines,2
;   printPerimetersInsideOut,1
;   startPointOption,3
;   startPointOriginX,140
;   startPointOriginY,0
;   sequentialIslands,0
;   spiralVaseMode,0
;   firstLayerHeightPercentage,100
;   firstLayerWidthPercentage,100
;   firstLayerUnderspeed,0.5
;   useRaft,0
;   raftExtruder,0
;   raftTopLayers,2
;   raftBaseLayers,1
;   raftOffset,1
;   raftSeparationDistance,0.14
;   raftTopInfill,90
;   aboveRaftSpeedMultiplier,0.3
;   useSkirt,0
;   skirtExtruder,0
;   skirtLayers,1
;   skirtOutlines,5
;   skirtOffset,0
;   usePrimePillar,0
;   primePillarExtruder,999
;   primePillarWidth,12
;   primePillarLocation,7
;   primePillarSpeedMultiplier,1
;   useOozeShield,0
;   oozeShieldExtruder,999
;   oozeShieldOffset,2
;   oozeShieldOutlines,1
;   oozeShieldSidewallShape,1
;   oozeShieldSidewallAngle,30
;   oozeShieldSpeedMultiplier,1
;   infillExtruder,0
;   internalInfillPattern,Rectilinear
;   externalInfillPattern,Rectilinear
;   infillPercentage,100
;   outlineOverlapPercentage,20
;   infillExtrusionWidthPercentage,100
;   minInfillLength,5
;   infillLayerInterval,1
;   internalInfillAngles,45,-45
;   overlapInternalInfillAngles,0
;   externalInfillAngles,45,-45
;   generateSupport,0
;   supportExtruder,0
;   supportInfillPercentage,30
;   supportExtraInflation,0.6
;   supportBaseLayers,0
;   denseSupportExtruder,0
;   denseSupportLayers,2
;   denseSupportInfillPercentage,70
;   supportLayerInterval,1
;   supportHorizontalPartOffset,0.3
;   supportUpperSeparationLayers,1
;   supportLowerSeparationLayers,1
;   supportType,0
;   supportGridSpacing,99
;   maxOverhangAngle,45
;   supportAngles,0
;   temperatureName,Primary Extruder,Heated Build Platform
;   temperatureNumber,0,0
;   temperatureSetpointCount,1,1
;   temperatureSetpointLayers,1,1
;   temperatureSetpointTemperatures,210,65
;   temperatureStabilizeAtStartup,1,1
;   temperatureHeatedBed,0,1
;   fanLayers,1,2
;   fanSpeeds,0,100
;   blipFanToFullPower,1
;   adjustSpeedForCooling,1
;   minSpeedLayerTime,15
;   minCoolingSpeedSlowdown,20
;   increaseFanForCooling,1
;   minFanLayerTime,45
;   maxCoolingFanSpeed,100
;   increaseFanForBridging,1
;   bridgingFanSpeed,100
;   use5D,1
;   relativeEdistances,1
;   allowEaxisZeroing,0
;   independentExtruderAxes,1
;   includeM10123,0
;   stickySupport,1
;   applyToolheadOffsets,0
;   gcodeXoffset,0
;   gcodeYoffset,0
;   gcodeZoffset,0
;   overrideMachineDefinition,1
;   machineTypeOverride,0
;   strokeXoverride,280
;   strokeYoverride,150
;   strokeZoverride,150
;   originOffsetXoverride,140
;   originOffsetYoverride,75
;   originOffsetZoverride,0
;   homeXdirOverride,1
;   homeYdirOverride,1
;   homeZdirOverride,-1
;   flipXoverride,1
;   flipYoverride,-1
;   flipZoverride,1
;   toolheadOffsets,0,0|0,0|0,0|0,0|0,0|0,0
;   overrideFirmwareConfiguration,1
;   firmwareTypeOverride,MakerBot/Sailfish Firmware
;   GPXconfigOverride,r2h
;   baudRateOverride,115200
;   overridePrinterModels,1
;   printerModelsOverride,MakerBot_Replicator2.stl
;   startingGcode,; **** Replicator 2 start.gcode ****,M73 P0 ; enable build progress,G162 X Y F3000 ; home XY maximum,G161 Z F1200 ; home Z minimum,G92 Z-5 ; set Z to -5,G1 Z0 ; move Z to 0,G28 ; better homing homie,M132 X Y Z A B ; recall home offsets,G1 X-145 Y-75 Z30 F9000 ; move to wait position off table,G130 X20 Y20 Z20 A20 B20 ; lower stepper Vrefs while heating,M126 S[fan_speed_pwm],M140 S[bed0_temperature] T0,M134 T0 ; stabilize bed temperature,M104 S[extruder0_temperature] T0,M133 T0 ; stabilize extruder temperature,G130 X127 Y127 Z40 A127 B127 ; default stepper Vrefs,G92 A0 ; zero extruder,G1 Z0.4 ; position nozzle,G1 E25 F300 ; purge nozzle,G1 X-140 Y-70 Z0.15 F1200 ; slow wipe,G1 X-135 Y-65 Z0.5 F1200 ; lift,G92 A0 ; zero extruder,M73 P1 ;@body (notify GPX body has started),; **** end of start.gcode ****
;   layerChangeGcode,
;   retractionGcode,
;   toolChangeGcode,
;   endingGcode,; **** Replicator 2 end.gcode ****,M73 P100 ; end build progress,G1 Z155 F1000 ; send Z axis to bottom of machine,M104 S0 T0 ; cool down extruder,M140 S0 T0 ; cool down HBP,M127 ; stop blower fan,G162 X Y F3000 ; home XY maximum,M18 ; disable stepper,M0 ; stop codes,M72 P1 ; play Ta-Da song,; **** end of end.gcode ****
;   exportFileFormat,gcode
;   celebration,0
;   celebrationSong,Random Song
;   postProcessing,
;   defaultSpeed,4800
;   outlineUnderspeed,0.5
;   solidInfillUnderspeed,1
;   supportUnderspeed,1
;   rapidXYspeed,9000
;   rapidZspeed,1200
;   minBridgingArea,50
;   bridgingExtraInflation,0
;   bridgingExtrusionMultiplier,1
;   bridgingSpeedMultiplier,0.8
;   useFixedBridgingAngle,0
;   fixedBridgingAngle,0
;   applyBridgingToPerimeters,0
;   filamentDiameters,1.75|1.75|1.75|1.75|1.75|1.75
;   filamentPricesPerKg,46|46|46|46|46|46
;   filamentDensities,1.25|1.25|1.25|1.25|1.25|1.25
;   useMinPrintHeight,0
;   minPrintHeight,0
;   useMaxPrintHeight,0
;   maxPrintHeight,4.84
;   useDiaphragm,0
;   diaphragmLayerInterval,20
;   robustSlicing,1
;   mergeAllIntoSolid,0
;   onlyRetractWhenCrossingOutline,0
;   retractBetweenLayers,0
;   useRetractionMinTravel,1
;   retractionMinTravel,7
;   retractWhileWiping,1
;   onlyWipeOutlines,1
;   avoidCrossingOutline,0
;   maxMovementDetourFactor,3
;   toolChangeRetractionDistance,12
;   toolChangeExtraRestartDistance,-0.5
;   toolChangeRetractionSpeed,600
;   externalThinWallType,0
;   internalThinWallType,0
;   thinWallAllowedOverlapPercentage,10
;   singleExtrusionMinLength,1
;   singleExtrusionMinPrintingWidthPercentage,50
;   singleExtrusionMaxPrintingWidthPercentage,200
;   singleExtrusionEndpointExtension,0.2
;   horizontalSizeCompensation,0
G90
M83
; **** Replicator 2 start.gcode ****
M73 P0 ; enable build progress
G162 X Y F3000 ; home XY maximum
G161 Z F1200 ; home Z minimum
G92 Z-5 ; set Z to -5
G1 Z0 ; move Z to 0
G28 ; better homing homie
M132 X Y Z A B ; recall home offsets
G1 X-145 Y-75 Z30 F9000 ; move to wait position off table
G130 X20 Y20 Z20 A20 B20 ; lower stepper Vrefs while heating
M127
M140 S65 T0
M134 T0 ; stabilize bed temperature
M104 S210 T0
M133 T0 ; stabilize extruder temperature
G130 X127 Y127 Z40 A127 B127 ; default stepper Vrefs
G92 A0 ; zero extruder
G1 Z0.4 ; position nozzle
G1 E25 F300 ; purge nozzle
G1 X-140 Y-70 Z0.15 F1200 ; slow wipe
G1 X-135 Y-65 Z0.5 F1200 ; lift
G92 A0 ; zero extruder
M73 P1 ;@body (notify GPX body has started)
; **** end of start.gcode ****
; process Process1
; layer 1, Z = 0.200
M135 T0
G1 E-1.9000 F1200
; feature inner perimeter
; tool H0.200 W0.400
G1 Z0.500 F1200
G1 X16.713 Y-18.178 F9000
G1 Z0.200 F1200
G1 E1.9000 F1200
G1 X16.455 Y-16.496 E0.0566 F1800
G1 X16.029 Y-14.849 E0.0566
G1 X15.438 Y-13.253 E0.0566
G1 X14.688 Y-11.725 E0.0566
G1 X13.788 Y-10.281 E0.0566
G1 X12.747 Y-8.935 E0.0566
G1 X11.574 Y-7.702 E0.0566
G1 X10.283 Y-6.593 E0.0566
G1 X8.886 Y-5.621 E0.0566
G1 X7.398 Y-4.795 E0.0566
G1 X5.835 Y-4.124 E0.0566
G1 X4.211 Y-3.615 E0.0566
G1 X2.544 Y-3.272 E0.0566
G1 X0.851 Y-3.100 E0.0566
G1 X-0.851 Y-3.100 E0.0566
G1 X-2.544 Y-3.272 E0.0566
G1 X-4.211 Y-3.615 E0.0566
G1 X-5.835 Y-4.124 E0.0566
G1 X-7.398 Y-4.795 E0.0566
G1 X-8.886 Y-5.621 E0.0566
G1 X-10.283 Y-6.593 E0.0566
G1 X-11.574 Y-7.702 E0.0566
G1 X-12.747 Y-8.935 E0.0566
G1 X-13.788 Y-10.281 E0.0566
G1 X-14.688 Y-11.725 E0.0566
G1 X-15.438 Y-13.253 E0.0566
G1 X-16.029 Y-14.849 E0.0566
G1 X-16.455 Y-16.496 E0.0566
G1 X-16.713 Y-18.178 E0.0566
G1 X-16.799 Y-19.878 E0.0566
G1 X-16.713 Y-21.577 E0.0566
G1 X-16.455 Y-23.259 E0.0566
G1 X-16.029 Y-24.907 E0.0566
G1 X-15.438 Y-26.503 E0.0566
G1 X-14.688 Y-28.030 E0.0566
G1 X-13.788 Y-29.475 E0.0566
G1 X-12.747 Y-30.820 E0.0566
G1 X-11.574 Y-32.054 E0.0566
G1 X-10.316 Y-33.134 E0.0552
G1 X-8.886 Y-34.135 E0.0581
G1 X-7.398 Y-34.960 E0.0566
G1 X-5.835 Y-35.631 E0.0566
G1 X-4.211 Y-36.141 E0.0566
G1 X-2.544 Y-36.483 E0.0566
G1 X-0.851 Y-36.655 E0.0566
G1 X0.851 Y-36.655 E0.0566
G1 X2.544 Y-36.483 E0.0566
G1 X4.211 Y-36.141 E0.0566
G1 X5.835 Y-35.631 E0.0566
G1 X7.398 Y-34.960 E0.0566
G1 X8.886 Y-34.134 E0.0566
G1 X10.283 Y-33.162 E0.0566
G1 X11.574 Y-32.054 E0.0566
G1 X12.747 Y-30.820 E0.0566
G1 X13.788 Y-29.475 E0.0566
G1 X14.688 Y-28.030 E0.0566
G1 X15.438 Y-26.503 E0.0566
G1 X16.029 Y-24.907 E0.0566
G1 X16.455 Y-23.259 E0.0566
G1 X16.713 Y-21.577 E0.0566
G1 X16.799 Y-19.878 E0.0566
G1 X16.713 Y-18.178 E0.0566
; feature outer perimeter
G1 X17.111 Y-18.138 F9000
G1 X16.848 Y-16.415 E0.0579 F1200
G1 X16.411 Y-14.729 E0.0580
G1 X15.806 Y-13.095 E0.0579
G1 X15.039 Y-11.531 E0.0579
G1 X14.117 Y-10.052 E0.0579
G1 X13.050 Y-8.674 E0.0580
G1 X11.850 Y-7.411 E0.0579
G1 X10.528 Y-6.277 E0.0579
G1 X9.098 Y-5.281 E0.0579
G1 X7.575 Y-4.436 E0.0580
G1 X5.974 Y-3.749 E0.0579
G1 X4.311 Y-3.227 E0.0579
G1 X2.604 Y-2.876 E0.0580
G1 X0.871 Y-2.700 E0.0579
G1 X-0.871 Y-2.700 E0.0580
G1 X-2.604 Y-2.876 E0.0579
G1 X-4.311 Y-3.227 E0.0580
G1 X-5.974 Y-3.749 E0.0579
G1 X-7.575 Y-4.436 E0.0579
G1 X-9.098 Y-5.281 E0.0580
G1 X-10.528 Y-6.276 E0.0579
G1 X-11.850 Y-7.411 E0.0580
G1 X-13.050 Y-8.674 E0.0579
G1 X-14.117 Y-10.052 E0.0580
G1 X-15.039 Y-11.531 E0.0579
G1 X-15.806 Y-13.095 E0.0579
G1 X-16.411 Y-14.729 E0.0579
G1 X-16.848 Y-16.415 E0.0580
G1 X-17.111 Y-18.138 E0.0579
G1 X-17.200 Y-19.878 E0.0579
G1 X-17.111 Y-21.618 E0.0580
G1 X-16.848 Y-23.340 E0.0579
G1 X-16.411 Y-25.027 E0.0580
G1 X-15.806 Y-26.660 E0.0579
G1 X-15.039 Y-28.225 E0.0579
G1 X-14.117 Y-29.703 E0.0579
G1 X-13.050 Y-31.081 E0.0580
G1 X-11.850 Y-32.344 E0.0579
G1 X-10.561 Y-33.450 E0.0565
G1 X-9.098 Y-34.474 E0.0594
G1 X-7.575 Y-35.320 E0.0579
G1 X-5.974 Y-36.007 E0.0579
G1 X-4.311 Y-36.528 E0.0579
G1 X-2.604 Y-36.879 E0.0580
G1 X-0.871 Y-37.055 E0.0579
G1 X0.871 Y-37.055 E0.0580
G1 X2.604 Y-36.879 E0.0579
G1 X4.311 Y-36.528 E0.0580
G1 X5.974 Y-36.007 E0.0579
G1 X7.575 Y-35.320 E0.0579
G1 X9.098 Y-34.474 E0.0580
G1 X10.528 Y-33.479 E0.0579
G1 X11.850 Y-32.344 E0.0579
G1 X13.050 Y-31.081 E0.0579
G1 X14.117 Y-29.703 E0.0580
G1 X15.039 Y-28.225 E0.0579
G1 X15.806 Y-26.660 E0.0579
G1 X16.411 Y-25.027 E0.0579
G1 X16.848 Y-23.340 E0.0580
G1 X17.111 Y-21.618 E0.0579
G1 X17.200 Y-19.878 E0.0579
G1 X17.111 Y-18.138 E0.0579
G1 E-1.9000 F1200
; feature solid layer
G1 Z0.700 F1200
G1 X10.076 Y-32.916 F9000
G1 Z0.200 F1200
G1 E1.9000 F1200
G1 X12.924 Y-30.068 E0.1340 F2400
G1 X13.525 Y-29.291 E0.0327
G1 X14.171 Y-28.255 E0.0406
G1 X8.374 Y-34.053 E0.2727
G1 X7.257 Y-34.672 E0.0425
G1 X7.137 Y-34.724 E0.0044
G1 X14.815 Y-27.046 E0.3612
G1 X15.143 Y-26.376 E0.0248
G1 X15.275 Y-26.020 E0.0126
G1 X6.146 Y-35.149 E0.4294
G1 X5.723 Y-35.331 E0.0153
G1 X5.250 Y-35.479 E0.0165
G1 X15.608 Y-25.121 E0.4872
G1 X15.723 Y-24.811 E0.0110
G1 X15.852 Y-24.311 E0.0172
G1 X4.426 Y-35.738 E0.5375
G1 X4.130 Y-35.830 E0.0103
G1 X3.674 Y-35.924 E0.0155
G1 X16.050 Y-23.548 E0.5821
G1 X16.142 Y-23.195 E0.0121
G1 X16.196 Y-22.836 E0.0121
G1 X2.962 Y-36.071 E0.6225
G1 X2.495 Y-36.166 E0.0158
G1 X2.278 Y-36.189 E0.0073
G1 X16.299 Y-22.168 E0.6595
G1 X16.394 Y-21.545 E0.0210
G1 X16.396 Y-21.505 E0.0013
G1 X1.648 Y-36.253 E0.6937
G1 X1.019 Y-36.317 E0.0211
G1 X16.427 Y-20.909 E0.7247
G1 X16.457 Y-20.313 E0.0198
G1 X0.434 Y-36.335 E0.7536
G1 X-0.131 Y-36.335 E0.0188
G1 X16.471 Y-19.732 E0.7809
G1 X16.444 Y-19.194 E0.0179
G1 X-0.697 Y-36.335 E0.8063
G1 X-0.835 Y-36.335 E0.0046
G1 X-1.223 Y-36.296 E0.0130
G1 X16.417 Y-18.656 E0.8297
G1 X16.394 Y-18.211 E0.0148
G1 X16.381 Y-18.126 E0.0029
G1 X-1.737 Y-36.244 E0.8522
G1 X-2.250 Y-36.191 E0.0172
G1 X16.306 Y-17.635 E0.8728
G1 X16.231 Y-17.145 E0.0165
G1 X-2.741 Y-36.116 E0.8924
G1 X-3.210 Y-36.020 E0.0159
G1 X16.156 Y-16.654 E0.9109
G1 X16.142 Y-16.561 E0.0031
G1 X16.047 Y-16.197 E0.0125
G1 X-3.679 Y-35.923 E0.9279
G1 X-4.130 Y-35.830 E0.0153
G1 X-4.147 Y-35.825 E0.0006
G1 X15.931 Y-15.747 E0.9444
G1 X15.815 Y-15.298 E0.0154
G1 X-4.577 Y-35.690 E0.9592
G1 X-5.008 Y-35.555 E0.0150
G1 X15.690 Y-14.857 E0.9736
G1 X15.538 Y-14.444 E0.0146
G1 X-5.439 Y-35.420 E0.9867
G1 X-5.723 Y-35.331 E0.0099
G1 X-5.857 Y-35.273 E0.0049
G1 X15.385 Y-14.031 E0.9992
G1 X15.232 Y-13.618 E0.0146
G1 X-6.253 Y-35.103 E1.0106
G1 X-6.649 Y-34.933 E0.0143
G1 X15.065 Y-13.219 E1.0214
G1 X14.879 Y-12.840 E0.0141
G1 X-7.045 Y-34.764 E1.0312
G1 X-7.257 Y-34.672 E0.0077
G1 X-7.426 Y-34.579 E0.0064
G1 X14.693 Y-12.460 E1.0404
G1 X14.506 Y-12.081 E0.0141
G1 X-7.790 Y-34.377 E1.0487
G1 X-8.153 Y-34.175 E0.0138
G1 X14.306 Y-11.716 E1.0564
G1 X14.088 Y-11.367 E0.0137
G1 X-8.517 Y-33.973 E1.0633
G1 X-8.716 Y-33.863 E0.0076
G1 X-8.867 Y-33.757 E0.0061
G1 X13.871 Y-11.019 E1.0695
G1 X13.654 Y-10.670 E0.0137
G1 X-9.200 Y-33.524 E1.0750
G1 X-9.533 Y-33.291 E0.0135
G1 X13.425 Y-10.334 E1.0798
G1 X13.178 Y-10.015 E0.0134
G1 X-9.865 Y-33.058 E1.0839
G1 X-10.119 Y-32.881 E0.0103
G1 X-10.191 Y-32.819 E0.0032
G1 X12.931 Y-9.696 E1.0876
G1 X12.684 Y-9.377 E0.0134
G1 X-10.496 Y-32.558 E1.0903
G1 X-10.800 Y-32.296 E0.0133
G1 X12.430 Y-9.066 E1.0927
G1 X12.154 Y-8.776 E0.0133
G1 X-11.105 Y-32.035 E1.0940
G1 X-11.353 Y-31.821 E0.0109
G1 X-11.404 Y-31.768 E0.0024
G1 X11.878 Y-8.486 E1.0951
G1 X11.603 Y-8.196 E0.0133
G1 X-11.679 Y-31.478 E1.0951
G1 X-11.955 Y-31.188 E0.0133
G1 X11.324 Y-7.909 E1.0950
G1 X11.020 Y-7.648 E0.0133
G1 X-12.231 Y-30.898 E1.0936
G1 X-12.506 Y-30.608 E0.0133
G1 X10.716 Y-7.386 E1.0923
G1 X10.411 Y-7.125 E0.0133
G1 X-12.753 Y-30.289 E1.0896
G1 X-13.000 Y-29.970 E0.0134
G1 X10.107 Y-6.864 E1.0869
G1 X10.087 Y-6.847 E0.0009
G1 X9.775 Y-6.630 E0.0126
G1 X-13.247 Y-29.651 E1.0829
G1 X-13.493 Y-29.333 E0.0134
G1 X9.442 Y-6.398 E1.0788
G1 X9.108 Y-6.165 E0.0135
G1 X-13.714 Y-28.988 E1.0735
G1 X-13.932 Y-28.639 E0.0137
G1 X8.775 Y-5.933 E1.0680
G1 X8.717 Y-5.893 E0.0023
G1 X8.416 Y-5.726 E0.0114
G1 X-14.149 Y-28.291 E1.0614
G1 X-14.366 Y-27.943 E0.0137
G1 X8.052 Y-5.524 E1.0545
G1 X7.688 Y-5.322 E0.0138
G1 X-14.558 Y-27.569 E1.0464
G1 X-14.744 Y-27.189 E0.0141
G1 X7.325 Y-5.120 E1.0381
G1 X7.257 Y-5.083 E0.0026
G1 X6.935 Y-4.945 E0.0117
G1 X-14.931 Y-26.810 E1.0285
G1 X-15.117 Y-26.430 E0.0141
G1 X6.539 Y-4.775 E1.0186
G1 X6.143 Y-4.605 E0.0143
G1 X-15.274 Y-26.022 E1.0074
G1 X-15.427 Y-25.610 E0.0146
G1 X5.747 Y-4.435 E0.9960
G1 X5.723 Y-4.425 E0.0009
G1 X5.319 Y-4.298 E0.0141
G1 X-15.580 Y-25.197 E0.9830
G1 X-15.723 Y-24.811 E0.0137
G1 X-15.731 Y-24.782 E0.0010
G1 X4.888 Y-4.163 E0.9699
G1 X4.458 Y-4.028 E0.0150
G1 X-15.847 Y-24.332 E0.9551
G1 X-15.963 Y-23.883 E0.0154
G1 X4.018 Y-3.902 E0.9399
G1 X3.549 Y-3.805 E0.0159
G1 X-16.080 Y-23.434 E0.9233
G1 X-16.142 Y-23.195 E0.0082
G1 X-16.177 Y-22.965 E0.0077
G1 X3.079 Y-3.709 E0.9057
G1 X2.610 Y-3.612 E0.0159
G1 X-16.252 Y-22.474 E0.8872
G1 X-16.327 Y-21.984 E0.0165
G1 X2.107 Y-3.549 E0.8671
G1 X1.594 Y-3.497 E0.0172
G1 X-16.397 Y-21.488 E0.8462
G1 X-16.424 Y-20.950 E0.0179
G1 X1.081 Y-3.445 E0.8234
G1 X0.835 Y-3.420 E0.0082
G1 X0.540 Y-3.420 E0.0098
G1 X-16.452 Y-20.412 E0.7992
G1 X-16.479 Y-19.873 E0.0179
G1 X-0.026 Y-3.420 E0.7739
G1 X-0.592 Y-3.420 E0.0188
G1 X-16.448 Y-19.277 E0.7459
G1 X-16.418 Y-18.681 E0.0198
G1 X-1.194 Y-3.457 E0.7161
G1 X-1.823 Y-3.521 E0.0211
G1 X-16.373 Y-18.070 E0.6844
G1 X-16.270 Y-17.402 E0.0225
G1 X-2.453 Y-3.585 E0.6499
G1 X-2.495 Y-3.589 E0.0014
