; G-Code generated by Simplify3D(R) Version 4.1.2
; Aug 3, 2020 at 4:28:59 PM
; Settings Summary
;   processName,Process1
;   applyToModels,Diffuser,Diffuser(2),Diffuser(3),Diffuser(2)(2),Diffuser(4),Diffuser(2)(3),Diffuser(3)(2),Diffuser(2)(2)(2)
;   profileName,MakerBot Replicator 2 HBP (modified)
;   profileVersion,2020-04-21 14:45:34
;   baseProfile,MakerBot Replicator 2(2)
;   printMaterial,PLA
;   printQuality,Medium
;   printExtruders,
;   extruderName,Primary Extruder
;   extruderToolheadNumber,0
;   extruderDiameter,0.4
;   extruderAutoWidth,0
;   extruderWidth,0.5
;   extrusionMultiplier,1
;   extruderUseRetract,1
;   extruderRetractionDistance,1.9
;   extruderExtraRestartDistance,0
;   extruderRetractionZLift,0.5
;   extruderRetractionSpeed,1200
;   extruderUseCoasting,0
;   extruderCoastingDistance,0.2
;   extruderUseWipe,0
;   extruderWipeDistance,5
;   primaryExtruder,0
;   layerHeight,0.35
;   topSolidLayers,4
;   bottomSolidLayers,3
;   perimeterOutlines,2
;   printPerimetersInsideOut,1
;   startPointOption,3
;   startPointOriginX,140
;   startPointOriginY,0
;   sequentialIslands,0
;   spiralVaseMode,0
;   firstLayerHeightPercentage,100
;   firstLayerWidthPercentage,100
;   firstLayerUnderspeed,0.5
;   useRaft,0
;   raftExtruder,0
;   raftTopLayers,2
;   raftBaseLayers,1
;   raftOffset,1
;   raftSeparationDistance,0.14
;   raftTopInfill,90
;   aboveRaftSpeedMultiplier,0.3
;   useSkirt,0
;   skirtExtruder,0
;   skirtLayers,1
;   skirtOutlines,5
;   skirtOffset,0
;   usePrimePillar,0
;   primePillarExtruder,999
;   primePillarWidth,12
;   primePillarLocation,7
;   primePillarSpeedMultiplier,1
;   useOozeShield,0
;   oozeShieldExtruder,999
;   oozeShieldOffset,2
;   oozeShieldOutlines,1
;   oozeShieldSidewallShape,1
;   oozeShieldSidewallAngle,30
;   oozeShieldSpeedMultiplier,1
;   infillExtruder,0
;   internalInfillPattern,Rectilinear
;   externalInfillPattern,Rectilinear
;   infillPercentage,100
;   outlineOverlapPercentage,20
;   infillExtrusionWidthPercentage,100
;   minInfillLength,5
;   infillLayerInterval,1
;   internalInfillAngles,45,-45
;   overlapInternalInfillAngles,0
;   externalInfillAngles,45,-45
;   generateSupport,0
;   supportExtruder,0
;   supportInfillPercentage,30
;   supportExtraInflation,0.6
;   supportBaseLayers,0
;   denseSupportExtruder,0
;   denseSupportLayers,2
;   denseSupportInfillPercentage,70
;   supportLayerInterval,1
;   supportHorizontalPartOffset,0.3
;   supportUpperSeparationLayers,1
;   supportLowerSeparationLayers,1
;   supportType,0
;   supportGridSpacing,99
;   maxOverhangAngle,45
;   supportAngles,0
;   temperatureName,Primary Extruder,Heated Build Platform
;   temperatureNumber,0,0
;   temperatureSetpointCount,1,1
;   temperatureSetpointLayers,1,1
;   temperatureSetpointTemperatures,210,65
;   temperatureStabilizeAtStartup,1,1
;   temperatureHeatedBed,0,1
;   fanLayers,1,2
;   fanSpeeds,0,100
;   blipFanToFullPower,1
;   adjustSpeedForCooling,1
;   minSpeedLayerTime,15
;   minCoolingSpeedSlowdown,20
;   increaseFanForCooling,1
;   minFanLayerTime,45
;   maxCoolingFanSpeed,100
;   increaseFanForBridging,1
;   bridgingFanSpeed,100
;   use5D,1
;   relativeEdistances,1
;   allowEaxisZeroing,0
;   independentExtruderAxes,1
;   includeM10123,0
;   stickySupport,1
;   applyToolheadOffsets,0
;   gcodeXoffset,0
;   gcodeYoffset,0
;   gcodeZoffset,0
;   overrideMachineDefinition,1
;   machineTypeOverride,0
;   strokeXoverride,280
;   strokeYoverride,150
;   strokeZoverride,150
;   originOffsetXoverride,140
;   originOffsetYoverride,75
;   originOffsetZoverride,0
;   homeXdirOverride,1
;   homeYdirOverride,1
;   homeZdirOverride,-1
;   flipXoverride,1
;   flipYoverride,-1
;   flipZoverride,1
;   toolheadOffsets,0,0|0,0|0,0|0,0|0,0|0,0
;   overrideFirmwareConfiguration,1
;   firmwareTypeOverride,MakerBot/Sailfish Firmware
;   GPXconfigOverride,r2h
;   baudRateOverride,115200
;   overridePrinterModels,1
;   printerModelsOverride,MakerBot_Replicator2.stl
;   startingGcode,; **** Replicator 2 start.gcode ****,M73 P0 ; enable build progress,G162 X Y F3000 ; home XY maximum,G161 Z F1200 ; home Z minimum,G92 Z-5 ; set Z to -5,G1 Z0 ; move Z to 0,G28 ; better homing homie,M132 X Y Z A B ; recall home offsets,G1 X-145 Y-75 Z30 F9000 ; move to wait position off table,G130 X20 Y20 Z20 A20 B20 ; lower stepper Vrefs while heating,M126 S[fan_speed_pwm],M140 S[bed0_temperature] T0,M134 T0 ; stabilize bed temperature,M104 S[extruder0_temperature] T0,M133 T0 ; stabilize extruder temperature,G130 X127 Y127 Z40 A127 B127 ; default stepper Vrefs,G92 A0 ; zero extruder,G1 Z0.4 ; position nozzle,G1 E25 F300 ; purge nozzle,G1 X-140 Y-70 Z0.15 F1200 ; slow wipe,G1 X-135 Y-65 Z0.5 F1200 ; lift,G92 A0 ; zero extruder,M73 P1 ;@body (notify GPX body has started),; **** end of start.gcode ****
;   layerChangeGcode,
;   retractionGcode,
;   toolChangeGcode,
;   endingGcode,; **** Replicator 2 end.gcode ****,M73 P100 ; end build progress,G1 Z155 F1000 ; send Z axis to bottom of machine,M104 S0 T0 ; cool down extruder,M140 S0 T0 ; cool down HBP,M127 ; stop blower fan,G162 X Y F3000 ; home XY maximum,M18 ; disable stepper,M0 ; stop codes,M72 P1 ; play Ta-Da song,; **** end of end.gcode ****
;   exportFileFormat,gcode
;   celebration,0
;   celebrationSong,Random Song
;   postProcessing,
;   defaultSpeed,4800
;   outlineUnderspeed,0.5
;   solidInfillUnderspeed,1
;   supportUnderspeed,1
;   rapidXYspeed,9000
;   rapidZspeed,1200
;   minBridgingArea,50
;   bridgingExtraInflation,0
;   bridgingExtrusionMultiplier,1
;   bridgingSpeedMultiplier,0.8
;   useFixedBridgingAngle,0
;   fixedBridgingAngle,0
;   applyBridgingToPerimeters,0
;   filamentDiameters,1.75|1.75|1.75|1.75|1.75|1.75
;   filamentPricesPerKg,46|46|46|46|46|46
;   filamentDensities,1.25|1.25|1.25|1.25|1.25|1.25
;   useMinPrintHeight,0
;   minPrintHeight,0
;   useMaxPrintHeight,0
;   maxPrintHeight,4.84
;   useDiaphragm,0
;   diaphragmLayerInterval,20
;   robustSlicing,1
;   mergeAllIntoSolid,0
;   onlyRetractWhenCrossingOutline,0
;   retractBetweenLayers,0
;   useRetractionMinTravel,1
;   retractionMinTravel,7
;   retractWhileWiping,1
;   onlyWipeOutlines,1
;   avoidCrossingOutline,0
;   maxMovementDetourFactor,3
;   toolChangeRetractionDistance,12
;   toolChangeExtraRestartDistance,-0.5
;   toolChangeRetractionSpeed,600
;   externalThinWallType,0
;   internalThinWallType,1
;   thinWallAllowedOverlapPercentage,10
;   singleExtrusionMinLength,1
;   singleExtrusionMinPrintingWidthPercentage,50
;   singleExtrusionMaxPrintingWidthPercentage,200
;   singleExtrusionEndpointExtension,0.2
;   horizontalSizeCompensation,0
G90
M83
; **** Replicator 2 start.gcode ****
M73 P0 ; enable build progress
G162 X Y F3000 ; home XY maximum
G161 Z F1200 ; home Z minimum
G92 Z-5 ; set Z to -5
G1 Z0 ; move Z to 0
G28 ; better homing homie
M132 X Y Z A B ; recall home offsets
G1 X-145 Y-75 Z30 F9000 ; move to wait position off table
G130 X20 Y20 Z20 A20 B20 ; lower stepper Vrefs while heating
M127
M140 S65 T0
M134 T0 ; stabilize bed temperature
M104 S210 T0
M133 T0 ; stabilize extruder temperature
G130 X127 Y127 Z40 A127 B127 ; default stepper Vrefs
G92 A0 ; zero extruder
G1 Z0.4 ; position nozzle
G1 E25 F300 ; purge nozzle
G1 X-140 Y-70 Z0.15 F1200 ; slow wipe
G1 X-135 Y-65 Z0.5 F1200 ; lift
G92 A0 ; zero extruder
M73 P1 ;@body (notify GPX body has started)
; **** end of start.gcode ****
; process Process1
; layer 1, Z = 0.350
M135 T0
G1 E-1.9000 F1200
; feature inner perimeter
; tool H0.350 W0.500
G1 Z0.500 F1200
G1 X-3.336 Y18.193 F9000
G1 Z0.350 F1200
G1 E1.9000 F1200
G1 X-3.251 Y19.878 E0.1227 F1800
G1 X-3.336 Y21.562 E0.1227
G1 X-3.592 Y23.229 E0.1227
G1 X-4.015 Y24.862 E0.1227
G1 X-4.600 Y26.443 E0.1227
G1 X-5.343 Y27.957 E0.1227
G1 X-6.235 Y29.389 E0.1227
G1 X-7.267 Y30.722 E0.1227
G1 X-8.429 Y31.945 E0.1227
G1 X-9.709 Y33.043 E0.1227
G1 X-11.093 Y34.007 E0.1227
G1 X-12.568 Y34.825 E0.1227
G1 X-14.118 Y35.490 E0.1227
G1 X-15.727 Y35.995 E0.1227
G1 X-17.379 Y36.335 E0.1227
G1 X-19.057 Y36.505 E0.1227
G1 X-20.743 Y36.505 E0.1227
G1 X-22.421 Y36.335 E0.1227
G1 X-24.073 Y35.995 E0.1227
G1 X-25.682 Y35.490 E0.1227
G1 X-27.232 Y34.825 E0.1227
G1 X-28.707 Y34.007 E0.1227
G1 X-30.091 Y33.043 E0.1227
G1 X-31.371 Y31.945 E0.1227
G1 X-32.533 Y30.722 E0.1227
G1 X-33.565 Y29.389 E0.1227
G1 X-34.457 Y27.957 E0.1227
G1 X-35.200 Y26.443 E0.1227
G1 X-35.785 Y24.862 E0.1227
G1 X-36.208 Y23.229 E0.1227
G1 X-36.464 Y21.562 E0.1227
G1 X-36.549 Y19.878 E0.1227
G1 X-36.464 Y18.193 E0.1227
G1 X-36.208 Y16.526 E0.1227
G1 X-35.785 Y14.894 E0.1227
G1 X-35.200 Y13.312 E0.1227
G1 X-34.457 Y11.798 E0.1227
G1 X-33.565 Y10.367 E0.1227
G1 X-32.533 Y9.033 E0.1227
G1 X-31.371 Y7.811 E0.1227
G1 X-30.148 Y6.761 E0.1172
G1 X-28.705 Y5.748 E0.1283
G1 X-27.232 Y4.930 E0.1226
G1 X-25.682 Y4.265 E0.1227
G1 X-24.073 Y3.760 E0.1227
G1 X-22.421 Y3.421 E0.1227
G1 X-20.743 Y3.250 E0.1227
G1 X-19.057 Y3.250 E0.1227
G1 X-17.379 Y3.421 E0.1227
G1 X-15.727 Y3.760 E0.1227
G1 X-14.118 Y4.265 E0.1227
G1 X-12.568 Y4.930 E0.1227
G1 X-11.093 Y5.748 E0.1227
G1 X-9.709 Y6.712 E0.1227
G1 X-8.429 Y7.811 E0.1227
G1 X-7.267 Y9.033 E0.1227
G1 X-6.235 Y10.367 E0.1227
G1 X-5.343 Y11.798 E0.1227
G1 X-4.600 Y13.312 E0.1227
G1 X-4.015 Y14.894 E0.1227
G1 X-3.592 Y16.526 E0.1227
G1 X-3.336 Y18.193 E0.1227
; feature outer perimeter
G1 X-2.838 Y18.143 F9000
G1 X-2.750 Y19.878 E0.1264 F1200
G1 X-2.838 Y21.613 E0.1264
G1 X-3.101 Y23.330 E0.1264
G1 X-3.537 Y25.012 E0.1264
G1 X-4.140 Y26.641 E0.1264
G1 X-4.905 Y28.200 E0.1264
G1 X-5.824 Y29.675 E0.1264
G1 X-6.888 Y31.048 E0.1264
G1 X-8.084 Y32.308 E0.1264
G1 X-9.403 Y33.439 E0.1264
G1 X-10.828 Y34.432 E0.1264
G1 X-12.347 Y35.275 E0.1264
G1 X-13.944 Y35.960 E0.1264
G1 X-15.601 Y36.480 E0.1264
G1 X-17.303 Y36.830 E0.1264
G1 X-19.031 Y37.005 E0.1264
G1 X-20.769 Y37.005 E0.1264
G1 X-22.497 Y36.830 E0.1264
G1 X-24.199 Y36.480 E0.1264
G1 X-25.856 Y35.960 E0.1264
G1 X-27.453 Y35.275 E0.1264
G1 X-28.972 Y34.432 E0.1264
G1 X-30.397 Y33.439 E0.1264
G1 X-31.716 Y32.308 E0.1264
G1 X-32.912 Y31.048 E0.1264
G1 X-33.976 Y29.675 E0.1264
G1 X-34.895 Y28.200 E0.1264
G1 X-35.660 Y26.641 E0.1264
G1 X-36.263 Y25.012 E0.1264
G1 X-36.699 Y23.330 E0.1264
G1 X-36.962 Y21.613 E0.1264
G1 X-37.050 Y19.878 E0.1264
G1 X-36.962 Y18.143 E0.1264
G1 X-36.699 Y16.425 E0.1264
G1 X-36.263 Y14.744 E0.1264
G1 X-35.660 Y13.115 E0.1264
G1 X-34.895 Y11.555 E0.1264
G1 X-33.976 Y10.081 E0.1264
G1 X-32.912 Y8.707 E0.1264
G1 X-31.716 Y7.448 E0.1264
G1 X-30.456 Y6.366 E0.1208
G1 X-28.971 Y5.323 E0.1320
G1 X-27.453 Y4.481 E0.1264
G1 X-25.856 Y3.796 E0.1264
G1 X-24.199 Y3.275 E0.1264
G1 X-22.497 Y2.926 E0.1264
G1 X-20.769 Y2.750 E0.1264
G1 X-19.031 Y2.750 E0.1264
G1 X-17.303 Y2.926 E0.1264
G1 X-15.601 Y3.275 E0.1264
G1 X-13.944 Y3.795 E0.1264
G1 X-12.347 Y4.481 E0.1264
G1 X-10.828 Y5.324 E0.1264
G1 X-9.403 Y6.316 E0.1264
G1 X-8.084 Y7.448 E0.1264
G1 X-6.888 Y8.707 E0.1264
G1 X-5.824 Y10.081 E0.1264
G1 X-4.905 Y11.555 E0.1264
G1 X-4.140 Y13.115 E0.1264
G1 X-3.537 Y14.744 E0.1264
G1 X-3.101 Y16.425 E0.1264
G1 X-2.838 Y18.143 E0.1264
G1 E-1.9000 F1200
; feature solid layer
G1 Z0.850 F1200
G1 X-9.867 Y7.104 F9000
G1 Z0.350 F1200
G1 E1.9000 F1200
G1 X-7.210 Y9.760 E0.2734 F2400
G1 X-6.564 Y10.595 E0.0768
G1 X-5.706 Y11.972 E0.1180
G1 X-11.944 Y5.734 E0.6418
G1 X-12.744 Y5.290 E0.0666
G1 X-13.359 Y5.026 E0.0487
G1 X-5.020 Y13.365 E0.8580
G1 X-4.968 Y13.470 E0.0085
G1 X-4.584 Y14.508 E0.0805
G1 X-14.540 Y4.552 E1.0244
G1 X-15.571 Y4.228 E0.0786
G1 X-4.261 Y15.538 E1.1637
G1 X-4.014 Y16.492 E0.0717
G1 X-16.496 Y4.010 E1.2843
G1 X-17.386 Y3.828 E0.0661
G1 X-3.872 Y17.342 E1.3905
G1 X-3.744 Y18.177 E0.0615
G1 X-18.179 Y3.741 E1.4853
G1 X-18.966 Y3.661 E0.0576
G1 X-3.700 Y18.928 E1.5708
G1 X-3.662 Y19.673 E0.0543
G1 X-19.685 Y3.650 E1.6486
G1 X-20.392 Y3.650 E0.0514
G1 X-3.676 Y20.365 E1.7199
G1 X-3.710 Y21.038 E0.0490
G1 X-21.064 Y3.685 E1.7856
G1 X-21.706 Y3.750 E0.0469
G1 X-3.761 Y21.694 E1.8464
G1 X-3.855 Y22.308 E0.0451
G1 X-22.348 Y3.815 E1.9027
G1 X-22.360 Y3.817 E0.0009
G1 X-22.935 Y3.935 E0.0427
G1 X-3.949 Y22.921 E1.9535
G1 X-3.984 Y23.148 E0.0168
G1 X-4.076 Y23.502 E0.0265
G1 X-23.522 Y4.055 E2.0009
G1 X-23.973 Y4.148 E0.0335
G1 X-24.097 Y4.187 E0.0095
G1 X-4.221 Y24.063 E2.0451
G1 X-4.366 Y24.625 E0.0422
G1 X-24.636 Y4.356 E2.0856
G1 X-25.174 Y4.525 E0.0410
G1 X-4.548 Y25.150 E2.1223
G1 X-4.739 Y25.666 E0.0400
G1 X-25.698 Y4.707 E2.1566
G1 X-26.193 Y4.920 E0.0392
G1 X-4.930 Y26.182 E2.1878
G1 X-4.968 Y26.285 E0.0080
G1 X-5.155 Y26.665 E0.0308
G1 X-26.688 Y5.132 E2.2156
G1 X-27.056 Y5.290 E0.0291
G1 X-27.172 Y5.354 E0.0097
G1 X-5.387 Y27.140 E2.2415
G1 X-5.620 Y27.614 E0.0384
G1 X-27.627 Y5.607 E2.2644
G1 X-28.082 Y5.859 E0.0378
G1 X-5.879 Y28.062 E2.2845
G1 X-6.151 Y28.497 E0.0373
G1 X-28.533 Y6.115 E2.3030
G1 X-28.948 Y6.407 E0.0369
G1 X-6.422 Y28.933 E2.3178
G1 X-6.564 Y29.160 E0.0195
G1 X-6.712 Y29.351 E0.0176
G1 X-29.364 Y6.699 E2.3307
G1 X-29.779 Y6.991 E0.0369
G1 X-7.020 Y29.749 E2.3417
G1 X-7.329 Y30.148 E0.0367
G1 X-30.170 Y7.307 E2.3502
G1 X-30.550 Y7.633 E0.0365
G1 X-7.645 Y30.539 E2.3568
G1 X-7.989 Y30.901 E0.0364
G1 X-30.931 Y7.960 E2.3605
G1 X-31.095 Y8.101 E0.0157
G1 X-31.291 Y8.307 E0.0207
G1 X-8.334 Y31.264 E2.3621
G1 X-8.679 Y31.626 E0.0364
G1 X-31.635 Y8.670 E2.3621
G1 X-31.980 Y9.032 E0.0364
G1 X-9.056 Y31.956 E2.3587
G1 X-9.437 Y32.282 E0.0365
G1 X-32.315 Y9.405 E2.3540
G1 X-32.623 Y9.803 E0.0367
G1 X-9.817 Y32.609 E2.3466
G1 X-9.954 Y32.727 E0.0131
G1 X-10.221 Y32.912 E0.0237
G1 X-32.932 Y10.202 E2.3368
G1 X-33.236 Y10.595 E0.0362
G1 X-33.240 Y10.601 E0.0005
G1 X-10.638 Y33.203 E2.3256
G1 X-11.055 Y33.493 E0.0370
G1 X-33.511 Y11.037 E2.3106
G1 X-33.783 Y11.472 E0.0373
G1 X-11.487 Y33.768 E2.2941
G1 X-11.942 Y34.020 E0.0378
G1 X-34.054 Y11.908 E2.2752
G1 X-34.107 Y11.992 E0.0072
G1 X-34.294 Y12.375 E0.0310
G1 X-12.396 Y34.273 E2.2532
G1 X-12.744 Y34.466 E0.0289
G1 X-12.861 Y34.516 E0.0092
G1 X-34.527 Y12.849 E2.2293
G1 X-34.760 Y13.323 E0.0384
G1 X-13.355 Y34.728 E2.2024
G1 X-13.850 Y34.940 E0.0392
G1 X-34.964 Y13.827 E2.1725
G1 X-35.155 Y14.343 E0.0400
G1 X-14.353 Y35.145 E2.1404
G1 X-14.891 Y35.314 E0.0410
G1 X-35.346 Y14.859 E2.1047
G1 X-35.403 Y15.013 E0.0120
G1 X-35.505 Y15.407 E0.0295
G1 X-15.429 Y35.483 E2.0657
G1 X-15.827 Y35.607 E0.0304
G1 X-15.980 Y35.639 E0.0113
G1 X-35.651 Y15.968 E2.0240
G1 X-35.796 Y16.530 E0.0422
G1 X-16.566 Y35.759 E1.9786
G1 X-17.153 Y35.880 E0.0436
G1 X-35.897 Y17.136 E1.9286
G1 X-35.991 Y17.749 E0.0451
G1 X-17.768 Y35.972 E1.8750
G1 X-18.410 Y36.037 E0.0469
G1 X-36.072 Y18.375 E1.8174
G1 X-36.106 Y19.048 E0.0490
G1 X-19.052 Y36.103 E1.7548
G1 X-19.077 Y36.105 E0.0019
G1 X-19.756 Y36.105 E0.0494
G1 X-36.141 Y19.721 E1.6859
G1 X-36.149 Y19.878 E0.0114
G1 X-36.120 Y20.449 E0.0416
G1 X-20.463 Y36.105 E1.6109
G1 X-20.723 Y36.105 E0.0189
G1 X-21.221 Y36.055 E0.0364
G1 X-36.082 Y21.194 E1.5291
G1 X-36.065 Y21.521 E0.0239
G1 X-35.993 Y21.989 E0.0344
G1 X-22.008 Y35.975 E1.4390
G1 X-22.360 Y35.939 E0.0258
G1 X-22.852 Y35.838 E0.0365
G1 X-35.866 Y22.824 E1.3390
G1 X-35.816 Y23.148 E0.0239
G1 X-35.665 Y23.732 E0.0439
G1 X-23.742 Y35.655 E1.2268
G1 X-23.973 Y35.607 E0.0171
G1 X-24.736 Y35.368 E0.0582
G1 X-35.418 Y24.686 E1.0991
G1 X-35.403 Y24.742 E0.0042
G1 X-35.012 Y25.800 E0.0821
G1 X-25.812 Y35.000 E0.9466
G1 X-27.050 Y34.468 E0.0981
G1 X-34.445 Y27.073 E0.7609
G1 X-34.107 Y27.763 E0.0559
G1 X-33.519 Y28.707 E0.0809
G1 X-28.704 Y33.521 E0.4954
G1 E-1.9000 F1200
; feature inner perimeter
G1 Z0.850 F1200
G1 X-43.136 Y18.193 F9000
G1 Z0.350 F1200
G1 E1.9000 F1200
G1 X-43.051 Y19.878 E0.1227 F1800
G1 X-43.136 Y21.562 E0.1227
G1 X-43.392 Y23.229 E0.1227
G1 X-43.815 Y24.862 E0.1227
G1 X-44.400 Y26.443 E0.1227
G1 X-45.143 Y27.957 E0.1227
G1 X-46.035 Y29.389 E0.1227
G1 X-47.067 Y30.722 E0.1227
G1 X-48.229 Y31.945 E0.1227
G1 X-49.509 Y33.043 E0.1227
G1 X-50.893 Y34.007 E0.1227
G1 X-52.368 Y34.825 E0.1227
G1 X-53.918 Y35.490 E0.1227
G1 X-55.527 Y35.995 E0.1227
G1 X-57.179 Y36.335 E0.1227
G1 X-58.857 Y36.505 E0.1227
G1 X-60.543 Y36.505 E0.1227
G1 X-62.221 Y36.335 E0.1227
