; G-Code generated by Simplify3D(R) Version 4.1.2
; Aug 3, 2020 at 12:01:46 PM
; Settings Summary
;   processName,Process1
;   applyToModels,Diffuser,Diffuser(2),Diffuser(3),Diffuser(2)(2),Diffuser(4),Diffuser(2)(3),Diffuser(3)(2),Diffuser(2)(2)(2)
;   profileName,MakerBot Replicator 2 HBP (modified)
;   profileVersion,2020-04-21 14:45:34
;   baseProfile,MakerBot Replicator 2(2)
;   printMaterial,PLA
;   printQuality,Medium
;   printExtruders,
;   extruderName,Primary Extruder
;   extruderToolheadNumber,0
;   extruderDiameter,0.4
;   extruderAutoWidth,0
;   extruderWidth,0.4
;   extrusionMultiplier,1
;   extruderUseRetract,1
;   extruderRetractionDistance,1.9
;   extruderExtraRestartDistance,0
;   extruderRetractionZLift,0.5
;   extruderRetractionSpeed,1200
;   extruderUseCoasting,0
;   extruderCoastingDistance,0.2
;   extruderUseWipe,0
;   extruderWipeDistance,5
;   primaryExtruder,0
;   layerHeight,0.2
;   topSolidLayers,4
;   bottomSolidLayers,3
;   perimeterOutlines,2
;   printPerimetersInsideOut,1
;   startPointOption,3
;   startPointOriginX,140
;   startPointOriginY,0
;   sequentialIslands,0
;   spiralVaseMode,0
;   firstLayerHeightPercentage,100
;   firstLayerWidthPercentage,100
;   firstLayerUnderspeed,0.5
;   useRaft,0
;   raftExtruder,0
;   raftTopLayers,2
;   raftBaseLayers,1
;   raftOffset,1
;   raftSeparationDistance,0.14
;   raftTopInfill,90
;   aboveRaftSpeedMultiplier,0.3
;   useSkirt,0
;   skirtExtruder,0
;   skirtLayers,1
;   skirtOutlines,5
;   skirtOffset,0
;   usePrimePillar,0
;   primePillarExtruder,999
;   primePillarWidth,12
;   primePillarLocation,7
;   primePillarSpeedMultiplier,1
;   useOozeShield,0
;   oozeShieldExtruder,999
;   oozeShieldOffset,2
;   oozeShieldOutlines,1
;   oozeShieldSidewallShape,1
;   oozeShieldSidewallAngle,30
;   oozeShieldSpeedMultiplier,1
;   infillExtruder,0
;   internalInfillPattern,Rectilinear
;   externalInfillPattern,Rectilinear
;   infillPercentage,100
;   outlineOverlapPercentage,20
;   infillExtrusionWidthPercentage,100
;   minInfillLength,5
;   infillLayerInterval,1
;   internalInfillAngles,45,-45
;   overlapInternalInfillAngles,0
;   externalInfillAngles,45,-45
;   generateSupport,0
;   supportExtruder,0
;   supportInfillPercentage,30
;   supportExtraInflation,0.6
;   supportBaseLayers,0
;   denseSupportExtruder,0
;   denseSupportLayers,2
;   denseSupportInfillPercentage,70
;   supportLayerInterval,1
;   supportHorizontalPartOffset,0.3
;   supportUpperSeparationLayers,1
;   supportLowerSeparationLayers,1
;   supportType,0
;   supportGridSpacing,99
;   maxOverhangAngle,45
;   supportAngles,0
;   temperatureName,Primary Extruder,Heated Build Platform
;   temperatureNumber,0,0
;   temperatureSetpointCount,1,1
;   temperatureSetpointLayers,1,1
;   temperatureSetpointTemperatures,210,65
;   temperatureStabilizeAtStartup,1,1
;   temperatureHeatedBed,0,1
;   fanLayers,1,2
;   fanSpeeds,0,100
;   blipFanToFullPower,1
;   adjustSpeedForCooling,1
;   minSpeedLayerTime,15
;   minCoolingSpeedSlowdown,20
;   increaseFanForCooling,1
;   minFanLayerTime,45
;   maxCoolingFanSpeed,100
;   increaseFanForBridging,1
;   bridgingFanSpeed,100
;   use5D,1
;   relativeEdistances,1
;   allowEaxisZeroing,0
;   independentExtruderAxes,1
;   includeM10123,0
;   stickySupport,1
;   applyToolheadOffsets,0
;   gcodeXoffset,0
;   gcodeYoffset,0
;   gcodeZoffset,0
;   overrideMachineDefinition,1
;   machineTypeOverride,0
;   strokeXoverride,280
;   strokeYoverride,150
;   strokeZoverride,150
;   originOffsetXoverride,140
;   originOffsetYoverride,75
;   originOffsetZoverride,0
;   homeXdirOverride,1
;   homeYdirOverride,1
;   homeZdirOverride,-1
;   flipXoverride,1
;   flipYoverride,-1
;   flipZoverride,1
;   toolheadOffsets,0,0|0,0|0,0|0,0|0,0|0,0
;   overrideFirmwareConfiguration,1
;   firmwareTypeOverride,MakerBot/Sailfish Firmware
;   GPXconfigOverride,r2h
;   baudRateOverride,115200
;   overridePrinterModels,1
;   printerModelsOverride,MakerBot_Replicator2.stl
;   startingGcode,; **** Replicator 2 start.gcode ****,M73 P0 ; enable build progress,G162 X Y F3000 ; home XY maximum,G161 Z F1200 ; home Z minimum,G92 Z-5 ; set Z to -5,G1 Z0 ; move Z to 0,G28 ; better homing homie,M132 X Y Z A B ; recall home offsets,G1 X-145 Y-75 Z30 F9000 ; move to wait position off table,G130 X20 Y20 Z20 A20 B20 ; lower stepper Vrefs while heating,M126 S[fan_speed_pwm],M140 S[bed0_temperature] T0,M134 T0 ; stabilize bed temperature,M104 S[extruder0_temperature] T0,M133 T0 ; stabilize extruder temperature,G130 X127 Y127 Z40 A127 B127 ; default stepper Vrefs,G92 A0 ; zero extruder,G1 Z0.4 ; position nozzle,G1 E25 F300 ; purge nozzle,G1 X-140 Y-70 Z0.15 F1200 ; slow wipe,G1 X-135 Y-65 Z0.5 F1200 ; lift,G92 A0 ; zero extruder,M73 P1 ;@body (notify GPX body has started),; **** end of start.gcode ****
;   layerChangeGcode,
;   retractionGcode,
;   toolChangeGcode,
;   endingGcode,; **** Replicator 2 end.gcode ****,M73 P100 ; end build progress,G1 Z155 F1000 ; send Z axis to bottom of machine,M104 S0 T0 ; cool down extruder,M140 S0 T0 ; cool down HBP,M127 ; stop blower fan,G162 X Y F3000 ; home XY maximum,M18 ; disable stepper,M0 ; stop codes,M72 P1 ; play Ta-Da song,; **** end of end.gcode ****
;   exportFileFormat,gcode
;   celebration,0
;   celebrationSong,Random Song
;   postProcessing,
;   defaultSpeed,4800
;   outlineUnderspeed,0.5
;   solidInfillUnderspeed,1
;   supportUnderspeed,1
;   rapidXYspeed,9000
;   rapidZspeed,1200
;   minBridgingArea,50
;   bridgingExtraInflation,0
;   bridgingExtrusionMultiplier,1
;   bridgingSpeedMultiplier,0.8
;   useFixedBridgingAngle,0
;   fixedBridgingAngle,0
;   applyBridgingToPerimeters,0
;   filamentDiameters,1.75|1.75|1.75|1.75|1.75|1.75
;   filamentPricesPerKg,46|46|46|46|46|46
;   filamentDensities,1.25|1.25|1.25|1.25|1.25|1.25
;   useMinPrintHeight,0
;   minPrintHeight,0
;   useMaxPrintHeight,0
;   maxPrintHeight,4.84
;   useDiaphragm,0
;   diaphragmLayerInterval,20
;   robustSlicing,1
;   mergeAllIntoSolid,0
;   onlyRetractWhenCrossingOutline,0
;   retractBetweenLayers,0
;   useRetractionMinTravel,1
;   retractionMinTravel,7
;   retractWhileWiping,1
;   onlyWipeOutlines,1
;   avoidCrossingOutline,0
;   maxMovementDetourFactor,3
;   toolChangeRetractionDistance,12
;   toolChangeExtraRestartDistance,-0.5
;   toolChangeRetractionSpeed,600
;   externalThinWallType,0
;   internalThinWallType,0
;   thinWallAllowedOverlapPercentage,10
;   singleExtrusionMinLength,1
;   singleExtrusionMinPrintingWidthPercentage,50
;   singleExtrusionMaxPrintingWidthPercentage,200
;   singleExtrusionEndpointExtension,0.2
;   horizontalSizeCompensation,0
G90
M83
; **** Replicator 2 start.gcode ****
M73 P0 ; enable build progress
G162 X Y F3000 ; home XY maximum
G161 Z F1200 ; home Z minimum
G92 Z-5 ; set Z to -5
G1 Z0 ; move Z to 0
G28 ; better homing homie
M132 X Y Z A B ; recall home offsets
G1 X-145 Y-75 Z30 F9000 ; move to wait position off table
G130 X20 Y20 Z20 A20 B20 ; lower stepper Vrefs while heating
M127
M140 S65 T0
M134 T0 ; stabilize bed temperature
M104 S210 T0
M133 T0 ; stabilize extruder temperature
G130 X127 Y127 Z40 A127 B127 ; default stepper Vrefs
G92 A0 ; zero extruder
G1 Z0.4 ; position nozzle
G1 E25 F300 ; purge nozzle
G1 X-140 Y-70 Z0.15 F1200 ; slow wipe
G1 X-135 Y-65 Z0.5 F1200 ; lift
G92 A0 ; zero extruder
M73 P1 ;@body (notify GPX body has started)
; **** end of start.gcode ****
; process Process1
; layer 1, Z = 0.200
M135 T0
G1 E-1.9000 F1200
; feature inner perimeter
; tool H0.200 W0.400
G1 Z0.500 F1200
G1 X36.355 Y16.496 F9000
G1 Z0.200 F1200
G1 E1.9000 F1200
G1 X36.613 Y18.178 E0.0566 F1800
G1 X36.699 Y19.878 E0.0566
G1 X36.613 Y21.577 E0.0566
G1 X36.355 Y23.259 E0.0566
G1 X35.929 Y24.907 E0.0566
G1 X35.338 Y26.503 E0.0566
G1 X34.588 Y28.030 E0.0566
G1 X33.688 Y29.475 E0.0566
G1 X32.647 Y30.820 E0.0566
G1 X31.474 Y32.054 E0.0566
G1 X30.183 Y33.162 E0.0566
G1 X28.786 Y34.134 E0.0566
G1 X27.298 Y34.960 E0.0566
G1 X25.735 Y35.631 E0.0566
G1 X24.111 Y36.141 E0.0566
G1 X22.444 Y36.483 E0.0566
G1 X20.751 Y36.655 E0.0566
G1 X19.049 Y36.655 E0.0566
G1 X17.356 Y36.483 E0.0566
G1 X15.689 Y36.141 E0.0566
G1 X14.065 Y35.631 E0.0566
G1 X12.502 Y34.960 E0.0566
G1 X11.014 Y34.134 E0.0566
G1 X9.617 Y33.162 E0.0566
G1 X8.326 Y32.054 E0.0566
G1 X7.153 Y30.820 E0.0566
G1 X6.112 Y29.475 E0.0566
G1 X5.212 Y28.030 E0.0566
G1 X4.462 Y26.503 E0.0566
G1 X3.871 Y24.907 E0.0566
G1 X3.445 Y23.259 E0.0566
G1 X3.187 Y21.577 E0.0566
G1 X3.101 Y19.878 E0.0566
G1 X3.187 Y18.178 E0.0566
G1 X3.445 Y16.496 E0.0566
G1 X3.871 Y14.849 E0.0566
G1 X4.462 Y13.253 E0.0566
G1 X5.212 Y11.725 E0.0566
G1 X6.112 Y10.281 E0.0566
G1 X7.153 Y8.935 E0.0566
G1 X8.326 Y7.702 E0.0566
G1 X9.584 Y6.621 E0.0552
G1 X11.014 Y5.621 E0.0581
G1 X12.502 Y4.795 E0.0566
G1 X14.065 Y4.124 E0.0566
G1 X15.689 Y3.615 E0.0566
G1 X17.356 Y3.272 E0.0566
G1 X19.049 Y3.100 E0.0566
G1 X20.751 Y3.100 E0.0566
G1 X22.444 Y3.272 E0.0566
G1 X24.111 Y3.615 E0.0566
G1 X25.735 Y4.124 E0.0566
G1 X27.298 Y4.795 E0.0566
G1 X28.786 Y5.621 E0.0566
G1 X30.183 Y6.593 E0.0566
G1 X31.474 Y7.702 E0.0566
G1 X32.647 Y8.935 E0.0566
G1 X33.688 Y10.281 E0.0566
G1 X34.588 Y11.725 E0.0566
G1 X35.338 Y13.253 E0.0566
G1 X35.929 Y14.849 E0.0566
G1 X36.355 Y16.496 E0.0566
; feature outer perimeter
G1 X36.748 Y16.415 F9000
G1 X37.011 Y18.138 E0.0579 F1200
G1 X37.100 Y19.878 E0.0579
G1 X37.011 Y21.618 E0.0580
G1 X36.748 Y23.340 E0.0579
G1 X36.311 Y25.027 E0.0580
G1 X35.706 Y26.660 E0.0579
G1 X34.939 Y28.225 E0.0579
G1 X34.017 Y29.703 E0.0580
G1 X32.950 Y31.081 E0.0579
G1 X31.750 Y32.344 E0.0580
G1 X30.428 Y33.479 E0.0579
G1 X28.998 Y34.474 E0.0579
G1 X27.475 Y35.320 E0.0580
G1 X25.874 Y36.007 E0.0579
G1 X24.211 Y36.528 E0.0579
G1 X22.504 Y36.879 E0.0580
G1 X20.771 Y37.055 E0.0579
G1 X19.029 Y37.055 E0.0580
G1 X17.296 Y36.879 E0.0579
G1 X15.589 Y36.528 E0.0580
G1 X13.926 Y36.007 E0.0579
G1 X12.325 Y35.320 E0.0579
G1 X10.802 Y34.474 E0.0580
G1 X9.372 Y33.479 E0.0579
G1 X8.050 Y32.344 E0.0580
G1 X6.850 Y31.081 E0.0579
G1 X5.783 Y29.703 E0.0580
G1 X4.861 Y28.225 E0.0579
G1 X4.094 Y26.660 E0.0579
G1 X3.489 Y25.027 E0.0579
G1 X3.052 Y23.340 E0.0580
G1 X2.788 Y21.618 E0.0579
G1 X2.700 Y19.878 E0.0580
G1 X2.788 Y18.138 E0.0579
G1 X3.052 Y16.415 E0.0579
G1 X3.489 Y14.729 E0.0580
G1 X4.094 Y13.095 E0.0579
G1 X4.861 Y11.531 E0.0579
G1 X5.783 Y10.052 E0.0579
G1 X6.850 Y8.674 E0.0580
G1 X8.050 Y7.411 E0.0579
G1 X9.339 Y6.305 E0.0565
G1 X10.802 Y5.281 E0.0594
G1 X12.325 Y4.436 E0.0579
G1 X13.926 Y3.749 E0.0579
G1 X15.589 Y3.227 E0.0579
G1 X17.296 Y2.876 E0.0580
G1 X19.029 Y2.700 E0.0579
G1 X20.771 Y2.700 E0.0580
G1 X22.504 Y2.876 E0.0579
G1 X24.211 Y3.227 E0.0580
G1 X25.874 Y3.749 E0.0579
G1 X27.475 Y4.436 E0.0579
G1 X28.998 Y5.281 E0.0580
G1 X30.428 Y6.277 E0.0579
G1 X31.750 Y7.411 E0.0579
G1 X32.950 Y8.674 E0.0580
G1 X34.017 Y10.052 E0.0579
G1 X34.939 Y11.531 E0.0580
G1 X35.706 Y13.095 E0.0579
G1 X36.311 Y14.729 E0.0579
G1 X36.748 Y16.415 E0.0580
G1 E-1.9000 F1200
; feature solid layer
G1 Z0.700 F1200
G1 X30.361 Y7.168 F9000
G1 Z0.200 F1200
G1 E1.9000 F1200
G1 X32.631 Y9.438 E0.1068 F2400
G1 X33.425 Y10.464 E0.0431
G1 X33.978 Y11.350 E0.0347
G1 X28.400 Y5.773 E0.2623
G1 X27.157 Y5.083 E0.0473
G1 X27.135 Y5.073 E0.0008
G1 X34.661 Y12.599 E0.3540
G1 X35.043 Y13.379 E0.0289
G1 X35.142 Y13.646 E0.0095
G1 X26.144 Y4.648 E0.4232
G1 X25.623 Y4.425 E0.0189
G1 X25.232 Y4.302 E0.0136
G1 X35.475 Y14.545 E0.4818
G1 X35.623 Y14.944 E0.0142
G1 X35.733 Y15.368 E0.0146
G1 X24.408 Y4.043 E0.5327
G1 X24.030 Y3.925 E0.0132
G1 X23.645 Y3.846 E0.0131
G1 X35.930 Y16.131 E0.5779
G1 X36.041 Y16.561 E0.0147
G1 X36.086 Y16.853 E0.0098
G1 X22.933 Y3.699 E0.6187
G1 X22.395 Y3.589 E0.0182
G1 X22.241 Y3.573 E0.0052
G1 X36.189 Y17.521 E0.6561
G1 X36.291 Y18.189 E0.0225
G1 X21.611 Y3.509 E0.6905
G1 X20.981 Y3.445 E0.0211
G1 X36.324 Y18.787 E0.7216
G1 X36.354 Y19.383 E0.0198
G1 X20.391 Y3.420 E0.7509
G1 X19.825 Y3.420 E0.0188
G1 X36.374 Y19.969 E0.7784
G1 X36.347 Y20.508 E0.0179
G1 X19.259 Y3.420 E0.8038
G1 X19.065 Y3.420 E0.0064
G1 X18.728 Y3.454 E0.0113
G1 X36.320 Y21.046 E0.8275
G1 X36.294 Y21.545 E0.0166
G1 X36.289 Y21.581 E0.0012
G1 X18.214 Y3.507 E0.8502
G1 X17.701 Y3.559 E0.0172
G1 X36.214 Y22.071 E0.8708
G1 X36.138 Y22.562 E0.0165
G1 X17.206 Y3.630 E0.8905
G1 X16.737 Y3.726 E0.0159
G1 X36.063 Y23.053 E0.9091
G1 X36.041 Y23.195 E0.0048
G1 X35.959 Y23.514 E0.0110
G1 X16.268 Y3.823 E0.9262
G1 X15.798 Y3.919 E0.0159
G1 X35.843 Y23.963 E0.9428
G1 X35.726 Y24.412 E0.0154
G1 X15.365 Y4.052 E0.9577
G1 X14.935 Y4.187 E0.0150
G1 X35.606 Y24.858 E0.9723
G1 X35.453 Y25.270 E0.0146
G1 X14.504 Y4.322 E0.9854
G1 X14.177 Y4.425 E0.0114
G1 X14.082 Y4.465 E0.0034
G1 X35.300 Y25.683 E0.9980
G1 X35.147 Y26.096 E0.0146
G1 X13.686 Y4.635 E1.0095
G1 X13.290 Y4.805 E0.0143
G1 X34.983 Y26.498 E1.0204
G1 X34.797 Y26.878 E0.0141
G1 X12.894 Y4.975 E1.0302
G1 X12.643 Y5.083 E0.0091
G1 X12.510 Y5.156 E0.0050
G1 X34.611 Y27.257 E1.0396
G1 X34.425 Y27.637 E0.0141
G1 X12.147 Y5.358 E1.0479
G1 X11.783 Y5.560 E0.0138
G1 X34.227 Y28.005 E1.0557
G1 X34.010 Y28.353 E0.0137
G1 X11.419 Y5.762 E1.0626
G1 X11.184 Y5.892 E0.0089
G1 X11.066 Y5.975 E0.0048
G1 X33.793 Y28.702 E1.0690
G1 X33.576 Y29.050 E0.0137
G1 X10.733 Y6.208 E1.0744
G1 X10.401 Y6.441 E0.0135
G1 X33.349 Y29.390 E1.0794
G1 X33.102 Y29.708 E0.0134
G1 X10.068 Y6.674 E1.0835
G1 X9.781 Y6.875 E0.0117
G1 X9.739 Y6.910 E0.0018
G1 X32.856 Y30.027 E1.0873
G1 X32.609 Y30.346 E0.0134
G1 X9.434 Y7.172 E1.0901
G1 X9.130 Y7.433 E0.0133
G1 X32.357 Y30.660 E1.0925
G1 X32.082 Y30.950 E0.0133
G1 X8.826 Y7.694 E1.0939
G1 X8.547 Y7.934 E0.0122
G1 X8.524 Y7.958 E0.0011
G1 X31.806 Y31.240 E1.0951
G1 X31.530 Y31.530 E0.0133
G1 X8.248 Y8.248 E1.0951
G1 X7.972 Y8.538 E0.0133
G1 X31.253 Y31.821 E1.0952
G1 X30.950 Y32.082 E0.0133
G1 X7.697 Y8.828 E1.0938
G1 X7.421 Y9.118 E0.0133
G1 X30.646 Y32.343 E1.0924
G1 X30.341 Y32.604 E0.0133
G1 X7.172 Y9.434 E1.0898
G1 X6.925 Y9.753 E0.0134
G1 X30.037 Y32.866 E1.0871
G1 X29.987 Y32.909 E0.0022
G1 X29.708 Y33.102 E0.0113
G1 X6.678 Y10.072 E1.0833
G1 X6.431 Y10.391 E0.0134
G1 X29.375 Y33.335 E1.0792
G1 X29.041 Y33.567 E0.0135
G1 X6.207 Y10.733 E1.0740
G1 X5.990 Y11.081 E0.0137
G1 X28.708 Y33.799 E1.0686
G1 X28.617 Y33.862 E0.0037
G1 X28.352 Y34.009 E0.0101
G1 X5.773 Y11.430 E1.0621
G1 X5.556 Y11.778 E0.0137
G1 X27.988 Y34.211 E1.0552
G1 X27.625 Y34.413 E0.0138
G1 X5.360 Y12.149 E1.0472
G1 X5.174 Y12.528 E0.0141
G1 X27.261 Y34.615 E1.0389
G1 X27.157 Y34.672 E0.0039
G1 X26.874 Y34.794 E0.0102
G1 X4.988 Y12.908 E1.0295
G1 X4.802 Y13.287 E0.0141
G1 X26.478 Y34.964 E1.0196
G1 X26.083 Y35.134 E0.0143
G1 X4.641 Y13.692 E1.0086
G1 X4.488 Y14.105 E0.0146
G1 X25.687 Y35.303 E0.9971
G1 X25.623 Y35.331 E0.0023
G1 X25.262 Y35.444 E0.0126
G1 X4.335 Y14.517 E0.9843
G1 X4.182 Y14.930 E0.0146
G1 X24.831 Y35.579 E0.9713
G1 X24.401 Y35.714 E0.0150
G1 X4.065 Y15.378 E0.9565
G1 X3.948 Y15.828 E0.0154
G1 X23.965 Y35.844 E0.9415
G1 X23.495 Y35.940 E0.0159
G1 X3.832 Y16.277 E0.9249
G1 X3.758 Y16.561 E0.0097
G1 X3.731 Y16.742 E0.0061
G1 X23.026 Y36.037 E0.9076
G1 X22.557 Y36.133 E0.0159
G1 X3.656 Y17.232 E0.8891
G1 X3.580 Y17.723 E0.0165
G1 X22.059 Y36.201 E0.8692
G1 X21.545 Y36.253 E0.0172
G1 X3.506 Y18.213 E0.8485
G1 X3.478 Y18.752 E0.0179
G1 X21.032 Y36.305 E0.8257
G1 X20.735 Y36.335 E0.0099
G1 X20.496 Y36.335 E0.0079
G1 X3.451 Y19.290 E0.8018
G1 X3.424 Y19.829 E0.0179
G1 X19.930 Y36.335 E0.7764
G1 X19.365 Y36.335 E0.0188
G1 X3.449 Y20.419 E0.7486
G1 X3.479 Y21.015 E0.0198
G1 X18.769 Y36.305 E0.7192
G1 X18.139 Y36.241 E0.0211
G1 X3.517 Y21.619 E0.6878
G1 X3.619 Y22.287 E0.0225
G1 X17.510 Y36.177 E0.6533
G1 X17.405 Y36.166 E0.0035
G1 X16.811 Y36.044 E0.0202
G1 X3.722 Y22.955 E0.6157
G1 X3.758 Y23.195 E0.0081
G1 X3.885 Y23.684 E0.0168
G1 X16.099 Y35.898 E0.5745
G1 X15.770 Y35.830 E0.0112
G1 X15.327 Y35.692 E0.0154
G1 X4.083 Y24.447 E0.5289
G1 X4.177 Y24.811 E0.0125
G1 X4.351 Y25.282 E0.0167
G1 X14.503 Y35.433 E0.4775
G1 X14.177 Y35.331 E0.0114
G1 X13.577 Y35.074 E0.0217
G1 X4.684 Y26.180 E0.4183
G1 X4.757 Y26.376 E0.0070
G1 X5.182 Y27.244 E0.0322
