; G-Code generated by Simplify3D(R) Version 4.1.2
; Aug 3, 2020 at 4:28:39 PM
; Settings Summary
;   processName,Process1
;   applyToModels,Diffuser,Diffuser(2)
;   profileName,MakerBot Replicator 2 HBP (modified)
;   profileVersion,2020-04-21 14:45:34
;   baseProfile,MakerBot Replicator 2(2)
;   printMaterial,PLA
;   printQuality,Medium
;   printExtruders,
;   extruderName,Primary Extruder
;   extruderToolheadNumber,0
;   extruderDiameter,0.4
;   extruderAutoWidth,0
;   extruderWidth,0.5
;   extrusionMultiplier,1
;   extruderUseRetract,1
;   extruderRetractionDistance,1.9
;   extruderExtraRestartDistance,0
;   extruderRetractionZLift,0.5
;   extruderRetractionSpeed,1200
;   extruderUseCoasting,0
;   extruderCoastingDistance,0.2
;   extruderUseWipe,0
;   extruderWipeDistance,5
;   primaryExtruder,0
;   layerHeight,0.35
;   topSolidLayers,4
;   bottomSolidLayers,3
;   perimeterOutlines,2
;   printPerimetersInsideOut,1
;   startPointOption,3
;   startPointOriginX,140
;   startPointOriginY,0
;   sequentialIslands,0
;   spiralVaseMode,0
;   firstLayerHeightPercentage,100
;   firstLayerWidthPercentage,100
;   firstLayerUnderspeed,0.5
;   useRaft,0
;   raftExtruder,0
;   raftTopLayers,2
;   raftBaseLayers,1
;   raftOffset,1
;   raftSeparationDistance,0.14
;   raftTopInfill,90
;   aboveRaftSpeedMultiplier,0.3
;   useSkirt,0
;   skirtExtruder,0
;   skirtLayers,1
;   skirtOutlines,5
;   skirtOffset,0
;   usePrimePillar,0
;   primePillarExtruder,999
;   primePillarWidth,12
;   primePillarLocation,7
;   primePillarSpeedMultiplier,1
;   useOozeShield,0
;   oozeShieldExtruder,999
;   oozeShieldOffset,2
;   oozeShieldOutlines,1
;   oozeShieldSidewallShape,1
;   oozeShieldSidewallAngle,30
;   oozeShieldSpeedMultiplier,1
;   infillExtruder,0
;   internalInfillPattern,Rectilinear
;   externalInfillPattern,Rectilinear
;   infillPercentage,100
;   outlineOverlapPercentage,20
;   infillExtrusionWidthPercentage,100
;   minInfillLength,5
;   infillLayerInterval,1
;   internalInfillAngles,45,-45
;   overlapInternalInfillAngles,0
;   externalInfillAngles,45,-45
;   generateSupport,0
;   supportExtruder,0
;   supportInfillPercentage,30
;   supportExtraInflation,0.6
;   supportBaseLayers,0
;   denseSupportExtruder,0
;   denseSupportLayers,2
;   denseSupportInfillPercentage,70
;   supportLayerInterval,1
;   supportHorizontalPartOffset,0.3
;   supportUpperSeparationLayers,1
;   supportLowerSeparationLayers,1
;   supportType,0
;   supportGridSpacing,99
;   maxOverhangAngle,45
;   supportAngles,0
;   temperatureName,Primary Extruder,Heated Build Platform
;   temperatureNumber,0,0
;   temperatureSetpointCount,1,1
;   temperatureSetpointLayers,1,1
;   temperatureSetpointTemperatures,210,65
;   temperatureStabilizeAtStartup,1,1
;   temperatureHeatedBed,0,1
;   fanLayers,1,2
;   fanSpeeds,0,100
;   blipFanToFullPower,1
;   adjustSpeedForCooling,1
;   minSpeedLayerTime,15
;   minCoolingSpeedSlowdown,20
;   increaseFanForCooling,1
;   minFanLayerTime,45
;   maxCoolingFanSpeed,100
;   increaseFanForBridging,1
;   bridgingFanSpeed,100
;   use5D,1
;   relativeEdistances,1
;   allowEaxisZeroing,0
;   independentExtruderAxes,1
;   includeM10123,0
;   stickySupport,1
;   applyToolheadOffsets,0
;   gcodeXoffset,0
;   gcodeYoffset,0
;   gcodeZoffset,0
;   overrideMachineDefinition,1
;   machineTypeOverride,0
;   strokeXoverride,280
;   strokeYoverride,150
;   strokeZoverride,150
;   originOffsetXoverride,140
;   originOffsetYoverride,75
;   originOffsetZoverride,0
;   homeXdirOverride,1
;   homeYdirOverride,1
;   homeZdirOverride,-1
;   flipXoverride,1
;   flipYoverride,-1
;   flipZoverride,1
;   toolheadOffsets,0,0|0,0|0,0|0,0|0,0|0,0
;   overrideFirmwareConfiguration,1
;   firmwareTypeOverride,MakerBot/Sailfish Firmware
;   GPXconfigOverride,r2h
;   baudRateOverride,115200
;   overridePrinterModels,1
;   printerModelsOverride,MakerBot_Replicator2.stl
;   startingGcode,; **** Replicator 2 start.gcode ****,M73 P0 ; enable build progress,G162 X Y F3000 ; home XY maximum,G161 Z F1200 ; home Z minimum,G92 Z-5 ; set Z to -5,G1 Z0 ; move Z to 0,G28 ; better homing homie,M132 X Y Z A B ; recall home offsets,G1 X-145 Y-75 Z30 F9000 ; move to wait position off table,G130 X20 Y20 Z20 A20 B20 ; lower stepper Vrefs while heating,M126 S[fan_speed_pwm],M140 S[bed0_temperature] T0,M134 T0 ; stabilize bed temperature,M104 S[extruder0_temperature] T0,M133 T0 ; stabilize extruder temperature,G130 X127 Y127 Z40 A127 B127 ; default stepper Vrefs,G92 A0 ; zero extruder,G1 Z0.4 ; position nozzle,G1 E25 F300 ; purge nozzle,G1 X-140 Y-70 Z0.15 F1200 ; slow wipe,G1 X-135 Y-65 Z0.5 F1200 ; lift,G92 A0 ; zero extruder,M73 P1 ;@body (notify GPX body has started),; **** end of start.gcode ****
;   layerChangeGcode,
;   retractionGcode,
;   toolChangeGcode,
;   endingGcode,; **** Replicator 2 end.gcode ****,M73 P100 ; end build progress,G1 Z155 F1000 ; send Z axis to bottom of machine,M104 S0 T0 ; cool down extruder,M140 S0 T0 ; cool down HBP,M127 ; stop blower fan,G162 X Y F3000 ; home XY maximum,M18 ; disable stepper,M0 ; stop codes,M72 P1 ; play Ta-Da song,; **** end of end.gcode ****
;   exportFileFormat,gcode
;   celebration,0
;   celebrationSong,Random Song
;   postProcessing,
;   defaultSpeed,4800
;   outlineUnderspeed,0.5
;   solidInfillUnderspeed,1
;   supportUnderspeed,1
;   rapidXYspeed,9000
;   rapidZspeed,1200
;   minBridgingArea,50
;   bridgingExtraInflation,0
;   bridgingExtrusionMultiplier,1
;   bridgingSpeedMultiplier,0.8
;   useFixedBridgingAngle,0
;   fixedBridgingAngle,0
;   applyBridgingToPerimeters,0
;   filamentDiameters,1.75|1.75|1.75|1.75|1.75|1.75
;   filamentPricesPerKg,46|46|46|46|46|46
;   filamentDensities,1.25|1.25|1.25|1.25|1.25|1.25
;   useMinPrintHeight,0
;   minPrintHeight,0
;   useMaxPrintHeight,0
;   maxPrintHeight,4.84
;   useDiaphragm,0
;   diaphragmLayerInterval,20
;   robustSlicing,1
;   mergeAllIntoSolid,0
;   onlyRetractWhenCrossingOutline,0
;   retractBetweenLayers,0
;   useRetractionMinTravel,1
;   retractionMinTravel,7
;   retractWhileWiping,1
;   onlyWipeOutlines,1
;   avoidCrossingOutline,0
;   maxMovementDetourFactor,3
;   toolChangeRetractionDistance,12
;   toolChangeExtraRestartDistance,-0.5
;   toolChangeRetractionSpeed,600
;   externalThinWallType,0
;   internalThinWallType,1
;   thinWallAllowedOverlapPercentage,10
;   singleExtrusionMinLength,1
;   singleExtrusionMinPrintingWidthPercentage,50
;   singleExtrusionMaxPrintingWidthPercentage,200
;   singleExtrusionEndpointExtension,0.2
;   horizontalSizeCompensation,0
G90
M83
; **** Replicator 2 start.gcode ****
M73 P0 ; enable build progress
G162 X Y F3000 ; home XY maximum
G161 Z F1200 ; home Z minimum
G92 Z-5 ; set Z to -5
G1 Z0 ; move Z to 0
G28 ; better homing homie
M132 X Y Z A B ; recall home offsets
G1 X-145 Y-75 Z30 F9000 ; move to wait position off table
G130 X20 Y20 Z20 A20 B20 ; lower stepper Vrefs while heating
M127
M140 S65 T0
M134 T0 ; stabilize bed temperature
M104 S210 T0
M133 T0 ; stabilize extruder temperature
G130 X127 Y127 Z40 A127 B127 ; default stepper Vrefs
G92 A0 ; zero extruder
G1 Z0.4 ; position nozzle
G1 E25 F300 ; purge nozzle
G1 X-140 Y-70 Z0.15 F1200 ; slow wipe
G1 X-135 Y-65 Z0.5 F1200 ; lift
G92 A0 ; zero extruder
M73 P1 ;@body (notify GPX body has started)
; **** end of start.gcode ****
; process Process1
; layer 1, Z = 0.350
M135 T0
G1 E-1.9000 F1200
; feature inner perimeter
; tool H0.350 W0.500
G1 Z0.500 F1200
G1 X-3.251 Y0.000 F9000
G1 Z0.350 F1200
G1 E1.9000 F1200
G1 X-3.336 Y1.684 E0.1227 F1800
G1 X-3.592 Y3.351 E0.1227
G1 X-4.014 Y4.984 E0.1227
G1 X-4.600 Y6.566 E0.1227
G1 X-5.343 Y8.080 E0.1227
G1 X-6.235 Y9.511 E0.1227
G1 X-7.267 Y10.845 E0.1227
G1 X-8.429 Y12.067 E0.1227
G1 X-9.709 Y13.166 E0.1227
G1 X-11.093 Y14.129 E0.1227
G1 X-12.568 Y14.948 E0.1227
G1 X-14.118 Y15.613 E0.1227
G1 X-15.727 Y16.118 E0.1227
G1 X-17.379 Y16.457 E0.1227
G1 X-19.057 Y16.628 E0.1227
G1 X-20.743 Y16.628 E0.1227
G1 X-22.421 Y16.457 E0.1227
G1 X-24.073 Y16.118 E0.1227
G1 X-25.682 Y15.613 E0.1227
G1 X-27.232 Y14.948 E0.1227
G1 X-28.707 Y14.129 E0.1227
G1 X-30.091 Y13.166 E0.1227
G1 X-31.371 Y12.067 E0.1227
G1 X-32.533 Y10.845 E0.1227
G1 X-33.565 Y9.511 E0.1227
G1 X-34.457 Y8.080 E0.1227
G1 X-35.200 Y6.566 E0.1227
G1 X-35.785 Y4.984 E0.1227
G1 X-36.208 Y3.351 E0.1227
G1 X-36.464 Y1.684 E0.1227
G1 X-36.549 Y0.000 E0.1227
G1 X-36.464 Y-1.684 E0.1227
G1 X-36.208 Y-3.351 E0.1227
G1 X-35.785 Y-4.984 E0.1227
G1 X-35.200 Y-6.566 E0.1227
G1 X-34.457 Y-8.080 E0.1227
G1 X-33.565 Y-9.511 E0.1227
G1 X-32.533 Y-10.845 E0.1227
G1 X-31.371 Y-12.067 E0.1227
G1 X-30.148 Y-13.116 E0.1172
G1 X-28.705 Y-14.130 E0.1283
G1 X-27.232 Y-14.948 E0.1226
G1 X-25.682 Y-15.613 E0.1227
G1 X-24.073 Y-16.118 E0.1227
G1 X-22.421 Y-16.457 E0.1227
G1 X-20.743 Y-16.628 E0.1227
G1 X-19.057 Y-16.628 E0.1227
G1 X-17.379 Y-16.457 E0.1227
G1 X-15.727 Y-16.118 E0.1227
G1 X-14.118 Y-15.613 E0.1227
G1 X-12.568 Y-14.948 E0.1227
G1 X-11.093 Y-14.129 E0.1227
G1 X-9.709 Y-13.166 E0.1227
G1 X-8.429 Y-12.067 E0.1227
G1 X-7.267 Y-10.845 E0.1227
G1 X-6.235 Y-9.511 E0.1227
G1 X-5.343 Y-8.080 E0.1227
G1 X-4.600 Y-6.566 E0.1227
G1 X-4.014 Y-4.984 E0.1227
G1 X-3.592 Y-3.351 E0.1227
G1 X-3.336 Y-1.684 E0.1227
G1 X-3.251 Y0.000 E0.1227
; feature outer perimeter
G1 X-2.750 Y0.000 F9000
G1 X-2.838 Y1.735 E0.1264 F1200
G1 X-3.101 Y3.452 E0.1264
G1 X-3.537 Y5.134 E0.1264
G1 X-4.140 Y6.763 E0.1264
G1 X-4.905 Y8.323 E0.1264
G1 X-5.824 Y9.797 E0.1264
G1 X-6.888 Y11.171 E0.1264
G1 X-8.084 Y12.430 E0.1264
G1 X-9.403 Y13.562 E0.1264
G1 X-10.828 Y14.554 E0.1264
G1 X-12.347 Y15.397 E0.1264
G1 X-13.944 Y16.082 E0.1264
G1 X-15.601 Y16.602 E0.1264
G1 X-17.303 Y16.952 E0.1264
G1 X-19.031 Y17.128 E0.1264
G1 X-20.769 Y17.128 E0.1264
G1 X-22.497 Y16.952 E0.1264
G1 X-24.199 Y16.602 E0.1264
G1 X-25.856 Y16.082 E0.1264
G1 X-27.453 Y15.397 E0.1264
G1 X-28.972 Y14.554 E0.1264
G1 X-30.397 Y13.562 E0.1264
G1 X-31.716 Y12.430 E0.1264
G1 X-32.912 Y11.171 E0.1264
G1 X-33.976 Y9.797 E0.1264
G1 X-34.895 Y8.323 E0.1264
G1 X-35.660 Y6.763 E0.1264
G1 X-36.263 Y5.134 E0.1264
G1 X-36.699 Y3.452 E0.1264
G1 X-36.962 Y1.735 E0.1264
G1 X-37.050 Y0.000 E0.1264
G1 X-36.962 Y-1.735 E0.1264
G1 X-36.699 Y-3.452 E0.1264
G1 X-36.263 Y-5.134 E0.1264
G1 X-35.660 Y-6.763 E0.1264
G1 X-34.895 Y-8.323 E0.1264
G1 X-33.976 Y-9.797 E0.1264
G1 X-32.912 Y-11.171 E0.1264
G1 X-31.716 Y-12.430 E0.1264
G1 X-30.456 Y-13.512 E0.1208
G1 X-28.971 Y-14.554 E0.1320
G1 X-27.453 Y-15.397 E0.1264
G1 X-25.856 Y-16.082 E0.1264
G1 X-24.199 Y-16.602 E0.1264
G1 X-22.497 Y-16.952 E0.1264
G1 X-20.769 Y-17.128 E0.1264
G1 X-19.031 Y-17.128 E0.1264
G1 X-17.303 Y-16.952 E0.1264
G1 X-15.601 Y-16.602 E0.1264
G1 X-13.944 Y-16.082 E0.1264
G1 X-12.347 Y-15.397 E0.1264
G1 X-10.828 Y-14.554 E0.1264
G1 X-9.403 Y-13.562 E0.1264
G1 X-8.084 Y-12.430 E0.1264
G1 X-6.888 Y-11.171 E0.1264
G1 X-5.824 Y-9.797 E0.1264
G1 X-4.905 Y-8.323 E0.1264
G1 X-4.140 Y-6.763 E0.1264
G1 X-3.537 Y-5.134 E0.1264
G1 X-3.101 Y-3.452 E0.1264
G1 X-2.838 Y-1.735 E0.1264
G1 X-2.750 Y0.000 E0.1264
G1 E-1.9000 F1200
; feature solid layer
G1 Z0.850 F1200
G1 X-10.172 Y-13.001 F9000
G1 Z0.350 F1200
G1 E1.9000 F1200
G1 X-6.941 Y-9.769 E0.3325 F2400
G1 X-6.564 Y-9.282 E0.0448
G1 X-5.693 Y-7.885 E0.1197
G1 X-5.625 Y-7.746 E0.0113
G1 X-12.120 Y-14.242 E0.6684
G1 X-12.744 Y-14.588 E0.0519
G1 X-13.497 Y-14.911 E0.0596
G1 X-4.953 Y-6.368 E0.8790
G1 X-4.538 Y-5.245 E0.0871
G1 X-14.655 Y-15.362 E1.0410
G1 X-15.685 Y-15.685 E0.0786
G1 X-4.233 Y-4.233 E1.1783
G1 X-3.986 Y-3.279 E0.0717
G1 X-16.595 Y-15.888 E1.2973
G1 X-17.440 Y-16.061 E0.0628
G1 X-17.479 Y-16.065 E0.0029
G1 X-3.857 Y-2.443 E1.4016
G1 X-3.735 Y-1.644 E0.0588
G1 X-3.733 Y-1.612 E0.0023
G1 X-18.267 Y-16.145 E1.4954
G1 X-19.054 Y-16.225 E0.0576
G1 X-3.695 Y-0.867 E1.5803
G1 X-3.658 Y-0.122 E0.0543
G1 X-19.763 Y-16.228 E1.6571
G1 X-20.470 Y-16.228 E0.0514
G1 X-3.680 Y0.563 E1.7276
G1 X-3.714 Y1.236 E0.0490
G1 X-21.135 Y-16.186 E1.7925
G1 X-21.777 Y-16.120 E0.0469
G1 X-3.772 Y1.885 E1.8526
G1 X-3.866 Y2.498 E0.0451
G1 X-22.414 Y-16.050 E1.9085
G1 X-23.001 Y-15.930 E0.0436
G1 X-3.960 Y3.111 E1.9592
G1 X-3.984 Y3.271 E0.0117
G1 X-4.092 Y3.686 E0.0312
G1 X-23.587 Y-15.809 E2.0060
G1 X-23.973 Y-15.730 E0.0286
G1 X-24.157 Y-15.672 E0.0141
G1 X-4.237 Y4.248 E2.0496
G1 X-4.383 Y4.810 E0.0422
G1 X-24.695 Y-15.503 E2.0901
G1 X-25.234 Y-15.334 E0.0410
G1 X-4.569 Y5.330 E2.1262
G1 X-4.760 Y5.846 E0.0400
G1 X-25.753 Y-15.147 E2.1600
G1 X-26.248 Y-14.935 E0.0392
G1 X-4.951 Y6.362 E2.1913
G1 X-4.968 Y6.408 E0.0035
G1 X-5.180 Y6.840 E0.0351
G1 X-26.743 Y-14.722 E2.2186
G1 X-27.056 Y-14.588 E0.0248
G1 X-27.223 Y-14.495 E0.0139
G1 X-5.413 Y7.315 E2.2441
G1 X-5.646 Y7.789 E0.0384
G1 X-27.678 Y-14.243 E2.2669
G1 X-28.132 Y-13.990 E0.0378
G1 X-5.910 Y8.233 E2.2866
G1 X-6.181 Y8.668 E0.0373
G1 X-28.579 Y-13.730 E2.3046
G1 X-28.994 Y-13.438 E0.0369
G1 X-6.453 Y9.104 E2.3194
G1 X-6.564 Y9.282 E0.0153
G1 X-6.746 Y9.518 E0.0216
G1 X-29.410 Y-13.146 E2.3320
G1 X-29.825 Y-12.855 E0.0369
G1 X-7.054 Y9.916 E2.3430
G1 X-7.363 Y10.315 E0.0367
G1 X-30.212 Y-12.534 E2.3510
G1 X-30.593 Y-12.208 E0.0365
G1 X-7.683 Y10.702 E2.3572
G1 X-8.028 Y11.064 E0.0364
G1 X-30.973 Y-11.881 E2.3609
G1 X-31.095 Y-11.777 E0.0117
G1 X-31.329 Y-11.530 E0.0248
G1 X-8.372 Y11.427 E2.3621
G1 X-8.705 Y11.777 E0.0352
G1 X-8.718 Y11.788 E0.0012
G1 X-31.674 Y-11.168 E2.3620
G1 X-32.018 Y-10.805 E0.0364
G1 X-9.099 Y12.115 E2.3583
G1 X-9.479 Y12.441 E0.0365
G1 X-32.349 Y-10.429 E2.3531
G1 X-32.657 Y-10.030 E0.0367
G1 X-9.860 Y12.768 E2.3457
G1 X-9.954 Y12.849 E0.0091
G1 X-10.268 Y13.067 E0.0278
G1 X-32.966 Y-9.631 E2.3355
G1 X-33.236 Y-9.282 E0.0321
G1 X-33.270 Y-9.228 E0.0046
G1 X-10.684 Y13.357 E2.3239
G1 X-11.101 Y13.647 E0.0370
G1 X-33.541 Y-8.793 E2.3089
G1 X-33.813 Y-8.357 E0.0373
G1 X-11.538 Y13.918 E2.2920
G1 X-11.992 Y14.171 E0.0378
G1 X-34.084 Y-7.921 E2.2731
G1 X-34.107 Y-7.885 E0.0031
G1 X-34.320 Y-7.450 E0.0353
G1 X-12.447 Y14.423 E2.2506
G1 X-12.744 Y14.588 E0.0247
G1 X-12.916 Y14.662 E0.0136
G1 X-34.553 Y-6.976 E2.2263
G1 X-34.786 Y-6.501 E0.0384
G1 X-13.410 Y14.874 E2.1994
G1 X-13.905 Y15.086 E0.0392
G1 X-34.985 Y-5.994 E2.1690
G1 X-35.176 Y-5.478 E0.0400
G1 X-14.413 Y15.286 E2.1364
G1 X-14.951 Y15.455 E0.0410
G1 X-35.367 Y-4.962 E2.1007
G1 X-35.403 Y-4.864 E0.0076
G1 X-35.521 Y-4.409 E0.0342
G1 X-15.489 Y15.624 E2.0612
G1 X-15.827 Y15.730 E0.0258
G1 X-16.045 Y15.775 E0.0162
G1 X-35.667 Y-3.847 E2.0189
G1 X-35.812 Y-3.285 E0.0422
G1 X-16.632 Y15.895 E1.9735
G1 X-17.218 Y16.016 E0.0436
G1 X-35.907 Y-2.673 E1.9230
G1 X-36.001 Y-2.060 E0.0451
G1 X-17.839 Y16.102 E1.8688
G1 X-18.481 Y16.167 E0.0469
G1 X-36.076 Y-1.428 E1.8104
G1 X-36.110 Y-0.755 E0.0490
G1 X-19.128 Y16.228 E1.7474
G1 X-19.835 Y16.228 E0.0514
G1 X-36.144 Y-0.082 E1.6781
G1 X-36.149 Y0.000 E0.0060
G1 X-36.115 Y0.654 E0.0477
G1 X-20.542 Y16.228 E1.6024
G1 X-20.723 Y16.228 E0.0132
G1 X-21.309 Y16.168 E0.0428
G1 X-36.078 Y1.399 E1.5196
G1 X-36.065 Y1.644 E0.0178
G1 X-35.979 Y2.205 E0.0413
G1 X-22.096 Y16.088 E1.4285
G1 X-22.360 Y16.061 E0.0194
G1 X-22.951 Y15.940 E0.0439
G1 X-35.851 Y3.040 E1.3273
G1 X-35.816 Y3.271 E0.0170
G1 X-35.637 Y3.961 E0.0518
G1 X-23.841 Y15.757 E1.2137
G1 X-23.973 Y15.730 E0.0098
G1 X-24.851 Y15.454 E0.0669
G1 X-35.381 Y4.924 E1.0835
G1 X-34.965 Y6.047 E0.0871
G1 X-25.949 Y15.063 E0.9277
G1 X-27.056 Y14.588 E0.0876
G1 X-27.226 Y14.494 E0.0141
G1 X-34.370 Y7.350 E0.7351
G1 X-34.107 Y7.885 E0.0434
G1 X-33.389 Y9.038 E0.0988
G1 X-28.963 Y13.463 E0.4554
G1 E-1.9000 F1200
; feature inner perimeter
G1 Z0.850 F1200
G1 X36.549 Y0.000 F9000
G1 Z0.350 F1200
G1 E1.9000 F1200
G1 X36.464 Y1.684 E0.1227 F1800
G1 X36.208 Y3.351 E0.1227
G1 X35.785 Y4.984 E0.1227
G1 X35.200 Y6.566 E0.1227
G1 X34.457 Y8.080 E0.1227
G1 X33.565 Y9.511 E0.1227
G1 X32.533 Y10.845 E0.1227
G1 X31.371 Y12.067 E0.1227
G1 X30.091 Y13.166 E0.1227
G1 X28.707 Y14.129 E0.1227
G1 X27.232 Y14.948 E0.1227
G1 X25.682 Y15.613 E0.1227
G1 X24.073 Y16.118 E0.1227
G1 X22.421 Y16.457 E0.1227
G1 X20.743 Y16.628 E0.1227
G1 X19.057 Y16.628 E0.1227
G1 X17.379 Y16.457 E0.1227
