; G-Code generated by Simplify3D(R) Version 4.1.2
; Aug 3, 2020 at 12:37:51 PM
; Settings Summary
;   processName,Process1
;   applyToModels,Bracket L,Bracket R,Bracket L(2),Bracket R(2),Bracket L(3),Bracket R(3),Bracket L(2)(2),Bracket R(2)(2)
;   profileName,MakerBot Replicator 2 HBP (modified)
;   profileVersion,2020-04-21 14:45:34
;   baseProfile,MakerBot Replicator 2(2)
;   printMaterial,PLA
;   printQuality,Medium
;   printExtruders,
;   extruderName,Primary Extruder
;   extruderToolheadNumber,0
;   extruderDiameter,0.4
;   extruderAutoWidth,0
;   extruderWidth,0.5
;   extrusionMultiplier,1
;   extruderUseRetract,1
;   extruderRetractionDistance,1.9
;   extruderExtraRestartDistance,0
;   extruderRetractionZLift,0.5
;   extruderRetractionSpeed,1200
;   extruderUseCoasting,0
;   extruderCoastingDistance,0.2
;   extruderUseWipe,0
;   extruderWipeDistance,5
;   primaryExtruder,0
;   layerHeight,0.35
;   topSolidLayers,4
;   bottomSolidLayers,3
;   perimeterOutlines,2
;   printPerimetersInsideOut,1
;   startPointOption,3
;   startPointOriginX,140
;   startPointOriginY,0
;   sequentialIslands,0
;   spiralVaseMode,0
;   firstLayerHeightPercentage,100
;   firstLayerWidthPercentage,100
;   firstLayerUnderspeed,0.5
;   useRaft,0
;   raftExtruder,0
;   raftTopLayers,2
;   raftBaseLayers,1
;   raftOffset,1
;   raftSeparationDistance,0.14
;   raftTopInfill,90
;   aboveRaftSpeedMultiplier,0.3
;   useSkirt,0
;   skirtExtruder,0
;   skirtLayers,1
;   skirtOutlines,5
;   skirtOffset,0
;   usePrimePillar,0
;   primePillarExtruder,999
;   primePillarWidth,12
;   primePillarLocation,7
;   primePillarSpeedMultiplier,1
;   useOozeShield,0
;   oozeShieldExtruder,999
;   oozeShieldOffset,2
;   oozeShieldOutlines,1
;   oozeShieldSidewallShape,1
;   oozeShieldSidewallAngle,30
;   oozeShieldSpeedMultiplier,1
;   infillExtruder,0
;   internalInfillPattern,Rectilinear
;   externalInfillPattern,Rectilinear
;   infillPercentage,20
;   outlineOverlapPercentage,20
;   infillExtrusionWidthPercentage,100
;   minInfillLength,5
;   infillLayerInterval,1
;   internalInfillAngles,45,-45
;   overlapInternalInfillAngles,0
;   externalInfillAngles,45,-45
;   generateSupport,0
;   supportExtruder,0
;   supportInfillPercentage,30
;   supportExtraInflation,0.6
;   supportBaseLayers,0
;   denseSupportExtruder,0
;   denseSupportLayers,2
;   denseSupportInfillPercentage,70
;   supportLayerInterval,1
;   supportHorizontalPartOffset,0.3
;   supportUpperSeparationLayers,1
;   supportLowerSeparationLayers,1
;   supportType,0
;   supportGridSpacing,99
;   maxOverhangAngle,45
;   supportAngles,0
;   temperatureName,Primary Extruder,Heated Build Platform
;   temperatureNumber,0,0
;   temperatureSetpointCount,1,1
;   temperatureSetpointLayers,1,1
;   temperatureSetpointTemperatures,210,65
;   temperatureStabilizeAtStartup,1,1
;   temperatureHeatedBed,0,1
;   fanLayers,1,2
;   fanSpeeds,0,100
;   blipFanToFullPower,1
;   adjustSpeedForCooling,1
;   minSpeedLayerTime,15
;   minCoolingSpeedSlowdown,20
;   increaseFanForCooling,1
;   minFanLayerTime,45
;   maxCoolingFanSpeed,100
;   increaseFanForBridging,1
;   bridgingFanSpeed,100
;   use5D,1
;   relativeEdistances,1
;   allowEaxisZeroing,0
;   independentExtruderAxes,1
;   includeM10123,0
;   stickySupport,1
;   applyToolheadOffsets,0
;   gcodeXoffset,0
;   gcodeYoffset,0
;   gcodeZoffset,0
;   overrideMachineDefinition,1
;   machineTypeOverride,0
;   strokeXoverride,280
;   strokeYoverride,150
;   strokeZoverride,150
;   originOffsetXoverride,140
;   originOffsetYoverride,75
;   originOffsetZoverride,0
;   homeXdirOverride,1
;   homeYdirOverride,1
;   homeZdirOverride,-1
;   flipXoverride,1
;   flipYoverride,-1
;   flipZoverride,1
;   toolheadOffsets,0,0|0,0|0,0|0,0|0,0|0,0
;   overrideFirmwareConfiguration,1
;   firmwareTypeOverride,MakerBot/Sailfish Firmware
;   GPXconfigOverride,r2h
;   baudRateOverride,115200
;   overridePrinterModels,1
;   printerModelsOverride,MakerBot_Replicator2.stl
;   startingGcode,; **** Replicator 2 start.gcode ****,M73 P0 ; enable build progress,G162 X Y F3000 ; home XY maximum,G161 Z F1200 ; home Z minimum,G92 Z-5 ; set Z to -5,G1 Z0 ; move Z to 0,G28 ; better homing homie,M132 X Y Z A B ; recall home offsets,G1 X-145 Y-75 Z30 F9000 ; move to wait position off table,G130 X20 Y20 Z20 A20 B20 ; lower stepper Vrefs while heating,M126 S[fan_speed_pwm],M140 S[bed0_temperature] T0,M134 T0 ; stabilize bed temperature,M104 S[extruder0_temperature] T0,M133 T0 ; stabilize extruder temperature,G130 X127 Y127 Z40 A127 B127 ; default stepper Vrefs,G92 A0 ; zero extruder,G1 Z0.4 ; position nozzle,G1 E25 F300 ; purge nozzle,G1 X-140 Y-70 Z0.15 F1200 ; slow wipe,G1 X-135 Y-65 Z0.5 F1200 ; lift,G92 A0 ; zero extruder,M73 P1 ;@body (notify GPX body has started),; **** end of start.gcode ****
;   layerChangeGcode,
;   retractionGcode,
;   toolChangeGcode,
;   endingGcode,; **** Replicator 2 end.gcode ****,M73 P100 ; end build progress,G1 Z155 F1000 ; send Z axis to bottom of machine,M104 S0 T0 ; cool down extruder,M140 S0 T0 ; cool down HBP,M127 ; stop blower fan,G162 X Y F3000 ; home XY maximum,M18 ; disable stepper,M0 ; stop codes,M72 P1 ; play Ta-Da song,; **** end of end.gcode ****
;   exportFileFormat,gcode
;   celebration,0
;   celebrationSong,Random Song
;   postProcessing,
;   defaultSpeed,4800
;   outlineUnderspeed,0.5
;   solidInfillUnderspeed,1
;   supportUnderspeed,1
;   rapidXYspeed,9000
;   rapidZspeed,1200
;   minBridgingArea,50
;   bridgingExtraInflation,0
;   bridgingExtrusionMultiplier,1
;   bridgingSpeedMultiplier,0.8
;   useFixedBridgingAngle,0
;   fixedBridgingAngle,0
;   applyBridgingToPerimeters,0
;   filamentDiameters,1.75|1.75|1.75|1.75|1.75|1.75
;   filamentPricesPerKg,46|46|46|46|46|46
;   filamentDensities,1.25|1.25|1.25|1.25|1.25|1.25
;   useMinPrintHeight,0
;   minPrintHeight,0
;   useMaxPrintHeight,0
;   maxPrintHeight,4.84
;   useDiaphragm,0
;   diaphragmLayerInterval,20
;   robustSlicing,1
;   mergeAllIntoSolid,0
;   onlyRetractWhenCrossingOutline,0
;   retractBetweenLayers,0
;   useRetractionMinTravel,1
;   retractionMinTravel,7
;   retractWhileWiping,1
;   onlyWipeOutlines,1
;   avoidCrossingOutline,0
;   maxMovementDetourFactor,3
;   toolChangeRetractionDistance,12
;   toolChangeExtraRestartDistance,-0.5
;   toolChangeRetractionSpeed,600
;   externalThinWallType,0
;   internalThinWallType,0
;   thinWallAllowedOverlapPercentage,10
;   singleExtrusionMinLength,1
;   singleExtrusionMinPrintingWidthPercentage,50
;   singleExtrusionMaxPrintingWidthPercentage,200
;   singleExtrusionEndpointExtension,0.2
;   horizontalSizeCompensation,0
G90
M83
; **** Replicator 2 start.gcode ****
M73 P0 ; enable build progress
G162 X Y F3000 ; home XY maximum
G161 Z F1200 ; home Z minimum
G92 Z-5 ; set Z to -5
G1 Z0 ; move Z to 0
G28 ; better homing homie
M132 X Y Z A B ; recall home offsets
G1 X-145 Y-75 Z30 F9000 ; move to wait position off table
G130 X20 Y20 Z20 A20 B20 ; lower stepper Vrefs while heating
M127
M140 S65 T0
M134 T0 ; stabilize bed temperature
M104 S210 T0
M133 T0 ; stabilize extruder temperature
G130 X127 Y127 Z40 A127 B127 ; default stepper Vrefs
G92 A0 ; zero extruder
G1 Z0.4 ; position nozzle
G1 E25 F300 ; purge nozzle
G1 X-140 Y-70 Z0.15 F1200 ; slow wipe
G1 X-135 Y-65 Z0.5 F1200 ; lift
G92 A0 ; zero extruder
M73 P1 ;@body (notify GPX body has started)
; **** end of start.gcode ****
; process Process1
; layer 1, Z = 0.350
M135 T0
G1 E-1.9000 F1200
; feature inner perimeter
; tool H0.350 W0.500
G1 Z0.500 F1200
G1 X13.766 Y10.000 F9000
G1 Z0.350 F1200
G1 E1.9000 F1200
G1 X-22.956 Y10.000 E2.6718 F1800
G1 X-22.956 Y-10.000 E1.4551
G1 X13.766 Y-10.000 E2.6718
G1 X13.766 Y10.000 E1.4551
; feature outer perimeter
G1 X14.266 Y10.500 F9000
G1 X-23.456 Y10.500 E2.7446 F1200
G1 X-23.456 Y-10.500 E1.5279
G1 X14.266 Y-10.500 E2.7446
G1 X14.266 Y10.500 E1.5279
; feature inner perimeter
G1 X12.344 Y8.700 F9000
G1 X12.344 Y-8.700 E1.2660 F1800
G1 X-21.656 Y-8.700 E2.4737
G1 X-21.656 Y8.700 E1.2660
G1 X12.344 Y8.700 E2.4737
; feature outer perimeter
G1 X11.844 Y8.200 F9000
G1 X11.844 Y-8.200 E1.1932 F1200
G1 X-21.156 Y-8.200 E2.4010
G1 X-21.156 Y8.200 E1.1932
G1 X11.844 Y8.200 E2.4010
G1 E-1.9000 F1200
; feature solid layer
G1 Z0.850 F1200
G1 X12.744 Y-8.470 F9000
G1 Z0.350 F1200
G1 E1.9000 F1200
G1 X13.366 Y-7.847 E0.0641 F2400
G1 X13.366 Y-7.140 E0.0514
G1 X12.744 Y-7.763 E0.0641
G1 X12.744 Y-7.055 E0.0514
G1 X13.366 Y-6.433 E0.0641
G1 X13.366 Y-5.726 E0.0514
G1 X12.744 Y-6.348 E0.0641
G1 X12.744 Y-5.641 E0.0514
G1 X13.366 Y-5.019 E0.0641
G1 X13.366 Y-4.312 E0.0514
G1 X12.744 Y-4.934 E0.0641
G1 X12.744 Y-4.227 E0.0514
G1 X13.366 Y-3.604 E0.0641
G1 X13.366 Y-2.897 E0.0514
G1 X12.744 Y-3.520 E0.0641
G1 X12.744 Y-2.813 E0.0514
G1 X13.366 Y-2.190 E0.0641
G1 X13.366 Y-1.483 E0.0514
G1 X12.744 Y-2.106 E0.0641
G1 X12.744 Y-1.399 E0.0514
G1 X13.366 Y-0.776 E0.0641
G1 X13.366 Y-0.069 E0.0514
G1 X12.744 Y-0.691 E0.0641
G1 X12.744 Y0.016 E0.0514
G1 X13.366 Y0.638 E0.0641
G1 X13.366 Y1.345 E0.0514
G1 X12.744 Y0.723 E0.0641
G1 X12.744 Y1.430 E0.0514
G1 X13.366 Y2.052 E0.0641
G1 X13.366 Y2.760 E0.0514
G1 X12.744 Y2.137 E0.0641
G1 X12.744 Y2.844 E0.0514
G1 X13.366 Y3.467 E0.0641
G1 X13.366 Y4.174 E0.0514
G1 X12.744 Y3.551 E0.0641
G1 X12.744 Y4.258 E0.0514
G1 X13.366 Y4.881 E0.0641
G1 X13.366 Y5.588 E0.0514
G1 X12.744 Y4.965 E0.0641
G1 X12.744 Y5.673 E0.0514
G1 X13.366 Y6.295 E0.0641
G1 X13.366 Y7.002 E0.0514
G1 X12.744 Y6.380 E0.0641
G1 X12.744 Y7.087 E0.0514
G1 X13.366 Y7.709 E0.0641
G1 X13.366 Y8.416 E0.0514
G1 X12.744 Y7.794 E0.0641
G1 X12.744 Y8.501 E0.0514
G1 X13.366 Y9.123 E0.0641
G1 X13.366 Y9.600 E0.0347
G1 X13.136 Y9.600 E0.0168
G1 X12.636 Y9.100 E0.0514
G1 X11.928 Y9.100 E0.0514
G1 X12.428 Y9.600 E0.0514
G1 X11.721 Y9.600 E0.0514
G1 X11.221 Y9.100 E0.0514
G1 X10.514 Y9.100 E0.0514
G1 X11.014 Y9.600 E0.0514
G1 X10.307 Y9.600 E0.0514
G1 X9.807 Y9.100 E0.0514
G1 X9.100 Y9.100 E0.0514
G1 X9.600 Y9.600 E0.0514
G1 X8.893 Y9.600 E0.0514
G1 X8.393 Y9.100 E0.0514
G1 X7.686 Y9.100 E0.0514
G1 X8.186 Y9.600 E0.0514
G1 X7.479 Y9.600 E0.0514
G1 X6.979 Y9.100 E0.0514
G1 X6.272 Y9.100 E0.0514
G1 X6.772 Y9.600 E0.0514
G1 X6.064 Y9.600 E0.0514
G1 X5.564 Y9.100 E0.0514
G1 X4.857 Y9.100 E0.0514
G1 X5.357 Y9.600 E0.0514
G1 X4.650 Y9.600 E0.0514
G1 X4.150 Y9.100 E0.0514
G1 X3.443 Y9.100 E0.0514
G1 X3.943 Y9.600 E0.0514
G1 X3.236 Y9.600 E0.0514
G1 X2.736 Y9.100 E0.0514
G1 X2.029 Y9.100 E0.0514
G1 X2.529 Y9.600 E0.0514
G1 X1.822 Y9.600 E0.0514
G1 X1.322 Y9.100 E0.0514
G1 X0.615 Y9.100 E0.0514
G1 X1.115 Y9.600 E0.0514
G1 X0.408 Y9.600 E0.0514
G1 X-0.092 Y9.100 E0.0514
G1 X-0.799 Y9.100 E0.0514
G1 X-0.299 Y9.600 E0.0514
G1 X-1.007 Y9.600 E0.0514
G1 X-1.507 Y9.100 E0.0514
G1 X-2.214 Y9.100 E0.0514
G1 X-1.714 Y9.600 E0.0514
G1 X-2.421 Y9.600 E0.0514
G1 X-2.921 Y9.100 E0.0514
G1 X-3.628 Y9.100 E0.0514
G1 X-3.128 Y9.600 E0.0514
G1 X-3.835 Y9.600 E0.0514
G1 X-4.335 Y9.100 E0.0514
G1 X-5.042 Y9.100 E0.0514
G1 X-4.542 Y9.600 E0.0514
G1 X-5.249 Y9.600 E0.0514
G1 X-5.749 Y9.100 E0.0514
G1 X-6.456 Y9.100 E0.0514
G1 X-5.956 Y9.600 E0.0514
G1 X-6.663 Y9.600 E0.0514
G1 X-7.163 Y9.100 E0.0514
G1 X-7.871 Y9.100 E0.0514
G1 X-7.371 Y9.600 E0.0514
G1 X-8.078 Y9.600 E0.0514
G1 X-8.578 Y9.100 E0.0514
G1 X-9.285 Y9.100 E0.0514
G1 X-8.785 Y9.600 E0.0514
G1 X-9.492 Y9.600 E0.0514
G1 X-9.992 Y9.100 E0.0514
G1 X-10.699 Y9.100 E0.0514
G1 X-10.199 Y9.600 E0.0514
G1 X-10.906 Y9.600 E0.0514
G1 X-11.406 Y9.100 E0.0514
G1 X-12.113 Y9.100 E0.0514
G1 X-11.613 Y9.600 E0.0514
G1 X-12.320 Y9.600 E0.0514
G1 X-12.820 Y9.100 E0.0514
G1 X-13.527 Y9.100 E0.0514
G1 X-13.027 Y9.600 E0.0514
G1 X-13.735 Y9.600 E0.0514
G1 X-14.235 Y9.100 E0.0514
G1 X-14.942 Y9.100 E0.0514
G1 X-14.442 Y9.600 E0.0514
G1 X-15.149 Y9.600 E0.0514
G1 X-15.649 Y9.100 E0.0514
G1 X-16.356 Y9.100 E0.0514
G1 X-15.856 Y9.600 E0.0514
G1 X-16.563 Y9.600 E0.0514
G1 X-17.063 Y9.100 E0.0514
G1 X-17.770 Y9.100 E0.0514
G1 X-17.270 Y9.600 E0.0514
G1 X-17.977 Y9.600 E0.0514
G1 X-18.477 Y9.100 E0.0514
G1 X-19.184 Y9.100 E0.0514
G1 X-18.684 Y9.600 E0.0514
G1 X-19.391 Y9.600 E0.0514
G1 X-19.891 Y9.100 E0.0514
G1 X-20.598 Y9.100 E0.0514
G1 X-20.098 Y9.600 E0.0514
G1 X-20.806 Y9.600 E0.0514
G1 X-21.306 Y9.100 E0.0514
G1 X-22.556 Y9.263 F9000
G1 X-22.220 Y9.600 E0.0346 F2400
G1 X-21.513 Y9.600 E0.0514
G1 X-22.013 Y9.100 E0.0514
G1 X-22.056 Y9.100 E0.0032
G1 X-22.056 Y9.056 E0.0032
G1 X-22.556 Y8.556 E0.0514
G1 X-22.556 Y7.849 E0.0514
G1 X-22.056 Y8.349 E0.0514
G1 X-22.056 Y7.642 E0.0514
G1 X-22.556 Y7.142 E0.0514
G1 X-22.556 Y6.435 E0.0514
G1 X-22.056 Y6.935 E0.0514
G1 X-22.056 Y6.228 E0.0514
G1 X-22.556 Y5.728 E0.0514
G1 X-22.556 Y5.021 E0.0514
G1 X-22.056 Y5.521 E0.0514
G1 X-22.056 Y4.814 E0.0514
G1 X-22.556 Y4.314 E0.0514
G1 X-22.556 Y3.607 E0.0514
G1 X-22.056 Y4.107 E0.0514
G1 X-22.056 Y3.399 E0.0514
G1 X-22.556 Y2.899 E0.0514
G1 X-22.556 Y2.192 E0.0514
G1 X-22.056 Y2.692 E0.0514
G1 X-22.056 Y1.985 E0.0514
G1 X-22.556 Y1.485 E0.0514
G1 X-22.556 Y0.778 E0.0514
G1 X-22.056 Y1.278 E0.0514
G1 X-22.056 Y0.571 E0.0514
G1 X-22.556 Y0.071 E0.0514
G1 X-22.556 Y-0.636 E0.0514
G1 X-22.056 Y-0.136 E0.0514
G1 X-22.056 Y-0.843 E0.0514
G1 X-22.556 Y-1.343 E0.0514
G1 X-22.556 Y-2.050 E0.0514
G1 X-22.056 Y-1.550 E0.0514
G1 X-22.056 Y-2.257 E0.0514
G1 X-22.556 Y-2.757 E0.0514
G1 X-22.556 Y-3.465 E0.0514
G1 X-22.056 Y-2.965 E0.0514
G1 X-22.056 Y-3.672 E0.0514
G1 X-22.556 Y-4.172 E0.0514
G1 X-22.556 Y-4.879 E0.0514
G1 X-22.056 Y-4.379 E0.0514
G1 X-22.056 Y-5.086 E0.0514
G1 X-22.556 Y-5.586 E0.0514
G1 X-22.556 Y-6.293 E0.0514
G1 X-22.056 Y-5.793 E0.0514
G1 X-22.056 Y-6.500 E0.0514
G1 X-22.556 Y-7.000 E0.0514
G1 X-22.556 Y-7.707 E0.0514
G1 X-22.056 Y-7.207 E0.0514
G1 X-22.056 Y-7.914 E0.0514
G1 X-22.556 Y-8.414 E0.0514
G1 X-22.556 Y-9.121 E0.0514
G1 X-22.056 Y-8.621 E0.0514
G1 X-22.056 Y-9.100 E0.0348
G1 X-21.828 Y-9.100 E0.0166
G1 X-22.328 Y-9.600 E0.0514
G1 X-21.621 Y-9.600 E0.0514
G1 X-21.121 Y-9.100 E0.0514
G1 X-20.414 Y-9.100 E0.0514
G1 X-20.914 Y-9.600 E0.0514
G1 X-20.207 Y-9.600 E0.0514
G1 X-19.707 Y-9.100 E0.0514
G1 X-18.999 Y-9.100 E0.0514
G1 X-19.499 Y-9.600 E0.0514
G1 X-18.792 Y-9.600 E0.0514
G1 X-18.292 Y-9.100 E0.0514
G1 X-17.585 Y-9.100 E0.0514
G1 X-18.085 Y-9.600 E0.0514
G1 X-17.378 Y-9.600 E0.0514
G1 X-16.878 Y-9.100 E0.0514
G1 X-16.171 Y-9.100 E0.0514
G1 X-16.671 Y-9.600 E0.0514
G1 X-15.964 Y-9.600 E0.0514
G1 X-15.464 Y-9.100 E0.0514
G1 X-14.757 Y-9.100 E0.0514
G1 X-15.257 Y-9.600 E0.0514
G1 X-14.550 Y-9.600 E0.0514
G1 X-14.050 Y-9.100 E0.0514
G1 X-13.343 Y-9.100 E0.0514
G1 X-13.843 Y-9.600 E0.0514
G1 X-13.136 Y-9.600 E0.0514
G1 X-12.636 Y-9.100 E0.0514
G1 X-11.928 Y-9.100 E0.0514
G1 X-12.428 Y-9.600 E0.0514
G1 X-11.721 Y-9.600 E0.0514
G1 X-11.221 Y-9.100 E0.0514
G1 X-10.514 Y-9.100 E0.0514
G1 X-11.014 Y-9.600 E0.0514
G1 X-10.307 Y-9.600 E0.0514
G1 X-9.807 Y-9.100 E0.0514
G1 X-9.100 Y-9.100 E0.0514
G1 X-9.600 Y-9.600 E0.0514
G1 X-8.893 Y-9.600 E0.0514
G1 X-8.393 Y-9.100 E0.0514
G1 X-7.686 Y-9.100 E0.0514
G1 X-8.186 Y-9.600 E0.0514
G1 X-7.479 Y-9.600 E0.0514
G1 X-6.979 Y-9.100 E0.0514
G1 X-6.272 Y-9.100 E0.0514
G1 X-6.772 Y-9.600 E0.0514
G1 X-6.064 Y-9.600 E0.0514
G1 X-5.564 Y-9.100 E0.0514
G1 X-4.857 Y-9.100 E0.0514
G1 X-5.357 Y-9.600 E0.0514
G1 X-4.650 Y-9.600 E0.0514
G1 X-4.150 Y-9.100 E0.0514
G1 X-3.443 Y-9.100 E0.0514
G1 X-3.943 Y-9.600 E0.0514
G1 X-3.236 Y-9.600 E0.0514
G1 X-2.736 Y-9.100 E0.0514
G1 X-2.029 Y-9.100 E0.0514
G1 X-2.529 Y-9.600 E0.0514
G1 X-1.822 Y-9.600 E0.0514
G1 X-1.322 Y-9.100 E0.0514
G1 X-0.615 Y-9.100 E0.0514
G1 X-1.115 Y-9.600 E0.0514
G1 X-0.408 Y-9.600 E0.0514
G1 X0.092 Y-9.100 E0.0514
G1 X0.800 Y-9.100 E0.0514
G1 X0.300 Y-9.600 E0.0514
G1 X1.007 Y-9.600 E0.0514
G1 X1.507 Y-9.100 E0.0514
G1 X2.214 Y-9.100 E0.0514
G1 X1.714 Y-9.600 E0.0514
G1 X2.421 Y-9.600 E0.0514
G1 X2.921 Y-9.100 E0.0514
G1 X3.628 Y-9.100 E0.0514
G1 X3.128 Y-9.600 E0.0514
G1 X3.835 Y-9.600 E0.0514
G1 X4.335 Y-9.100 E0.0514
G1 X5.042 Y-9.100 E0.0514
G1 X4.542 Y-9.600 E0.0514
G1 X5.249 Y-9.600 E0.0514
G1 X5.749 Y-9.100 E0.0514
G1 X6.456 Y-9.100 E0.0514
G1 X5.956 Y-9.600 E0.0514
