; G-Code generated by Simplify3D(R) Version 4.1.2
; Aug 3, 2020 at 12:37:41 PM
; Settings Summary
;   processName,Process1
;   applyToModels,Bracket L,Bracket R,Bracket L(2),Bracket R(2)
;   profileName,MakerBot Replicator 2 HBP (modified)
;   profileVersion,2020-04-21 14:45:34
;   baseProfile,MakerBot Replicator 2(2)
;   printMaterial,PLA
;   printQuality,Medium
;   printExtruders,
;   extruderName,Primary Extruder
;   extruderToolheadNumber,0
;   extruderDiameter,0.4
;   extruderAutoWidth,0
;   extruderWidth,0.5
;   extrusionMultiplier,1
;   extruderUseRetract,1
;   extruderRetractionDistance,1.9
;   extruderExtraRestartDistance,0
;   extruderRetractionZLift,0.5
;   extruderRetractionSpeed,1200
;   extruderUseCoasting,0
;   extruderCoastingDistance,0.2
;   extruderUseWipe,0
;   extruderWipeDistance,5
;   primaryExtruder,0
;   layerHeight,0.35
;   topSolidLayers,4
;   bottomSolidLayers,3
;   perimeterOutlines,2
;   printPerimetersInsideOut,1
;   startPointOption,3
;   startPointOriginX,140
;   startPointOriginY,0
;   sequentialIslands,0
;   spiralVaseMode,0
;   firstLayerHeightPercentage,100
;   firstLayerWidthPercentage,100
;   firstLayerUnderspeed,0.5
;   useRaft,0
;   raftExtruder,0
;   raftTopLayers,2
;   raftBaseLayers,1
;   raftOffset,1
;   raftSeparationDistance,0.14
;   raftTopInfill,90
;   aboveRaftSpeedMultiplier,0.3
;   useSkirt,0
;   skirtExtruder,0
;   skirtLayers,1
;   skirtOutlines,5
;   skirtOffset,0
;   usePrimePillar,0
;   primePillarExtruder,999
;   primePillarWidth,12
;   primePillarLocation,7
;   primePillarSpeedMultiplier,1
;   useOozeShield,0
;   oozeShieldExtruder,999
;   oozeShieldOffset,2
;   oozeShieldOutlines,1
;   oozeShieldSidewallShape,1
;   oozeShieldSidewallAngle,30
;   oozeShieldSpeedMultiplier,1
;   infillExtruder,0
;   internalInfillPattern,Rectilinear
;   externalInfillPattern,Rectilinear
;   infillPercentage,20
;   outlineOverlapPercentage,20
;   infillExtrusionWidthPercentage,100
;   minInfillLength,5
;   infillLayerInterval,1
;   internalInfillAngles,45,-45
;   overlapInternalInfillAngles,0
;   externalInfillAngles,45,-45
;   generateSupport,0
;   supportExtruder,0
;   supportInfillPercentage,30
;   supportExtraInflation,0.6
;   supportBaseLayers,0
;   denseSupportExtruder,0
;   denseSupportLayers,2
;   denseSupportInfillPercentage,70
;   supportLayerInterval,1
;   supportHorizontalPartOffset,0.3
;   supportUpperSeparationLayers,1
;   supportLowerSeparationLayers,1
;   supportType,0
;   supportGridSpacing,99
;   maxOverhangAngle,45
;   supportAngles,0
;   temperatureName,Primary Extruder,Heated Build Platform
;   temperatureNumber,0,0
;   temperatureSetpointCount,1,1
;   temperatureSetpointLayers,1,1
;   temperatureSetpointTemperatures,210,65
;   temperatureStabilizeAtStartup,1,1
;   temperatureHeatedBed,0,1
;   fanLayers,1,2
;   fanSpeeds,0,100
;   blipFanToFullPower,1
;   adjustSpeedForCooling,1
;   minSpeedLayerTime,15
;   minCoolingSpeedSlowdown,20
;   increaseFanForCooling,1
;   minFanLayerTime,45
;   maxCoolingFanSpeed,100
;   increaseFanForBridging,1
;   bridgingFanSpeed,100
;   use5D,1
;   relativeEdistances,1
;   allowEaxisZeroing,0
;   independentExtruderAxes,1
;   includeM10123,0
;   stickySupport,1
;   applyToolheadOffsets,0
;   gcodeXoffset,0
;   gcodeYoffset,0
;   gcodeZoffset,0
;   overrideMachineDefinition,1
;   machineTypeOverride,0
;   strokeXoverride,280
;   strokeYoverride,150
;   strokeZoverride,150
;   originOffsetXoverride,140
;   originOffsetYoverride,75
;   originOffsetZoverride,0
;   homeXdirOverride,1
;   homeYdirOverride,1
;   homeZdirOverride,-1
;   flipXoverride,1
;   flipYoverride,-1
;   flipZoverride,1
;   toolheadOffsets,0,0|0,0|0,0|0,0|0,0|0,0
;   overrideFirmwareConfiguration,1
;   firmwareTypeOverride,MakerBot/Sailfish Firmware
;   GPXconfigOverride,r2h
;   baudRateOverride,115200
;   overridePrinterModels,1
;   printerModelsOverride,MakerBot_Replicator2.stl
;   startingGcode,; **** Replicator 2 start.gcode ****,M73 P0 ; enable build progress,G162 X Y F3000 ; home XY maximum,G161 Z F1200 ; home Z minimum,G92 Z-5 ; set Z to -5,G1 Z0 ; move Z to 0,G28 ; better homing homie,M132 X Y Z A B ; recall home offsets,G1 X-145 Y-75 Z30 F9000 ; move to wait position off table,G130 X20 Y20 Z20 A20 B20 ; lower stepper Vrefs while heating,M126 S[fan_speed_pwm],M140 S[bed0_temperature] T0,M134 T0 ; stabilize bed temperature,M104 S[extruder0_temperature] T0,M133 T0 ; stabilize extruder temperature,G130 X127 Y127 Z40 A127 B127 ; default stepper Vrefs,G92 A0 ; zero extruder,G1 Z0.4 ; position nozzle,G1 E25 F300 ; purge nozzle,G1 X-140 Y-70 Z0.15 F1200 ; slow wipe,G1 X-135 Y-65 Z0.5 F1200 ; lift,G92 A0 ; zero extruder,M73 P1 ;@body (notify GPX body has started),; **** end of start.gcode ****
;   layerChangeGcode,
;   retractionGcode,
;   toolChangeGcode,
;   endingGcode,; **** Replicator 2 end.gcode ****,M73 P100 ; end build progress,G1 Z155 F1000 ; send Z axis to bottom of machine,M104 S0 T0 ; cool down extruder,M140 S0 T0 ; cool down HBP,M127 ; stop blower fan,G162 X Y F3000 ; home XY maximum,M18 ; disable stepper,M0 ; stop codes,M72 P1 ; play Ta-Da song,; **** end of end.gcode ****
;   exportFileFormat,gcode
;   celebration,0
;   celebrationSong,Random Song
;   postProcessing,
;   defaultSpeed,4800
;   outlineUnderspeed,0.5
;   solidInfillUnderspeed,1
;   supportUnderspeed,1
;   rapidXYspeed,9000
;   rapidZspeed,1200
;   minBridgingArea,50
;   bridgingExtraInflation,0
;   bridgingExtrusionMultiplier,1
;   bridgingSpeedMultiplier,0.8
;   useFixedBridgingAngle,0
;   fixedBridgingAngle,0
;   applyBridgingToPerimeters,0
;   filamentDiameters,1.75|1.75|1.75|1.75|1.75|1.75
;   filamentPricesPerKg,46|46|46|46|46|46
;   filamentDensities,1.25|1.25|1.25|1.25|1.25|1.25
;   useMinPrintHeight,0
;   minPrintHeight,0
;   useMaxPrintHeight,0
;   maxPrintHeight,4.84
;   useDiaphragm,0
;   diaphragmLayerInterval,20
;   robustSlicing,1
;   mergeAllIntoSolid,0
;   onlyRetractWhenCrossingOutline,0
;   retractBetweenLayers,0
;   useRetractionMinTravel,1
;   retractionMinTravel,7
;   retractWhileWiping,1
;   onlyWipeOutlines,1
;   avoidCrossingOutline,0
;   maxMovementDetourFactor,3
;   toolChangeRetractionDistance,12
;   toolChangeExtraRestartDistance,-0.5
;   toolChangeRetractionSpeed,600
;   externalThinWallType,0
;   internalThinWallType,0
;   thinWallAllowedOverlapPercentage,10
;   singleExtrusionMinLength,1
;   singleExtrusionMinPrintingWidthPercentage,50
;   singleExtrusionMaxPrintingWidthPercentage,200
;   singleExtrusionEndpointExtension,0.2
;   horizontalSizeCompensation,0
G90
M83
; **** Replicator 2 start.gcode ****
M73 P0 ; enable build progress
G162 X Y F3000 ; home XY maximum
G161 Z F1200 ; home Z minimum
G92 Z-5 ; set Z to -5
G1 Z0 ; move Z to 0
G28 ; better homing homie
M132 X Y Z A B ; recall home offsets
G1 X-145 Y-75 Z30 F9000 ; move to wait position off table
G130 X20 Y20 Z20 A20 B20 ; lower stepper Vrefs while heating
M127
M140 S65 T0
M134 T0 ; stabilize bed temperature
M104 S210 T0
M133 T0 ; stabilize extruder temperature
G130 X127 Y127 Z40 A127 B127 ; default stepper Vrefs
G92 A0 ; zero extruder
G1 Z0.4 ; position nozzle
G1 E25 F300 ; purge nozzle
G1 X-140 Y-70 Z0.15 F1200 ; slow wipe
G1 X-135 Y-65 Z0.5 F1200 ; lift
G92 A0 ; zero extruder
M73 P1 ;@body (notify GPX body has started)
; **** end of start.gcode ****
; process Process1
; layer 1, Z = 0.350
M135 T0
G1 E-1.9000 F1200
; feature inner perimeter
; tool H0.350 W0.500
G1 Z0.500 F1200
G1 X39.973 Y3.250 F9000
G1 Z0.350 F1200
G1 E1.9000 F1200
G1 X39.973 Y23.250 E1.4551 F1800
G1 X3.250 Y23.250 E2.6718
G1 X3.250 Y3.250 E1.4551
G1 X39.973 Y3.250 E2.6718
; feature outer perimeter
G1 X40.473 Y2.750 F9000
G1 X40.473 Y23.750 E1.5279 F1200
G1 X2.750 Y23.750 E2.7446
G1 X2.750 Y2.750 E1.5279
G1 X40.473 Y2.750 E2.7446
; feature inner perimeter
G1 X38.550 Y4.550 F9000
G1 X4.550 Y4.550 E2.4737 F1800
G1 X4.550 Y21.950 E1.2660
G1 X38.550 Y21.950 E2.4737
G1 X38.550 Y4.550 E1.2660
; feature outer perimeter
G1 X38.050 Y5.050 F9000
G1 X5.050 Y5.050 E2.4010 F1200
G1 X5.050 Y21.450 E1.1932
G1 X38.050 Y21.450 E2.4010
G1 X38.050 Y5.050 E1.1932
; feature solid layer
G1 X38.950 Y5.009 F9000
G1 X39.573 Y5.631 E0.0641 F2400
G1 X39.573 Y6.338 E0.0514
G1 X38.950 Y5.716 E0.0641
G1 X38.950 Y6.423 E0.0514
G1 X39.573 Y7.046 E0.0641
G1 X39.573 Y7.753 E0.0514
G1 X38.950 Y7.130 E0.0641
G1 X38.950 Y7.837 E0.0514
G1 X39.573 Y8.460 E0.0641
G1 X39.573 Y9.167 E0.0514
G1 X38.950 Y8.544 E0.0641
G1 X38.950 Y9.251 E0.0514
G1 X39.573 Y9.874 E0.0641
G1 X39.573 Y10.581 E0.0514
G1 X38.950 Y9.959 E0.0641
G1 X38.950 Y10.666 E0.0514
G1 X39.573 Y11.288 E0.0641
G1 X39.573 Y11.995 E0.0514
G1 X38.950 Y11.373 E0.0641
G1 X38.950 Y12.080 E0.0514
G1 X39.573 Y12.702 E0.0641
G1 X39.573 Y13.410 E0.0514
G1 X38.950 Y12.787 E0.0641
G1 X38.950 Y13.494 E0.0514
G1 X39.573 Y14.117 E0.0641
G1 X39.573 Y14.824 E0.0514
G1 X38.950 Y14.201 E0.0641
G1 X38.950 Y14.908 E0.0514
G1 X39.573 Y15.531 E0.0641
G1 X39.573 Y16.238 E0.0514
G1 X38.950 Y15.615 E0.0641
G1 X38.950 Y16.323 E0.0514
G1 X39.573 Y16.945 E0.0641
G1 X39.573 Y17.652 E0.0514
G1 X38.950 Y17.030 E0.0641
G1 X38.950 Y17.737 E0.0514
G1 X39.573 Y18.359 E0.0641
G1 X39.573 Y19.066 E0.0514
G1 X38.950 Y18.444 E0.0641
G1 X38.950 Y19.151 E0.0514
G1 X39.573 Y19.774 E0.0641
G1 X39.573 Y20.481 E0.0514
G1 X38.950 Y19.858 E0.0641
G1 X38.950 Y20.565 E0.0514
G1 X39.573 Y21.188 E0.0641
G1 X39.573 Y21.895 E0.0514
G1 X38.950 Y21.272 E0.0641
G1 X38.950 Y21.979 E0.0514
G1 X39.573 Y22.602 E0.0641
G1 X39.573 Y22.850 E0.0180
G1 X39.113 Y22.850 E0.0334
G1 X38.613 Y22.350 E0.0514
G1 X37.906 Y22.350 E0.0514
G1 X38.406 Y22.850 E0.0514
G1 X37.699 Y22.850 E0.0514
G1 X37.199 Y22.350 E0.0514
G1 X36.492 Y22.350 E0.0514
G1 X36.992 Y22.850 E0.0514
G1 X36.285 Y22.850 E0.0514
G1 X35.785 Y22.350 E0.0514
G1 X35.078 Y22.350 E0.0514
G1 X35.578 Y22.850 E0.0514
G1 X34.871 Y22.850 E0.0514
G1 X34.371 Y22.350 E0.0514
G1 X33.664 Y22.350 E0.0514
G1 X34.164 Y22.850 E0.0514
G1 X33.457 Y22.850 E0.0514
G1 X32.957 Y22.350 E0.0514
G1 X32.250 Y22.350 E0.0514
G1 X32.750 Y22.850 E0.0514
G1 X32.042 Y22.850 E0.0514
G1 X31.542 Y22.350 E0.0514
G1 X30.835 Y22.350 E0.0514
G1 X31.335 Y22.850 E0.0514
G1 X30.628 Y22.850 E0.0514
G1 X30.128 Y22.350 E0.0514
G1 X29.421 Y22.350 E0.0514
G1 X29.921 Y22.850 E0.0514
G1 X29.214 Y22.850 E0.0514
G1 X28.714 Y22.350 E0.0514
G1 X28.007 Y22.350 E0.0514
G1 X28.507 Y22.850 E0.0514
G1 X27.800 Y22.850 E0.0514
G1 X27.300 Y22.350 E0.0514
G1 X26.593 Y22.350 E0.0514
G1 X27.093 Y22.850 E0.0514
G1 X26.386 Y22.850 E0.0514
G1 X25.886 Y22.350 E0.0514
G1 X25.178 Y22.350 E0.0514
G1 X25.678 Y22.850 E0.0514
G1 X24.971 Y22.850 E0.0514
G1 X24.471 Y22.350 E0.0514
G1 X23.764 Y22.350 E0.0514
G1 X24.264 Y22.850 E0.0514
G1 X23.557 Y22.850 E0.0514
G1 X23.057 Y22.350 E0.0514
G1 X22.350 Y22.350 E0.0514
G1 X22.850 Y22.850 E0.0514
G1 X22.143 Y22.850 E0.0514
G1 X21.643 Y22.350 E0.0514
G1 X20.936 Y22.350 E0.0514
G1 X21.436 Y22.850 E0.0514
G1 X20.729 Y22.850 E0.0514
G1 X20.229 Y22.350 E0.0514
G1 X19.522 Y22.350 E0.0514
G1 X20.022 Y22.850 E0.0514
G1 X19.314 Y22.850 E0.0514
G1 X18.814 Y22.350 E0.0514
G1 X18.107 Y22.350 E0.0514
G1 X18.607 Y22.850 E0.0514
G1 X17.900 Y22.850 E0.0514
G1 X17.400 Y22.350 E0.0514
G1 X16.693 Y22.350 E0.0514
G1 X17.193 Y22.850 E0.0514
G1 X16.486 Y22.850 E0.0514
G1 X15.986 Y22.350 E0.0514
G1 X15.279 Y22.350 E0.0514
G1 X15.779 Y22.850 E0.0514
G1 X15.072 Y22.850 E0.0514
G1 X14.572 Y22.350 E0.0514
G1 X13.865 Y22.350 E0.0514
G1 X14.365 Y22.850 E0.0514
G1 X13.658 Y22.850 E0.0514
G1 X13.158 Y22.350 E0.0514
G1 X12.451 Y22.350 E0.0514
G1 X12.951 Y22.850 E0.0514
G1 X12.243 Y22.850 E0.0514
G1 X11.743 Y22.350 E0.0514
G1 X11.036 Y22.350 E0.0514
G1 X11.536 Y22.850 E0.0514
G1 X10.829 Y22.850 E0.0514
G1 X10.329 Y22.350 E0.0514
G1 X9.622 Y22.350 E0.0514
G1 X10.122 Y22.850 E0.0514
G1 X9.415 Y22.850 E0.0514
G1 X8.915 Y22.350 E0.0514
G1 X8.208 Y22.350 E0.0514
G1 X8.708 Y22.850 E0.0514
G1 X8.001 Y22.850 E0.0514
G1 X7.501 Y22.350 E0.0514
G1 X6.794 Y22.350 E0.0514
G1 X7.294 Y22.850 E0.0514
G1 X6.587 Y22.850 E0.0514
G1 X6.087 Y22.350 E0.0514
G1 X5.379 Y22.350 E0.0514
G1 X5.879 Y22.850 E0.0514
G1 X5.172 Y22.850 E0.0514
G1 X4.672 Y22.350 E0.0514
G1 X3.650 Y22.742 F9000
G1 X3.758 Y22.850 E0.0111 F2400
G1 X4.465 Y22.850 E0.0514
G1 X3.650 Y22.035 E0.0839
G1 X3.650 Y21.328 E0.0514
G1 X4.150 Y21.828 E0.0514
G1 X4.150 Y21.121 E0.0514
G1 X3.650 Y20.621 E0.0514
G1 X3.650 Y19.913 E0.0514
G1 X4.150 Y20.413 E0.0514
G1 X4.150 Y19.706 E0.0514
G1 X3.650 Y19.206 E0.0514
G1 X3.650 Y18.499 E0.0514
G1 X4.150 Y18.999 E0.0514
G1 X4.150 Y18.292 E0.0514
G1 X3.650 Y17.792 E0.0514
G1 X3.650 Y17.085 E0.0514
G1 X4.150 Y17.585 E0.0514
G1 X4.150 Y16.878 E0.0514
G1 X3.650 Y16.378 E0.0514
G1 X3.650 Y15.671 E0.0514
G1 X4.150 Y16.171 E0.0514
G1 X4.150 Y15.464 E0.0514
G1 X3.650 Y14.964 E0.0514
G1 X3.650 Y14.257 E0.0514
G1 X4.150 Y14.757 E0.0514
G1 X4.150 Y14.049 E0.0514
G1 X3.650 Y13.549 E0.0514
G1 X3.650 Y12.842 E0.0514
G1 X4.150 Y13.342 E0.0514
G1 X4.150 Y12.635 E0.0514
G1 X3.650 Y12.135 E0.0514
G1 X3.650 Y11.428 E0.0514
G1 X4.150 Y11.928 E0.0514
G1 X4.150 Y11.221 E0.0514
G1 X3.650 Y10.721 E0.0514
G1 X3.650 Y10.014 E0.0514
G1 X4.150 Y10.514 E0.0514
G1 X4.150 Y9.807 E0.0514
G1 X3.650 Y9.307 E0.0514
G1 X3.650 Y8.600 E0.0514
G1 X4.150 Y9.100 E0.0514
G1 X4.150 Y8.393 E0.0514
G1 X3.650 Y7.893 E0.0514
G1 X3.650 Y7.186 E0.0514
G1 X4.150 Y7.686 E0.0514
G1 X4.150 Y6.978 E0.0514
G1 X3.650 Y6.478 E0.0514
G1 X3.650 Y5.771 E0.0514
G1 X4.150 Y6.271 E0.0514
G1 X4.150 Y5.564 E0.0514
G1 X3.650 Y5.064 E0.0514
G1 X3.650 Y4.357 E0.0514
G1 X4.150 Y4.857 E0.0514
G1 X4.150 Y4.150 E0.0514
G1 X3.650 Y3.650 E0.0514
G1 X4.357 Y3.650 E0.0514
G1 X4.857 Y4.150 E0.0514
G1 X5.564 Y4.150 E0.0514
G1 X5.064 Y3.650 E0.0514
G1 X5.771 Y3.650 E0.0514
G1 X6.271 Y4.150 E0.0514
G1 X6.978 Y4.150 E0.0514
G1 X6.478 Y3.650 E0.0514
G1 X7.186 Y3.650 E0.0514
G1 X7.686 Y4.150 E0.0514
G1 X8.393 Y4.150 E0.0514
G1 X7.893 Y3.650 E0.0514
G1 X8.600 Y3.650 E0.0514
G1 X9.100 Y4.150 E0.0514
G1 X9.807 Y4.150 E0.0514
G1 X9.307 Y3.650 E0.0514
G1 X10.014 Y3.650 E0.0514
G1 X10.514 Y4.150 E0.0514
G1 X11.221 Y4.150 E0.0514
G1 X10.721 Y3.650 E0.0514
G1 X11.428 Y3.650 E0.0514
G1 X11.928 Y4.150 E0.0514
G1 X12.635 Y4.150 E0.0514
G1 X12.135 Y3.650 E0.0514
G1 X12.842 Y3.650 E0.0514
G1 X13.342 Y4.150 E0.0514
G1 X14.050 Y4.150 E0.0514
G1 X13.550 Y3.650 E0.0514
G1 X14.257 Y3.650 E0.0514
G1 X14.757 Y4.150 E0.0514
G1 X15.464 Y4.150 E0.0514
G1 X14.964 Y3.650 E0.0514
G1 X15.671 Y3.650 E0.0514
G1 X16.171 Y4.150 E0.0514
G1 X16.878 Y4.150 E0.0514
G1 X16.378 Y3.650 E0.0514
G1 X17.085 Y3.650 E0.0514
G1 X17.585 Y4.150 E0.0514
G1 X18.292 Y4.150 E0.0514
G1 X17.792 Y3.650 E0.0514
G1 X18.499 Y3.650 E0.0514
G1 X18.999 Y4.150 E0.0514
G1 X19.706 Y4.150 E0.0514
G1 X19.206 Y3.650 E0.0514
G1 X19.913 Y3.650 E0.0514
G1 X20.413 Y4.150 E0.0514
G1 X21.121 Y4.150 E0.0514
G1 X20.621 Y3.650 E0.0514
G1 X21.328 Y3.650 E0.0514
G1 X21.828 Y4.150 E0.0514
G1 X22.535 Y4.150 E0.0514
G1 X22.035 Y3.650 E0.0514
G1 X22.742 Y3.650 E0.0514
G1 X23.242 Y4.150 E0.0514
G1 X23.949 Y4.150 E0.0514
G1 X23.449 Y3.650 E0.0514
G1 X24.156 Y3.650 E0.0514
G1 X24.656 Y4.150 E0.0514
G1 X25.363 Y4.150 E0.0514
G1 X24.863 Y3.650 E0.0514
G1 X25.570 Y3.650 E0.0514
G1 X26.070 Y4.150 E0.0514
G1 X26.777 Y4.150 E0.0514
G1 X26.277 Y3.650 E0.0514
G1 X26.985 Y3.650 E0.0514
G1 X27.485 Y4.150 E0.0514
G1 X28.192 Y4.150 E0.0514
G1 X27.692 Y3.650 E0.0514
G1 X28.399 Y3.650 E0.0514
G1 X28.899 Y4.150 E0.0514
G1 X29.606 Y4.150 E0.0514
G1 X29.106 Y3.650 E0.0514
G1 X29.813 Y3.650 E0.0514
G1 X30.313 Y4.150 E0.0514
G1 X31.020 Y4.150 E0.0514
G1 X30.520 Y3.650 E0.0514
G1 X31.227 Y3.650 E0.0514
G1 X31.727 Y4.150 E0.0514
G1 X32.434 Y4.150 E0.0514
G1 X31.934 Y3.650 E0.0514
G1 X32.641 Y3.650 E0.0514
G1 X33.141 Y4.150 E0.0514
G1 X33.848 Y4.150 E0.0514
G1 X33.348 Y3.650 E0.0514
G1 X34.056 Y3.650 E0.0514
G1 X34.556 Y4.150 E0.0514
G1 X35.263 Y4.150 E0.0514
G1 X34.763 Y3.650 E0.0514
G1 X35.470 Y3.650 E0.0514
G1 X35.970 Y4.150 E0.0514
G1 X36.677 Y4.150 E0.0514
G1 X36.177 Y3.650 E0.0514
G1 X36.884 Y3.650 E0.0514
G1 X37.384 Y4.150 E0.0514
