; G-Code generated by Simplify3D(R) Version 4.1.2
; Aug 3, 2020 at 12:39:42 PM
; Settings Summary
;   processName,Process1
;   applyToModels,Case 1,Case 2,Case 1(2),Case 2(2)
;   profileName,MakerBot Replicator 2 HBP (modified)
;   profileVersion,2020-04-21 14:45:34
;   baseProfile,MakerBot Replicator 2(2)
;   printMaterial,PLA
;   printQuality,Medium
;   printExtruders,
;   extruderName,Primary Extruder
;   extruderToolheadNumber,0
;   extruderDiameter,0.4
;   extruderAutoWidth,0
;   extruderWidth,0.5
;   extrusionMultiplier,1
;   extruderUseRetract,1
;   extruderRetractionDistance,1.9
;   extruderExtraRestartDistance,0
;   extruderRetractionZLift,0.5
;   extruderRetractionSpeed,1200
;   extruderUseCoasting,0
;   extruderCoastingDistance,0.2
;   extruderUseWipe,0
;   extruderWipeDistance,5
;   primaryExtruder,0
;   layerHeight,0.35
;   topSolidLayers,4
;   bottomSolidLayers,3
;   perimeterOutlines,2
;   printPerimetersInsideOut,1
;   startPointOption,3
;   startPointOriginX,140
;   startPointOriginY,0
;   sequentialIslands,0
;   spiralVaseMode,0
;   firstLayerHeightPercentage,100
;   firstLayerWidthPercentage,100
;   firstLayerUnderspeed,0.5
;   useRaft,0
;   raftExtruder,0
;   raftTopLayers,2
;   raftBaseLayers,1
;   raftOffset,1
;   raftSeparationDistance,0.14
;   raftTopInfill,90
;   aboveRaftSpeedMultiplier,0.3
;   useSkirt,0
;   skirtExtruder,0
;   skirtLayers,1
;   skirtOutlines,5
;   skirtOffset,0
;   usePrimePillar,0
;   primePillarExtruder,999
;   primePillarWidth,12
;   primePillarLocation,7
;   primePillarSpeedMultiplier,1
;   useOozeShield,0
;   oozeShieldExtruder,999
;   oozeShieldOffset,2
;   oozeShieldOutlines,1
;   oozeShieldSidewallShape,1
;   oozeShieldSidewallAngle,30
;   oozeShieldSpeedMultiplier,1
;   infillExtruder,0
;   internalInfillPattern,Rectilinear
;   externalInfillPattern,Rectilinear
;   infillPercentage,20
;   outlineOverlapPercentage,20
;   infillExtrusionWidthPercentage,100
;   minInfillLength,5
;   infillLayerInterval,1
;   internalInfillAngles,45,-45
;   overlapInternalInfillAngles,0
;   externalInfillAngles,45,-45
;   generateSupport,0
;   supportExtruder,0
;   supportInfillPercentage,30
;   supportExtraInflation,0.6
;   supportBaseLayers,0
;   denseSupportExtruder,0
;   denseSupportLayers,2
;   denseSupportInfillPercentage,70
;   supportLayerInterval,1
;   supportHorizontalPartOffset,0.3
;   supportUpperSeparationLayers,1
;   supportLowerSeparationLayers,1
;   supportType,0
;   supportGridSpacing,99
;   maxOverhangAngle,45
;   supportAngles,0
;   temperatureName,Primary Extruder,Heated Build Platform
;   temperatureNumber,0,0
;   temperatureSetpointCount,1,1
;   temperatureSetpointLayers,1,1
;   temperatureSetpointTemperatures,210,65
;   temperatureStabilizeAtStartup,1,1
;   temperatureHeatedBed,0,1
;   fanLayers,1,2
;   fanSpeeds,0,100
;   blipFanToFullPower,1
;   adjustSpeedForCooling,1
;   minSpeedLayerTime,15
;   minCoolingSpeedSlowdown,20
;   increaseFanForCooling,1
;   minFanLayerTime,45
;   maxCoolingFanSpeed,100
;   increaseFanForBridging,1
;   bridgingFanSpeed,100
;   use5D,1
;   relativeEdistances,1
;   allowEaxisZeroing,0
;   independentExtruderAxes,1
;   includeM10123,0
;   stickySupport,1
;   applyToolheadOffsets,0
;   gcodeXoffset,0
;   gcodeYoffset,0
;   gcodeZoffset,0
;   overrideMachineDefinition,1
;   machineTypeOverride,0
;   strokeXoverride,280
;   strokeYoverride,150
;   strokeZoverride,150
;   originOffsetXoverride,140
;   originOffsetYoverride,75
;   originOffsetZoverride,0
;   homeXdirOverride,1
;   homeYdirOverride,1
;   homeZdirOverride,-1
;   flipXoverride,1
;   flipYoverride,-1
;   flipZoverride,1
;   toolheadOffsets,0,0|0,0|0,0|0,0|0,0|0,0
;   overrideFirmwareConfiguration,1
;   firmwareTypeOverride,MakerBot/Sailfish Firmware
;   GPXconfigOverride,r2h
;   baudRateOverride,115200
;   overridePrinterModels,1
;   printerModelsOverride,MakerBot_Replicator2.stl
;   startingGcode,; **** Replicator 2 start.gcode ****,M73 P0 ; enable build progress,G162 X Y F3000 ; home XY maximum,G161 Z F1200 ; home Z minimum,G92 Z-5 ; set Z to -5,G1 Z0 ; move Z to 0,G28 ; better homing homie,M132 X Y Z A B ; recall home offsets,G1 X-145 Y-75 Z30 F9000 ; move to wait position off table,G130 X20 Y20 Z20 A20 B20 ; lower stepper Vrefs while heating,M126 S[fan_speed_pwm],M140 S[bed0_temperature] T0,M134 T0 ; stabilize bed temperature,M104 S[extruder0_temperature] T0,M133 T0 ; stabilize extruder temperature,G130 X127 Y127 Z40 A127 B127 ; default stepper Vrefs,G92 A0 ; zero extruder,G1 Z0.4 ; position nozzle,G1 E25 F300 ; purge nozzle,G1 X-140 Y-70 Z0.15 F1200 ; slow wipe,G1 X-135 Y-65 Z0.5 F1200 ; lift,G92 A0 ; zero extruder,M73 P1 ;@body (notify GPX body has started),; **** end of start.gcode ****
;   layerChangeGcode,
;   retractionGcode,
;   toolChangeGcode,
;   endingGcode,; **** Replicator 2 end.gcode ****,M73 P100 ; end build progress,G1 Z155 F1000 ; send Z axis to bottom of machine,M104 S0 T0 ; cool down extruder,M140 S0 T0 ; cool down HBP,M127 ; stop blower fan,G162 X Y F3000 ; home XY maximum,M18 ; disable stepper,M0 ; stop codes,M72 P1 ; play Ta-Da song,; **** end of end.gcode ****
;   exportFileFormat,gcode
;   celebration,0
;   celebrationSong,Random Song
;   postProcessing,
;   defaultSpeed,4800
;   outlineUnderspeed,0.5
;   solidInfillUnderspeed,1
;   supportUnderspeed,1
;   rapidXYspeed,9000
;   rapidZspeed,1200
;   minBridgingArea,50
;   bridgingExtraInflation,0
;   bridgingExtrusionMultiplier,1
;   bridgingSpeedMultiplier,0.8
;   useFixedBridgingAngle,0
;   fixedBridgingAngle,0
;   applyBridgingToPerimeters,0
;   filamentDiameters,1.75|1.75|1.75|1.75|1.75|1.75
;   filamentPricesPerKg,46|46|46|46|46|46
;   filamentDensities,1.25|1.25|1.25|1.25|1.25|1.25
;   useMinPrintHeight,0
;   minPrintHeight,0
;   useMaxPrintHeight,0
;   maxPrintHeight,4.84
;   useDiaphragm,0
;   diaphragmLayerInterval,20
;   robustSlicing,1
;   mergeAllIntoSolid,0
;   onlyRetractWhenCrossingOutline,0
;   retractBetweenLayers,0
;   useRetractionMinTravel,1
;   retractionMinTravel,7
;   retractWhileWiping,1
;   onlyWipeOutlines,1
;   avoidCrossingOutline,0
;   maxMovementDetourFactor,3
;   toolChangeRetractionDistance,12
;   toolChangeExtraRestartDistance,-0.5
;   toolChangeRetractionSpeed,600
;   externalThinWallType,0
;   internalThinWallType,0
;   thinWallAllowedOverlapPercentage,10
;   singleExtrusionMinLength,1
;   singleExtrusionMinPrintingWidthPercentage,50
;   singleExtrusionMaxPrintingWidthPercentage,200
;   singleExtrusionEndpointExtension,0.2
;   horizontalSizeCompensation,0
G90
M83
; **** Replicator 2 start.gcode ****
M73 P0 ; enable build progress
G162 X Y F3000 ; home XY maximum
G161 Z F1200 ; home Z minimum
G92 Z-5 ; set Z to -5
G1 Z0 ; move Z to 0
G28 ; better homing homie
M132 X Y Z A B ; recall home offsets
G1 X-145 Y-75 Z30 F9000 ; move to wait position off table
G130 X20 Y20 Z20 A20 B20 ; lower stepper Vrefs while heating
M127
M140 S65 T0
M134 T0 ; stabilize bed temperature
M104 S210 T0
M133 T0 ; stabilize extruder temperature
G130 X127 Y127 Z40 A127 B127 ; default stepper Vrefs
G92 A0 ; zero extruder
G1 Z0.4 ; position nozzle
G1 E25 F300 ; purge nozzle
G1 X-140 Y-70 Z0.15 F1200 ; slow wipe
G1 X-135 Y-65 Z0.5 F1200 ; lift
G92 A0 ; zero extruder
M73 P1 ;@body (notify GPX body has started)
; **** end of start.gcode ****
; process Process1
; layer 1, Z = 0.350
M135 T0
G1 E-1.9000 F1200
; feature inner perimeter
; tool H0.350 W0.500
G1 Z0.500 F1200
G1 X49.520 Y-3.250 F9000
G1 Z0.350 F1200
G1 E1.9000 F1200
G1 X3.250 Y-3.250 E3.3664 F1800
G1 X3.250 Y-35.850 E2.3719
G1 X49.520 Y-35.850 E3.3664
G1 X49.520 Y-3.250 E2.3719
; feature outer perimeter
G1 X50.020 Y-2.750 F9000
G1 X2.750 Y-2.750 E3.4392 F1200
G1 X2.750 Y-36.350 E2.4446
G1 X50.020 Y-36.350 E3.4392
G1 X50.020 Y-2.750 E2.4446
G1 E-1.9000 F1200
; feature solid layer
G1 Z0.850 F1200
G1 X48.696 Y-35.450 F9000
G1 Z0.350 F1200
G1 E1.9000 F1200
G1 X49.120 Y-35.026 E0.0437 F2400
G1 X49.120 Y-34.319 E0.0514
G1 X47.989 Y-35.450 E0.1164
G1 X47.282 Y-35.450 E0.0514
G1 X49.120 Y-33.612 E0.1892
G1 X49.120 Y-32.904 E0.0514
G1 X46.574 Y-35.450 E0.2619
G1 X45.867 Y-35.450 E0.0514
G1 X49.120 Y-32.197 E0.3347
G1 X49.120 Y-31.490 E0.0514
G1 X45.160 Y-35.450 E0.4074
G1 X44.453 Y-35.450 E0.0514
G1 X49.120 Y-30.783 E0.4802
G1 X49.120 Y-30.076 E0.0514
G1 X43.746 Y-35.450 E0.5529
G1 X43.039 Y-35.450 E0.0514
G1 X49.120 Y-29.369 E0.6257
G1 X49.120 Y-28.662 E0.0514
G1 X42.332 Y-35.450 E0.6985
G1 X41.625 Y-35.450 E0.0514
G1 X49.120 Y-27.955 E0.7712
G1 X49.120 Y-27.248 E0.0514
G1 X40.918 Y-35.450 E0.8440
G1 X40.210 Y-35.450 E0.0514
G1 X49.120 Y-26.540 E0.9167
G1 X49.120 Y-25.833 E0.0514
G1 X39.503 Y-35.450 E0.9895
G1 X38.796 Y-35.450 E0.0514
G1 X49.120 Y-25.126 E1.0622
G1 X49.120 Y-24.419 E0.0514
G1 X38.089 Y-35.450 E1.1350
G1 X37.382 Y-35.450 E0.0514
G1 X49.120 Y-23.712 E1.2078
G1 X49.120 Y-23.005 E0.0514
G1 X36.675 Y-35.450 E1.2805
G1 X35.968 Y-35.450 E0.0514
G1 X49.120 Y-22.298 E1.3533
G1 X49.120 Y-21.591 E0.0514
G1 X35.261 Y-35.450 E1.4260
G1 X34.554 Y-35.450 E0.0514
G1 X49.120 Y-20.884 E1.4988
G1 X49.120 Y-20.176 E0.0514
G1 X33.846 Y-35.450 E1.5715
G1 X33.139 Y-35.450 E0.0514
G1 X49.120 Y-19.469 E1.6443
G1 X49.120 Y-18.762 E0.0514
G1 X32.432 Y-35.450 E1.7171
G1 X31.725 Y-35.450 E0.0514
G1 X49.120 Y-18.055 E1.7898
G1 X49.120 Y-17.348 E0.0514
G1 X31.018 Y-35.450 E1.8626
G1 X30.311 Y-35.450 E0.0514
G1 X49.120 Y-16.641 E1.9353
G1 X49.120 Y-15.934 E0.0514
G1 X29.604 Y-35.450 E2.0081
G1 X28.897 Y-35.450 E0.0514
G1 X49.120 Y-15.227 E2.0808
G1 X49.120 Y-14.520 E0.0514
G1 X28.190 Y-35.450 E2.1536
G1 X27.483 Y-35.450 E0.0514
G1 X49.120 Y-13.813 E2.2263
G1 X49.120 Y-13.105 E0.0514
G1 X26.775 Y-35.450 E2.2991
G1 X26.068 Y-35.450 E0.0514
G1 X49.120 Y-12.398 E2.3719
G1 X49.120 Y-11.691 E0.0514
G1 X25.361 Y-35.450 E2.4446
G1 X24.654 Y-35.450 E0.0514
G1 X49.120 Y-10.984 E2.5174
G1 X49.120 Y-10.277 E0.0514
G1 X23.947 Y-35.450 E2.5901
G1 X23.240 Y-35.450 E0.0514
G1 X49.120 Y-9.570 E2.6629
G1 X49.120 Y-8.863 E0.0514
G1 X22.533 Y-35.450 E2.7356
G1 X21.826 Y-35.450 E0.0514
G1 X49.120 Y-8.156 E2.8084
G1 X49.120 Y-7.449 E0.0514
G1 X21.119 Y-35.450 E2.8812
G1 X20.411 Y-35.450 E0.0514
G1 X49.120 Y-6.741 E2.9539
G1 X49.120 Y-6.034 E0.0514
G1 X19.704 Y-35.450 E3.0267
G1 X18.997 Y-35.450 E0.0514
G1 X49.120 Y-5.327 E3.0994
G1 X49.120 Y-4.620 E0.0514
G1 X18.290 Y-35.450 E3.1722
G1 X17.583 Y-35.450 E0.0514
G1 X49.120 Y-3.913 E3.2449
G1 X49.120 Y-3.650 E0.0191
G1 X48.676 Y-3.650 E0.0323
G1 X16.876 Y-35.450 E3.2720
G1 X16.169 Y-35.450 E0.0514
G1 X47.969 Y-3.650 E3.2720
G1 X47.262 Y-3.650 E0.0514
G1 X15.462 Y-35.450 E3.2720
G1 X14.755 Y-35.450 E0.0514
G1 X46.555 Y-3.650 E3.2720
G1 X45.847 Y-3.650 E0.0514
G1 X14.047 Y-35.450 E3.2720
G1 X13.340 Y-35.450 E0.0514
G1 X45.140 Y-3.650 E3.2720
G1 X44.433 Y-3.650 E0.0514
G1 X12.633 Y-35.450 E3.2720
G1 X11.926 Y-35.450 E0.0514
G1 X43.726 Y-3.650 E3.2720
G1 X43.019 Y-3.650 E0.0514
G1 X11.219 Y-35.450 E3.2720
G1 X10.512 Y-35.450 E0.0514
G1 X42.312 Y-3.650 E3.2720
G1 X41.605 Y-3.650 E0.0514
G1 X9.805 Y-35.450 E3.2720
G1 X9.098 Y-35.450 E0.0514
G1 X40.898 Y-3.650 E3.2720
G1 X40.191 Y-3.650 E0.0514
G1 X8.391 Y-35.450 E3.2720
G1 X7.684 Y-35.450 E0.0514
G1 X39.484 Y-3.650 E3.2720
G1 X38.776 Y-3.650 E0.0514
G1 X6.976 Y-35.450 E3.2720
G1 X6.269 Y-35.450 E0.0514
G1 X38.069 Y-3.650 E3.2720
G1 X37.362 Y-3.650 E0.0514
G1 X5.562 Y-35.450 E3.2720
G1 X4.855 Y-35.450 E0.0514
G1 X36.655 Y-3.650 E3.2720
G1 X35.948 Y-3.650 E0.0514
G1 X4.148 Y-35.450 E3.2720
G1 X3.650 Y-35.450 E0.0362
G1 X3.650 Y-35.241 E0.0152
G1 X35.241 Y-3.650 E3.2505
G1 X34.534 Y-3.650 E0.0514
G1 X3.650 Y-34.534 E3.1777
G1 X3.650 Y-33.827 E0.0514
G1 X33.827 Y-3.650 E3.1050
G1 X33.120 Y-3.650 E0.0514
G1 X3.650 Y-33.120 E3.0322
G1 X3.650 Y-32.412 E0.0514
G1 X32.412 Y-3.650 E2.9595
G1 X31.705 Y-3.650 E0.0514
G1 X3.650 Y-31.705 E2.8867
G1 X3.650 Y-30.998 E0.0514
G1 X30.998 Y-3.650 E2.8140
G1 X30.291 Y-3.650 E0.0514
G1 X3.650 Y-30.291 E2.7412
G1 X3.650 Y-29.584 E0.0514
G1 X29.584 Y-3.650 E2.6684
G1 X28.877 Y-3.650 E0.0514
G1 X3.650 Y-28.877 E2.5957
G1 X3.650 Y-28.170 E0.0514
G1 X28.170 Y-3.650 E2.5229
G1 X27.463 Y-3.650 E0.0514
G1 X3.650 Y-27.463 E2.4502
G1 X3.650 Y-26.756 E0.0514
G1 X26.756 Y-3.650 E2.3774
G1 X26.048 Y-3.650 E0.0514
G1 X3.650 Y-26.049 E2.3047
G1 X3.650 Y-25.341 E0.0514
G1 X25.341 Y-3.650 E2.2319
G1 X24.634 Y-3.650 E0.0514
G1 X3.650 Y-24.634 E2.1591
G1 X3.650 Y-23.927 E0.0514
G1 X23.927 Y-3.650 E2.0864
G1 X23.220 Y-3.650 E0.0514
G1 X3.650 Y-23.220 E2.0136
G1 X3.650 Y-22.513 E0.0514
G1 X22.513 Y-3.650 E1.9409
G1 X21.806 Y-3.650 E0.0514
G1 X3.650 Y-21.806 E1.8681
G1 X3.650 Y-21.099 E0.0514
G1 X21.099 Y-3.650 E1.7954
G1 X20.392 Y-3.650 E0.0514
G1 X3.650 Y-20.392 E1.7226
G1 X3.650 Y-19.685 E0.0514
G1 X19.685 Y-3.650 E1.6498
G1 X18.977 Y-3.650 E0.0514
G1 X3.650 Y-18.977 E1.5771
G1 X3.650 Y-18.270 E0.0514
G1 X18.270 Y-3.650 E1.5043
G1 X17.563 Y-3.650 E0.0514
G1 X3.650 Y-17.563 E1.4316
G1 X3.650 Y-16.856 E0.0514
G1 X16.856 Y-3.650 E1.3588
G1 X16.149 Y-3.650 E0.0514
G1 X3.650 Y-16.149 E1.2861
G1 X3.650 Y-15.442 E0.0514
G1 X15.442 Y-3.650 E1.2133
G1 X14.735 Y-3.650 E0.0514
G1 X3.650 Y-14.735 E1.1406
G1 X3.650 Y-14.028 E0.0514
G1 X14.028 Y-3.650 E1.0678
G1 X13.321 Y-3.650 E0.0514
G1 X3.650 Y-13.321 E0.9950
G1 X3.650 Y-12.613 E0.0514
G1 X12.613 Y-3.650 E0.9223
G1 X11.906 Y-3.650 E0.0514
G1 X3.650 Y-11.906 E0.8495
G1 X3.650 Y-11.199 E0.0514
G1 X11.199 Y-3.650 E0.7768
G1 X10.492 Y-3.650 E0.0514
G1 X3.650 Y-10.492 E0.7040
G1 X3.650 Y-9.785 E0.0514
G1 X9.785 Y-3.650 E0.6313
G1 X9.078 Y-3.650 E0.0514
G1 X3.650 Y-9.078 E0.5585
G1 X3.650 Y-8.371 E0.0514
G1 X8.371 Y-3.650 E0.4857
G1 X7.664 Y-3.650 E0.0514
G1 X3.650 Y-7.664 E0.4130
G1 X3.650 Y-6.957 E0.0514
G1 X6.957 Y-3.650 E0.3402
G1 X6.250 Y-3.650 E0.0514
G1 X3.650 Y-6.250 E0.2675
G1 X3.650 Y-5.542 E0.0514
G1 X5.542 Y-3.650 E0.1947
G1 X4.835 Y-3.650 E0.0514
G1 X3.650 Y-4.835 E0.1220
G1 X3.650 Y-4.128 E0.0514
G1 X4.128 Y-3.650 E0.0492
G1 E-1.9000 F1200
; feature inner perimeter
G1 Z0.850 F1200
G1 X49.520 Y3.250 F9000
G1 Z0.350 F1200
G1 E1.9000 F1200
G1 X49.520 Y35.850 E2.3719 F1800
G1 X3.250 Y35.850 E3.3664
G1 X3.250 Y3.250 E2.3719
G1 X49.520 Y3.250 E3.3664
; feature outer perimeter
G1 X50.020 Y2.750 F9000
G1 X50.020 Y36.350 E2.4446 F1200
G1 X2.750 Y36.350 E3.4392
G1 X2.750 Y2.750 E2.4446
G1 X50.020 Y2.750 E3.4392
; feature solid layer
G1 X48.905 Y3.650 F9000
G1 X49.120 Y3.865 E0.0221 F2400
G1 X49.120 Y4.572 E0.0514
G1 X48.198 Y3.650 E0.0949
G1 X47.491 Y3.650 E0.0514
G1 X49.120 Y5.279 E0.1677
G1 X49.120 Y5.986 E0.0514
G1 X46.784 Y3.650 E0.2404
G1 X46.076 Y3.650 E0.0514
G1 X49.120 Y6.694 E0.3132
G1 X49.120 Y7.401 E0.0514
G1 X45.369 Y3.650 E0.3859
G1 X44.662 Y3.650 E0.0514
G1 X49.120 Y8.108 E0.4587
G1 X49.120 Y8.815 E0.0514
G1 X43.955 Y3.650 E0.5314
G1 X43.248 Y3.650 E0.0514
G1 X49.120 Y9.522 E0.6042
G1 X49.120 Y10.229 E0.0514
G1 X42.541 Y3.650 E0.6769
G1 X41.834 Y3.650 E0.0514
G1 X49.120 Y10.936 E0.7497
G1 X49.120 Y11.643 E0.0514
G1 X41.127 Y3.650 E0.8225
G1 X40.420 Y3.650 E0.0514
G1 X49.120 Y12.350 E0.8952
G1 X49.120 Y13.058 E0.0514
G1 X39.712 Y3.650 E0.9680
G1 X39.005 Y3.650 E0.0514
G1 X49.120 Y13.765 E1.0407
G1 X49.120 Y14.472 E0.0514
G1 X38.298 Y3.650 E1.1135
G1 X37.591 Y3.650 E0.0514
G1 X49.120 Y15.179 E1.1862
G1 X49.120 Y15.886 E0.0514
G1 X36.884 Y3.650 E1.2590
G1 X36.177 Y3.650 E0.0514
G1 X49.120 Y16.593 E1.3318
G1 X49.120 Y17.300 E0.0514
G1 X35.470 Y3.650 E1.4045
G1 X34.763 Y3.650 E0.0514
G1 X49.120 Y18.007 E1.4773
G1 X49.120 Y18.714 E0.0514
G1 X34.056 Y3.650 E1.5500
G1 X33.348 Y3.650 E0.0514
G1 X49.120 Y19.422 E1.6228
G1 X49.120 Y20.129 E0.0514
G1 X32.641 Y3.650 E1.6955
G1 X31.934 Y3.650 E0.0514
G1 X49.120 Y20.836 E1.7683
G1 X49.120 Y21.543 E0.0514
G1 X31.227 Y3.650 E1.8411
G1 X30.520 Y3.650 E0.0514
G1 X49.120 Y22.250 E1.9138
G1 X49.120 Y22.957 E0.0514
G1 X29.813 Y3.650 E1.9866
G1 X29.106 Y3.650 E0.0514
G1 X49.120 Y23.664 E2.0593
G1 X49.120 Y24.371 E0.0514
G1 X28.399 Y3.650 E2.1321
G1 X27.692 Y3.650 E0.0514
G1 X49.120 Y25.078 E2.2048
G1 X49.120 Y25.785 E0.0514
G1 X26.985 Y3.650 E2.2776
G1 X26.277 Y3.650 E0.0514
