; G-Code generated by Simplify3D(R) Version 4.1.2
; Aug 3, 2020 at 12:40:27 PM
; Settings Summary
;   processName,Process1
;   applyToModels,Case 1,Case 2,Case 1(2),Case 2(2),Case 1(3),Case 2(3),Case 1(2)(2),Case 2(2)(2),Case 1(4),Case 2(4),Case 1(2)(3),Case 2(2)(3),Case 1(3)(2),Case 2(3)(2),Case 1(2)(2)(2),Case 2(2)(2)(2)
;   profileName,MakerBot Replicator 2 HBP (modified)
;   profileVersion,2020-04-21 14:45:34
;   baseProfile,MakerBot Replicator 2(2)
;   printMaterial,PLA
;   printQuality,Medium
;   printExtruders,
;   extruderName,Primary Extruder
;   extruderToolheadNumber,0
;   extruderDiameter,0.4
;   extruderAutoWidth,0
;   extruderWidth,0.5
;   extrusionMultiplier,1
;   extruderUseRetract,1
;   extruderRetractionDistance,1.9
;   extruderExtraRestartDistance,0
;   extruderRetractionZLift,0.5
;   extruderRetractionSpeed,1200
;   extruderUseCoasting,0
;   extruderCoastingDistance,0.2
;   extruderUseWipe,0
;   extruderWipeDistance,5
;   primaryExtruder,0
;   layerHeight,0.35
;   topSolidLayers,4
;   bottomSolidLayers,3
;   perimeterOutlines,2
;   printPerimetersInsideOut,1
;   startPointOption,3
;   startPointOriginX,140
;   startPointOriginY,0
;   sequentialIslands,0
;   spiralVaseMode,0
;   firstLayerHeightPercentage,100
;   firstLayerWidthPercentage,100
;   firstLayerUnderspeed,0.5
;   useRaft,0
;   raftExtruder,0
;   raftTopLayers,2
;   raftBaseLayers,1
;   raftOffset,1
;   raftSeparationDistance,0.14
;   raftTopInfill,90
;   aboveRaftSpeedMultiplier,0.3
;   useSkirt,0
;   skirtExtruder,0
;   skirtLayers,1
;   skirtOutlines,5
;   skirtOffset,0
;   usePrimePillar,0
;   primePillarExtruder,999
;   primePillarWidth,12
;   primePillarLocation,7
;   primePillarSpeedMultiplier,1
;   useOozeShield,0
;   oozeShieldExtruder,999
;   oozeShieldOffset,2
;   oozeShieldOutlines,1
;   oozeShieldSidewallShape,1
;   oozeShieldSidewallAngle,30
;   oozeShieldSpeedMultiplier,1
;   infillExtruder,0
;   internalInfillPattern,Rectilinear
;   externalInfillPattern,Rectilinear
;   infillPercentage,20
;   outlineOverlapPercentage,20
;   infillExtrusionWidthPercentage,100
;   minInfillLength,5
;   infillLayerInterval,1
;   internalInfillAngles,45,-45
;   overlapInternalInfillAngles,0
;   externalInfillAngles,45,-45
;   generateSupport,0
;   supportExtruder,0
;   supportInfillPercentage,30
;   supportExtraInflation,0.6
;   supportBaseLayers,0
;   denseSupportExtruder,0
;   denseSupportLayers,2
;   denseSupportInfillPercentage,70
;   supportLayerInterval,1
;   supportHorizontalPartOffset,0.3
;   supportUpperSeparationLayers,1
;   supportLowerSeparationLayers,1
;   supportType,0
;   supportGridSpacing,99
;   maxOverhangAngle,45
;   supportAngles,0
;   temperatureName,Primary Extruder,Heated Build Platform
;   temperatureNumber,0,0
;   temperatureSetpointCount,1,1
;   temperatureSetpointLayers,1,1
;   temperatureSetpointTemperatures,210,65
;   temperatureStabilizeAtStartup,1,1
;   temperatureHeatedBed,0,1
;   fanLayers,1,2
;   fanSpeeds,0,100
;   blipFanToFullPower,1
;   adjustSpeedForCooling,1
;   minSpeedLayerTime,15
;   minCoolingSpeedSlowdown,20
;   increaseFanForCooling,1
;   minFanLayerTime,45
;   maxCoolingFanSpeed,100
;   increaseFanForBridging,1
;   bridgingFanSpeed,100
;   use5D,1
;   relativeEdistances,1
;   allowEaxisZeroing,0
;   independentExtruderAxes,1
;   includeM10123,0
;   stickySupport,1
;   applyToolheadOffsets,0
;   gcodeXoffset,0
;   gcodeYoffset,0
;   gcodeZoffset,0
;   overrideMachineDefinition,1
;   machineTypeOverride,0
;   strokeXoverride,280
;   strokeYoverride,150
;   strokeZoverride,150
;   originOffsetXoverride,140
;   originOffsetYoverride,75
;   originOffsetZoverride,0
;   homeXdirOverride,1
;   homeYdirOverride,1
;   homeZdirOverride,-1
;   flipXoverride,1
;   flipYoverride,-1
;   flipZoverride,1
;   toolheadOffsets,0,0|0,0|0,0|0,0|0,0|0,0
;   overrideFirmwareConfiguration,1
;   firmwareTypeOverride,MakerBot/Sailfish Firmware
;   GPXconfigOverride,r2h
;   baudRateOverride,115200
;   overridePrinterModels,1
;   printerModelsOverride,MakerBot_Replicator2.stl
;   startingGcode,; **** Replicator 2 start.gcode ****,M73 P0 ; enable build progress,G162 X Y F3000 ; home XY maximum,G161 Z F1200 ; home Z minimum,G92 Z-5 ; set Z to -5,G1 Z0 ; move Z to 0,G28 ; better homing homie,M132 X Y Z A B ; recall home offsets,G1 X-145 Y-75 Z30 F9000 ; move to wait position off table,G130 X20 Y20 Z20 A20 B20 ; lower stepper Vrefs while heating,M126 S[fan_speed_pwm],M140 S[bed0_temperature] T0,M134 T0 ; stabilize bed temperature,M104 S[extruder0_temperature] T0,M133 T0 ; stabilize extruder temperature,G130 X127 Y127 Z40 A127 B127 ; default stepper Vrefs,G92 A0 ; zero extruder,G1 Z0.4 ; position nozzle,G1 E25 F300 ; purge nozzle,G1 X-140 Y-70 Z0.15 F1200 ; slow wipe,G1 X-135 Y-65 Z0.5 F1200 ; lift,G92 A0 ; zero extruder,M73 P1 ;@body (notify GPX body has started),; **** end of start.gcode ****
;   layerChangeGcode,
;   retractionGcode,
;   toolChangeGcode,
;   endingGcode,; **** Replicator 2 end.gcode ****,M73 P100 ; end build progress,G1 Z155 F1000 ; send Z axis to bottom of machine,M104 S0 T0 ; cool down extruder,M140 S0 T0 ; cool down HBP,M127 ; stop blower fan,G162 X Y F3000 ; home XY maximum,M18 ; disable stepper,M0 ; stop codes,M72 P1 ; play Ta-Da song,; **** end of end.gcode ****
;   exportFileFormat,gcode
;   celebration,0
;   celebrationSong,Random Song
;   postProcessing,
;   defaultSpeed,4800
;   outlineUnderspeed,0.5
;   solidInfillUnderspeed,1
;   supportUnderspeed,1
;   rapidXYspeed,9000
;   rapidZspeed,1200
;   minBridgingArea,50
;   bridgingExtraInflation,0
;   bridgingExtrusionMultiplier,1
;   bridgingSpeedMultiplier,0.8
;   useFixedBridgingAngle,0
;   fixedBridgingAngle,0
;   applyBridgingToPerimeters,0
;   filamentDiameters,1.75|1.75|1.75|1.75|1.75|1.75
;   filamentPricesPerKg,46|46|46|46|46|46
;   filamentDensities,1.25|1.25|1.25|1.25|1.25|1.25
;   useMinPrintHeight,0
;   minPrintHeight,0
;   useMaxPrintHeight,0
;   maxPrintHeight,4.84
;   useDiaphragm,0
;   diaphragmLayerInterval,20
;   robustSlicing,1
;   mergeAllIntoSolid,0
;   onlyRetractWhenCrossingOutline,0
;   retractBetweenLayers,0
;   useRetractionMinTravel,1
;   retractionMinTravel,7
;   retractWhileWiping,1
;   onlyWipeOutlines,1
;   avoidCrossingOutline,0
;   maxMovementDetourFactor,3
;   toolChangeRetractionDistance,12
;   toolChangeExtraRestartDistance,-0.5
;   toolChangeRetractionSpeed,600
;   externalThinWallType,0
;   internalThinWallType,0
;   thinWallAllowedOverlapPercentage,10
;   singleExtrusionMinLength,1
;   singleExtrusionMinPrintingWidthPercentage,50
;   singleExtrusionMaxPrintingWidthPercentage,200
;   singleExtrusionEndpointExtension,0.2
;   horizontalSizeCompensation,0
G90
M83
; **** Replicator 2 start.gcode ****
M73 P0 ; enable build progress
G162 X Y F3000 ; home XY maximum
G161 Z F1200 ; home Z minimum
G92 Z-5 ; set Z to -5
G1 Z0 ; move Z to 0
G28 ; better homing homie
M132 X Y Z A B ; recall home offsets
G1 X-145 Y-75 Z30 F9000 ; move to wait position off table
G130 X20 Y20 Z20 A20 B20 ; lower stepper Vrefs while heating
M127
M140 S65 T0
M134 T0 ; stabilize bed temperature
M104 S210 T0
M133 T0 ; stabilize extruder temperature
G130 X127 Y127 Z40 A127 B127 ; default stepper Vrefs
G92 A0 ; zero extruder
G1 Z0.4 ; position nozzle
G1 E25 F300 ; purge nozzle
G1 X-140 Y-70 Z0.15 F1200 ; slow wipe
G1 X-135 Y-65 Z0.5 F1200 ; lift
G92 A0 ; zero extruder
M73 P1 ;@body (notify GPX body has started)
; **** end of start.gcode ****
; process Process1
; layer 1, Z = 0.350
M135 T0
G1 E-1.9000 F1200
; feature inner perimeter
; tool H0.350 W0.500
G1 Z0.500 F1200
G1 X21.443 Y0.459 F9000
G1 Z0.350 F1200
G1 E1.9000 F1200
G1 X21.443 Y33.059 E2.3719 F1800
G1 X-24.827 Y33.059 E3.3664
G1 X-24.827 Y0.459 E2.3719
G1 X21.443 Y0.459 E3.3664
; feature outer perimeter
G1 X21.943 Y-0.041 F9000
G1 X21.943 Y33.559 E2.4446 F1200
G1 X-25.327 Y33.559 E3.4392
G1 X-25.327 Y-0.041 E2.4446
G1 X21.943 Y-0.041 E3.4392
; feature solid layer
G1 X21.013 Y0.859 F9000
G1 X21.043 Y0.889 E0.0030 F2400
G1 X21.043 Y1.596 E0.0514
G1 X20.306 Y0.859 E0.0758
G1 X19.599 Y0.859 E0.0514
G1 X21.043 Y2.303 E0.1486
G1 X21.043 Y3.010 E0.0514
G1 X18.892 Y0.859 E0.2213
G1 X18.185 Y0.859 E0.0514
G1 X21.043 Y3.717 E0.2941
G1 X21.043 Y4.424 E0.0514
G1 X17.478 Y0.859 E0.3668
G1 X16.771 Y0.859 E0.0514
G1 X21.043 Y5.132 E0.4396
G1 X21.043 Y5.839 E0.0514
G1 X16.063 Y0.859 E0.5123
G1 X15.356 Y0.859 E0.0514
G1 X21.043 Y6.546 E0.5851
G1 X21.043 Y7.253 E0.0514
G1 X14.649 Y0.859 E0.6579
G1 X13.942 Y0.859 E0.0514
G1 X21.043 Y7.960 E0.7306
G1 X21.043 Y8.667 E0.0514
G1 X13.235 Y0.859 E0.8034
G1 X12.528 Y0.859 E0.0514
G1 X21.043 Y9.374 E0.8761
G1 X21.043 Y10.081 E0.0514
G1 X11.821 Y0.859 E0.9489
G1 X11.114 Y0.859 E0.0514
G1 X21.043 Y10.788 E1.0216
G1 X21.043 Y11.496 E0.0514
G1 X10.407 Y0.859 E1.0944
G1 X9.700 Y0.859 E0.0514
G1 X21.043 Y12.203 E1.1671
G1 X21.043 Y12.910 E0.0514
G1 X8.992 Y0.859 E1.2399
G1 X8.285 Y0.859 E0.0514
G1 X21.043 Y13.617 E1.3127
G1 X21.043 Y14.324 E0.0514
G1 X7.578 Y0.859 E1.3854
G1 X6.871 Y0.859 E0.0514
G1 X21.043 Y15.031 E1.4582
G1 X21.043 Y15.738 E0.0514
G1 X6.164 Y0.859 E1.5309
G1 X5.457 Y0.859 E0.0514
G1 X21.043 Y16.445 E1.6037
G1 X21.043 Y17.152 E0.0514
G1 X4.750 Y0.859 E1.6764
G1 X4.043 Y0.859 E0.0514
G1 X21.043 Y17.859 E1.7492
G1 X21.043 Y18.567 E0.0514
G1 X3.336 Y0.859 E1.8220
G1 X2.628 Y0.859 E0.0514
G1 X21.043 Y19.274 E1.8947
G1 X21.043 Y19.981 E0.0514
G1 X1.921 Y0.859 E1.9675
G1 X1.214 Y0.859 E0.0514
G1 X21.043 Y20.688 E2.0402
G1 X21.043 Y21.395 E0.0514
G1 X0.507 Y0.859 E2.1130
G1 X-0.200 Y0.859 E0.0514
G1 X21.043 Y22.102 E2.1857
G1 X21.043 Y22.809 E0.0514
G1 X-0.907 Y0.859 E2.2585
G1 X-1.614 Y0.859 E0.0514
G1 X21.043 Y23.516 E2.3313
G1 X21.043 Y24.223 E0.0514
G1 X-2.321 Y0.859 E2.4040
G1 X-3.028 Y0.859 E0.0514
G1 X21.043 Y24.931 E2.4768
G1 X21.043 Y25.638 E0.0514
G1 X-3.736 Y0.859 E2.5495
G1 X-4.443 Y0.859 E0.0514
G1 X21.043 Y26.345 E2.6223
G1 X21.043 Y27.052 E0.0514
G1 X-5.150 Y0.859 E2.6950
G1 X-5.857 Y0.859 E0.0514
G1 X21.043 Y27.759 E2.7678
G1 X21.043 Y28.466 E0.0514
G1 X-6.564 Y0.859 E2.8405
G1 X-7.271 Y0.859 E0.0514
G1 X21.043 Y29.173 E2.9133
G1 X21.043 Y29.880 E0.0514
G1 X-7.978 Y0.859 E2.9861
G1 X-8.685 Y0.859 E0.0514
G1 X21.043 Y30.587 E3.0588
G1 X21.043 Y31.295 E0.0514
G1 X-9.392 Y0.859 E3.1316
G1 X-10.099 Y0.859 E0.0514
G1 X21.043 Y32.002 E3.2043
G1 X21.043 Y32.659 E0.0479
G1 X20.993 Y32.659 E0.0036
G1 X-10.807 Y0.859 E3.2720
G1 X-11.514 Y0.859 E0.0514
G1 X20.286 Y32.659 E3.2720
G1 X19.579 Y32.659 E0.0514
G1 X-12.221 Y0.859 E3.2720
G1 X-12.928 Y0.859 E0.0514
G1 X18.872 Y32.659 E3.2720
G1 X18.165 Y32.659 E0.0514
G1 X-13.635 Y0.859 E3.2720
G1 X-14.342 Y0.859 E0.0514
G1 X17.458 Y32.659 E3.2720
G1 X16.751 Y32.659 E0.0514
G1 X-15.049 Y0.859 E3.2720
G1 X-15.756 Y0.859 E0.0514
G1 X16.044 Y32.659 E3.2720
G1 X15.337 Y32.659 E0.0514
G1 X-16.463 Y0.859 E3.2720
G1 X-17.171 Y0.859 E0.0514
G1 X14.629 Y32.659 E3.2720
G1 X13.922 Y32.659 E0.0514
G1 X-17.878 Y0.859 E3.2720
G1 X-18.585 Y0.859 E0.0514
G1 X13.215 Y32.659 E3.2720
G1 X12.508 Y32.659 E0.0514
G1 X-19.292 Y0.859 E3.2720
G1 X-19.999 Y0.859 E0.0514
G1 X11.801 Y32.659 E3.2720
G1 X11.094 Y32.659 E0.0514
G1 X-20.706 Y0.859 E3.2720
G1 X-21.413 Y0.859 E0.0514
G1 X10.387 Y32.659 E3.2720
G1 X9.680 Y32.659 E0.0514
G1 X-22.120 Y0.859 E3.2720
G1 X-22.827 Y0.859 E0.0514
G1 X8.973 Y32.659 E3.2720
G1 X8.265 Y32.659 E0.0514
G1 X-23.534 Y0.859 E3.2720
G1 X-24.242 Y0.859 E0.0514
G1 X7.558 Y32.659 E3.2720
G1 X6.851 Y32.659 E0.0514
G1 X-24.427 Y1.381 E3.2183
G1 X-24.427 Y2.088 E0.0514
G1 X6.144 Y32.659 E3.1456
G1 X5.437 Y32.659 E0.0514
G1 X-24.427 Y2.795 E3.0728
G1 X-24.427 Y3.502 E0.0514
G1 X4.730 Y32.659 E3.0001
G1 X4.023 Y32.659 E0.0514
G1 X-24.427 Y4.209 E2.9273
G1 X-24.427 Y4.916 E0.0514
G1 X3.316 Y32.659 E2.8546
G1 X2.609 Y32.659 E0.0514
G1 X-24.427 Y5.624 E2.7818
G1 X-24.427 Y6.331 E0.0514
G1 X1.902 Y32.659 E2.7090
G1 X1.194 Y32.659 E0.0514
G1 X-24.427 Y7.038 E2.6363
G1 X-24.427 Y7.745 E0.0514
G1 X0.487 Y32.659 E2.5635
G1 X-0.220 Y32.659 E0.0514
G1 X-24.427 Y8.452 E2.4908
G1 X-24.427 Y9.159 E0.0514
G1 X-0.927 Y32.659 E2.4180
G1 X-1.634 Y32.659 E0.0514
G1 X-24.427 Y9.866 E2.3453
G1 X-24.427 Y10.573 E0.0514
G1 X-2.341 Y32.659 E2.2725
G1 X-3.048 Y32.659 E0.0514
G1 X-24.427 Y11.280 E2.1998
G1 X-24.427 Y11.987 E0.0514
G1 X-3.755 Y32.659 E2.1270
G1 X-4.462 Y32.659 E0.0514
G1 X-24.427 Y12.695 E2.0542
G1 X-24.427 Y13.402 E0.0514
G1 X-5.170 Y32.659 E1.9815
G1 X-5.877 Y32.659 E0.0514
G1 X-24.427 Y14.109 E1.9087
G1 X-24.427 Y14.816 E0.0514
G1 X-6.584 Y32.659 E1.8360
G1 X-7.291 Y32.659 E0.0514
G1 X-24.427 Y15.523 E1.7632
G1 X-24.427 Y16.230 E0.0514
G1 X-7.998 Y32.659 E1.6905
G1 X-8.705 Y32.659 E0.0514
G1 X-24.427 Y16.937 E1.6177
G1 X-24.427 Y17.644 E0.0514
G1 X-9.412 Y32.659 E1.5449
G1 X-10.119 Y32.659 E0.0514
G1 X-24.427 Y18.351 E1.4722
G1 X-24.427 Y19.059 E0.0514
G1 X-10.826 Y32.659 E1.3994
G1 X-11.533 Y32.659 E0.0514
G1 X-24.427 Y19.766 E1.3267
G1 X-24.427 Y20.473 E0.0514
G1 X-12.241 Y32.659 E1.2539
G1 X-12.948 Y32.659 E0.0514
G1 X-24.427 Y21.180 E1.1812
G1 X-24.427 Y21.887 E0.0514
G1 X-13.655 Y32.659 E1.1084
G1 X-14.362 Y32.659 E0.0514
G1 X-24.427 Y22.594 E1.0356
G1 X-24.427 Y23.301 E0.0514
G1 X-15.069 Y32.659 E0.9629
G1 X-15.776 Y32.659 E0.0514
G1 X-24.427 Y24.008 E0.8901
G1 X-24.427 Y24.715 E0.0514
G1 X-16.483 Y32.659 E0.8174
G1 X-17.190 Y32.659 E0.0514
G1 X-24.427 Y25.423 E0.7446
G1 X-24.427 Y26.130 E0.0514
G1 X-17.897 Y32.659 E0.6719
G1 X-18.605 Y32.659 E0.0514
G1 X-24.427 Y26.837 E0.5991
G1 X-24.427 Y27.544 E0.0514
G1 X-19.312 Y32.659 E0.5264
G1 X-20.019 Y32.659 E0.0514
G1 X-24.427 Y28.251 E0.4536
G1 X-24.427 Y28.958 E0.0514
G1 X-20.726 Y32.659 E0.3808
G1 X-21.433 Y32.659 E0.0514
G1 X-24.427 Y29.665 E0.3081
G1 X-24.427 Y30.372 E0.0514
G1 X-22.140 Y32.659 E0.2353
G1 X-22.847 Y32.659 E0.0514
G1 X-24.427 Y31.079 E0.1626
G1 X-24.427 Y31.786 E0.0514
G1 X-23.554 Y32.659 E0.0898
G1 X-24.261 Y32.659 E0.0514
G1 X-24.427 Y32.494 E0.0171
G1 E-1.9000 F1200
; feature inner perimeter
G1 Z0.850 F1200
G1 X-31.327 Y0.459 F9000
G1 Z0.350 F1200
G1 E1.9000 F1200
G1 X-31.327 Y33.059 E2.3719 F1800
G1 X-77.597 Y33.059 E3.3664
G1 X-77.597 Y0.459 E2.3719
G1 X-31.327 Y0.459 E3.3664
; feature outer perimeter
G1 X-30.827 Y-0.041 F9000
G1 X-30.827 Y33.559 E2.4446 F1200
G1 X-78.097 Y33.559 E3.4392
G1 X-78.097 Y-0.041 E2.4446
G1 X-30.827 Y-0.041 E3.4392
; feature solid layer
G1 X-32.020 Y0.859 F9000
G1 X-31.727 Y1.152 E0.0301 F2400
G1 X-31.727 Y1.859 E0.0514
G1 X-32.727 Y0.859 E0.1029
G1 X-33.434 Y0.859 E0.0514
G1 X-31.727 Y2.566 E0.1756
G1 X-31.727 Y3.273 E0.0514
G1 X-34.141 Y0.859 E0.2484
G1 X-34.848 Y0.859 E0.0514
G1 X-31.727 Y3.980 E0.3211
G1 X-31.727 Y4.687 E0.0514
G1 X-35.555 Y0.859 E0.3939
G1 X-36.262 Y0.859 E0.0514
G1 X-31.727 Y5.395 E0.4666
G1 X-31.727 Y6.102 E0.0514
G1 X-36.970 Y0.859 E0.5394
G1 X-37.677 Y0.859 E0.0514
G1 X-31.727 Y6.809 E0.6122
G1 X-31.727 Y7.516 E0.0514
G1 X-38.384 Y0.859 E0.6849
G1 X-39.091 Y0.859 E0.0514
G1 X-31.727 Y8.223 E0.7577
G1 X-31.727 Y8.930 E0.0514
G1 X-39.798 Y0.859 E0.8304
G1 X-40.505 Y0.859 E0.0514
G1 X-31.727 Y9.637 E0.9032
G1 X-31.727 Y10.344 E0.0514
G1 X-41.212 Y0.859 E0.9759
G1 X-41.919 Y0.859 E0.0514
G1 X-31.727 Y11.051 E1.0487
G1 X-31.727 Y11.759 E0.0514
G1 X-42.626 Y0.859 E1.1215
G1 X-43.333 Y0.859 E0.0514
G1 X-31.727 Y12.466 E1.1942
G1 X-31.727 Y13.173 E0.0514
G1 X-44.041 Y0.859 E1.2670
G1 X-44.748 Y0.859 E0.0514
G1 X-31.727 Y13.880 E1.3397
G1 X-31.727 Y14.587 E0.0514
G1 X-45.455 Y0.859 E1.4125
G1 X-46.162 Y0.859 E0.0514
G1 X-31.727 Y15.294 E1.4852
G1 X-31.727 Y16.001 E0.0514
G1 X-46.869 Y0.859 E1.5580
G1 X-47.576 Y0.859 E0.0514
G1 X-31.727 Y16.708 E1.6308
G1 X-31.727 Y17.415 E0.0514
G1 X-48.283 Y0.859 E1.7035
G1 X-48.990 Y0.859 E0.0514
G1 X-31.727 Y18.123 E1.7763
G1 X-31.727 Y18.830 E0.0514
G1 X-49.697 Y0.859 E1.8490
G1 X-50.405 Y0.859 E0.0514
G1 X-31.727 Y19.537 E1.9218
G1 X-31.727 Y20.244 E0.0514
G1 X-51.112 Y0.859 E1.9945
G1 X-51.819 Y0.859 E0.0514
G1 X-31.727 Y20.951 E2.0673
G1 X-31.727 Y21.658 E0.0514
G1 X-52.526 Y0.859 E2.1400
G1 X-53.233 Y0.859 E0.0514
G1 X-31.727 Y22.365 E2.2128
