; G-Code generated by Simplify3D(R) Version 4.1.2
; Aug 3, 2020 at 12:39:52 PM
; Settings Summary
;   processName,Process1
;   applyToModels,Case 1,Case 2,Case 1(2),Case 2(2),Case 1(3),Case 2(3),Case 1(2)(2),Case 2(2)(2)
;   profileName,MakerBot Replicator 2 HBP (modified)
;   profileVersion,2020-04-21 14:45:34
;   baseProfile,MakerBot Replicator 2(2)
;   printMaterial,PLA
;   printQuality,Medium
;   printExtruders,
;   extruderName,Primary Extruder
;   extruderToolheadNumber,0
;   extruderDiameter,0.4
;   extruderAutoWidth,0
;   extruderWidth,0.5
;   extrusionMultiplier,1
;   extruderUseRetract,1
;   extruderRetractionDistance,1.9
;   extruderExtraRestartDistance,0
;   extruderRetractionZLift,0.5
;   extruderRetractionSpeed,1200
;   extruderUseCoasting,0
;   extruderCoastingDistance,0.2
;   extruderUseWipe,0
;   extruderWipeDistance,5
;   primaryExtruder,0
;   layerHeight,0.35
;   topSolidLayers,4
;   bottomSolidLayers,3
;   perimeterOutlines,2
;   printPerimetersInsideOut,1
;   startPointOption,3
;   startPointOriginX,140
;   startPointOriginY,0
;   sequentialIslands,0
;   spiralVaseMode,0
;   firstLayerHeightPercentage,100
;   firstLayerWidthPercentage,100
;   firstLayerUnderspeed,0.5
;   useRaft,0
;   raftExtruder,0
;   raftTopLayers,2
;   raftBaseLayers,1
;   raftOffset,1
;   raftSeparationDistance,0.14
;   raftTopInfill,90
;   aboveRaftSpeedMultiplier,0.3
;   useSkirt,0
;   skirtExtruder,0
;   skirtLayers,1
;   skirtOutlines,5
;   skirtOffset,0
;   usePrimePillar,0
;   primePillarExtruder,999
;   primePillarWidth,12
;   primePillarLocation,7
;   primePillarSpeedMultiplier,1
;   useOozeShield,0
;   oozeShieldExtruder,999
;   oozeShieldOffset,2
;   oozeShieldOutlines,1
;   oozeShieldSidewallShape,1
;   oozeShieldSidewallAngle,30
;   oozeShieldSpeedMultiplier,1
;   infillExtruder,0
;   internalInfillPattern,Rectilinear
;   externalInfillPattern,Rectilinear
;   infillPercentage,20
;   outlineOverlapPercentage,20
;   infillExtrusionWidthPercentage,100
;   minInfillLength,5
;   infillLayerInterval,1
;   internalInfillAngles,45,-45
;   overlapInternalInfillAngles,0
;   externalInfillAngles,45,-45
;   generateSupport,0
;   supportExtruder,0
;   supportInfillPercentage,30
;   supportExtraInflation,0.6
;   supportBaseLayers,0
;   denseSupportExtruder,0
;   denseSupportLayers,2
;   denseSupportInfillPercentage,70
;   supportLayerInterval,1
;   supportHorizontalPartOffset,0.3
;   supportUpperSeparationLayers,1
;   supportLowerSeparationLayers,1
;   supportType,0
;   supportGridSpacing,99
;   maxOverhangAngle,45
;   supportAngles,0
;   temperatureName,Primary Extruder,Heated Build Platform
;   temperatureNumber,0,0
;   temperatureSetpointCount,1,1
;   temperatureSetpointLayers,1,1
;   temperatureSetpointTemperatures,210,65
;   temperatureStabilizeAtStartup,1,1
;   temperatureHeatedBed,0,1
;   fanLayers,1,2
;   fanSpeeds,0,100
;   blipFanToFullPower,1
;   adjustSpeedForCooling,1
;   minSpeedLayerTime,15
;   minCoolingSpeedSlowdown,20
;   increaseFanForCooling,1
;   minFanLayerTime,45
;   maxCoolingFanSpeed,100
;   increaseFanForBridging,1
;   bridgingFanSpeed,100
;   use5D,1
;   relativeEdistances,1
;   allowEaxisZeroing,0
;   independentExtruderAxes,1
;   includeM10123,0
;   stickySupport,1
;   applyToolheadOffsets,0
;   gcodeXoffset,0
;   gcodeYoffset,0
;   gcodeZoffset,0
;   overrideMachineDefinition,1
;   machineTypeOverride,0
;   strokeXoverride,280
;   strokeYoverride,150
;   strokeZoverride,150
;   originOffsetXoverride,140
;   originOffsetYoverride,75
;   originOffsetZoverride,0
;   homeXdirOverride,1
;   homeYdirOverride,1
;   homeZdirOverride,-1
;   flipXoverride,1
;   flipYoverride,-1
;   flipZoverride,1
;   toolheadOffsets,0,0|0,0|0,0|0,0|0,0|0,0
;   overrideFirmwareConfiguration,1
;   firmwareTypeOverride,MakerBot/Sailfish Firmware
;   GPXconfigOverride,r2h
;   baudRateOverride,115200
;   overridePrinterModels,1
;   printerModelsOverride,MakerBot_Replicator2.stl
;   startingGcode,; **** Replicator 2 start.gcode ****,M73 P0 ; enable build progress,G162 X Y F3000 ; home XY maximum,G161 Z F1200 ; home Z minimum,G92 Z-5 ; set Z to -5,G1 Z0 ; move Z to 0,G28 ; better homing homie,M132 X Y Z A B ; recall home offsets,G1 X-145 Y-75 Z30 F9000 ; move to wait position off table,G130 X20 Y20 Z20 A20 B20 ; lower stepper Vrefs while heating,M126 S[fan_speed_pwm],M140 S[bed0_temperature] T0,M134 T0 ; stabilize bed temperature,M104 S[extruder0_temperature] T0,M133 T0 ; stabilize extruder temperature,G130 X127 Y127 Z40 A127 B127 ; default stepper Vrefs,G92 A0 ; zero extruder,G1 Z0.4 ; position nozzle,G1 E25 F300 ; purge nozzle,G1 X-140 Y-70 Z0.15 F1200 ; slow wipe,G1 X-135 Y-65 Z0.5 F1200 ; lift,G92 A0 ; zero extruder,M73 P1 ;@body (notify GPX body has started),; **** end of start.gcode ****
;   layerChangeGcode,
;   retractionGcode,
;   toolChangeGcode,
;   endingGcode,; **** Replicator 2 end.gcode ****,M73 P100 ; end build progress,G1 Z155 F1000 ; send Z axis to bottom of machine,M104 S0 T0 ; cool down extruder,M140 S0 T0 ; cool down HBP,M127 ; stop blower fan,G162 X Y F3000 ; home XY maximum,M18 ; disable stepper,M0 ; stop codes,M72 P1 ; play Ta-Da song,; **** end of end.gcode ****
;   exportFileFormat,gcode
;   celebration,0
;   celebrationSong,Random Song
;   postProcessing,
;   defaultSpeed,4800
;   outlineUnderspeed,0.5
;   solidInfillUnderspeed,1
;   supportUnderspeed,1
;   rapidXYspeed,9000
;   rapidZspeed,1200
;   minBridgingArea,50
;   bridgingExtraInflation,0
;   bridgingExtrusionMultiplier,1
;   bridgingSpeedMultiplier,0.8
;   useFixedBridgingAngle,0
;   fixedBridgingAngle,0
;   applyBridgingToPerimeters,0
;   filamentDiameters,1.75|1.75|1.75|1.75|1.75|1.75
;   filamentPricesPerKg,46|46|46|46|46|46
;   filamentDensities,1.25|1.25|1.25|1.25|1.25|1.25
;   useMinPrintHeight,0
;   minPrintHeight,0
;   useMaxPrintHeight,0
;   maxPrintHeight,4.84
;   useDiaphragm,0
;   diaphragmLayerInterval,20
;   robustSlicing,1
;   mergeAllIntoSolid,0
;   onlyRetractWhenCrossingOutline,0
;   retractBetweenLayers,0
;   useRetractionMinTravel,1
;   retractionMinTravel,7
;   retractWhileWiping,1
;   onlyWipeOutlines,1
;   avoidCrossingOutline,0
;   maxMovementDetourFactor,3
;   toolChangeRetractionDistance,12
;   toolChangeExtraRestartDistance,-0.5
;   toolChangeRetractionSpeed,600
;   externalThinWallType,0
;   internalThinWallType,0
;   thinWallAllowedOverlapPercentage,10
;   singleExtrusionMinLength,1
;   singleExtrusionMinPrintingWidthPercentage,50
;   singleExtrusionMaxPrintingWidthPercentage,200
;   singleExtrusionEndpointExtension,0.2
;   horizontalSizeCompensation,0
G90
M83
; **** Replicator 2 start.gcode ****
M73 P0 ; enable build progress
G162 X Y F3000 ; home XY maximum
G161 Z F1200 ; home Z minimum
G92 Z-5 ; set Z to -5
G1 Z0 ; move Z to 0
G28 ; better homing homie
M132 X Y Z A B ; recall home offsets
G1 X-145 Y-75 Z30 F9000 ; move to wait position off table
G130 X20 Y20 Z20 A20 B20 ; lower stepper Vrefs while heating
M127
M140 S65 T0
M134 T0 ; stabilize bed temperature
M104 S210 T0
M133 T0 ; stabilize extruder temperature
G130 X127 Y127 Z40 A127 B127 ; default stepper Vrefs
G92 A0 ; zero extruder
G1 Z0.4 ; position nozzle
G1 E25 F300 ; purge nozzle
G1 X-140 Y-70 Z0.15 F1200 ; slow wipe
G1 X-135 Y-65 Z0.5 F1200 ; lift
G92 A0 ; zero extruder
M73 P1 ;@body (notify GPX body has started)
; **** end of start.gcode ****
; process Process1
; layer 1, Z = 0.350
M135 T0
G1 E-1.9000 F1200
; feature inner perimeter
; tool H0.350 W0.500
G1 Z0.500 F1200
G1 X49.520 Y3.250 F9000
G1 Z0.350 F1200
G1 E1.9000 F1200
G1 X49.520 Y35.850 E2.3719 F1800
G1 X3.250 Y35.850 E3.3664
G1 X3.250 Y3.250 E2.3719
G1 X49.520 Y3.250 E3.3664
; feature outer perimeter
G1 X50.020 Y2.750 F9000
G1 X50.020 Y36.350 E2.4446 F1200
G1 X2.750 Y36.350 E3.4392
G1 X2.750 Y2.750 E2.4446
G1 X50.020 Y2.750 E3.4392
; feature solid layer
G1 X48.905 Y3.650 F9000
G1 X49.120 Y3.865 E0.0221 F2400
G1 X49.120 Y4.572 E0.0514
G1 X48.198 Y3.650 E0.0949
G1 X47.491 Y3.650 E0.0514
G1 X49.120 Y5.279 E0.1676
G1 X49.120 Y5.986 E0.0514
G1 X46.784 Y3.650 E0.2404
G1 X46.076 Y3.650 E0.0514
G1 X49.120 Y6.694 E0.3132
G1 X49.120 Y7.401 E0.0514
G1 X45.369 Y3.650 E0.3859
G1 X44.662 Y3.650 E0.0514
G1 X49.120 Y8.108 E0.4587
G1 X49.120 Y8.815 E0.0514
G1 X43.955 Y3.650 E0.5314
G1 X43.248 Y3.650 E0.0514
G1 X49.120 Y9.522 E0.6042
G1 X49.120 Y10.229 E0.0514
G1 X42.541 Y3.650 E0.6769
G1 X41.834 Y3.650 E0.0514
G1 X49.120 Y10.936 E0.7497
G1 X49.120 Y11.643 E0.0514
G1 X41.127 Y3.650 E0.8225
G1 X40.420 Y3.650 E0.0514
G1 X49.120 Y12.350 E0.8952
G1 X49.120 Y13.058 E0.0514
G1 X39.712 Y3.650 E0.9680
G1 X39.005 Y3.650 E0.0514
G1 X49.120 Y13.765 E1.0407
G1 X49.120 Y14.472 E0.0514
G1 X38.298 Y3.650 E1.1135
G1 X37.591 Y3.650 E0.0514
G1 X49.120 Y15.179 E1.1862
G1 X49.120 Y15.886 E0.0514
G1 X36.884 Y3.650 E1.2590
G1 X36.177 Y3.650 E0.0514
G1 X49.120 Y16.593 E1.3318
G1 X49.120 Y17.300 E0.0514
G1 X35.470 Y3.650 E1.4045
G1 X34.763 Y3.650 E0.0514
G1 X49.120 Y18.007 E1.4773
G1 X49.120 Y18.714 E0.0514
G1 X34.056 Y3.650 E1.5500
G1 X33.348 Y3.650 E0.0514
G1 X49.120 Y19.421 E1.6228
G1 X49.120 Y20.129 E0.0514
G1 X32.641 Y3.650 E1.6955
G1 X31.934 Y3.650 E0.0514
G1 X49.120 Y20.836 E1.7683
G1 X49.120 Y21.543 E0.0514
G1 X31.227 Y3.650 E1.8410
G1 X30.520 Y3.650 E0.0514
G1 X49.120 Y22.250 E1.9138
G1 X49.120 Y22.957 E0.0514
G1 X29.813 Y3.650 E1.9866
G1 X29.106 Y3.650 E0.0514
G1 X49.120 Y23.664 E2.0593
G1 X49.120 Y24.371 E0.0514
G1 X28.399 Y3.650 E2.1321
G1 X27.692 Y3.650 E0.0514
G1 X49.120 Y25.078 E2.2048
G1 X49.120 Y25.785 E0.0514
G1 X26.985 Y3.650 E2.2776
G1 X26.277 Y3.650 E0.0514
G1 X49.120 Y26.493 E2.3503
G1 X49.120 Y27.200 E0.0514
G1 X25.570 Y3.650 E2.4231
G1 X24.863 Y3.650 E0.0514
G1 X49.120 Y27.907 E2.4959
G1 X49.120 Y28.614 E0.0514
G1 X24.156 Y3.650 E2.5686
G1 X23.449 Y3.650 E0.0514
G1 X49.120 Y29.321 E2.6414
G1 X49.120 Y30.028 E0.0514
G1 X22.742 Y3.650 E2.7141
G1 X22.035 Y3.650 E0.0514
G1 X49.120 Y30.735 E2.7869
G1 X49.120 Y31.442 E0.0514
G1 X21.328 Y3.650 E2.8596
G1 X20.621 Y3.650 E0.0514
G1 X49.120 Y32.149 E2.9324
G1 X49.120 Y32.857 E0.0514
G1 X19.913 Y3.650 E3.0052
G1 X19.206 Y3.650 E0.0514
G1 X49.120 Y33.564 E3.0779
G1 X49.120 Y34.271 E0.0514
G1 X18.499 Y3.650 E3.1507
G1 X17.792 Y3.650 E0.0514
G1 X49.120 Y34.978 E3.2234
G1 X49.120 Y35.450 E0.0344
G1 X48.885 Y35.450 E0.0171
G1 X17.085 Y3.650 E3.2720
G1 X16.378 Y3.650 E0.0514
G1 X48.178 Y35.450 E3.2720
G1 X47.471 Y35.450 E0.0514
G1 X15.671 Y3.650 E3.2720
G1 X14.964 Y3.650 E0.0514
G1 X46.764 Y35.450 E3.2720
G1 X46.057 Y35.450 E0.0514
G1 X14.257 Y3.650 E3.2720
G1 X13.550 Y3.650 E0.0514
G1 X45.349 Y35.450 E3.2720
G1 X44.642 Y35.450 E0.0514
G1 X12.842 Y3.650 E3.2720
G1 X12.135 Y3.650 E0.0514
G1 X43.935 Y35.450 E3.2720
G1 X43.228 Y35.450 E0.0514
G1 X11.428 Y3.650 E3.2720
G1 X10.721 Y3.650 E0.0514
G1 X42.521 Y35.450 E3.2720
G1 X41.814 Y35.450 E0.0514
G1 X10.014 Y3.650 E3.2720
G1 X9.307 Y3.650 E0.0514
G1 X41.107 Y35.450 E3.2720
G1 X40.400 Y35.450 E0.0514
G1 X8.600 Y3.650 E3.2720
G1 X7.893 Y3.650 E0.0514
G1 X39.693 Y35.450 E3.2720
G1 X38.986 Y35.450 E0.0514
G1 X7.186 Y3.650 E3.2720
G1 X6.478 Y3.650 E0.0514
G1 X38.278 Y35.450 E3.2720
G1 X37.571 Y35.450 E0.0514
G1 X5.771 Y3.650 E3.2720
G1 X5.064 Y3.650 E0.0514
G1 X36.864 Y35.450 E3.2720
G1 X36.157 Y35.450 E0.0514
G1 X4.357 Y3.650 E3.2720
G1 X3.650 Y3.650 E0.0514
G1 X35.450 Y35.450 E3.2720
G1 X34.743 Y35.450 E0.0514
G1 X3.650 Y4.357 E3.1993
G1 X3.650 Y5.064 E0.0514
G1 X34.036 Y35.450 E3.1265
G1 X33.329 Y35.450 E0.0514
G1 X3.650 Y5.771 E3.0537
G1 X3.650 Y6.478 E0.0514
G1 X32.622 Y35.450 E2.9810
G1 X31.914 Y35.450 E0.0514
G1 X3.650 Y7.186 E2.9082
G1 X3.650 Y7.893 E0.0514
G1 X31.207 Y35.450 E2.8355
G1 X30.500 Y35.450 E0.0514
G1 X3.650 Y8.600 E2.7627
G1 X3.650 Y9.307 E0.0514
G1 X29.793 Y35.450 E2.6900
G1 X29.086 Y35.450 E0.0514
G1 X3.650 Y10.014 E2.6172
G1 X3.650 Y10.721 E0.0514
G1 X28.379 Y35.450 E2.5444
G1 X27.672 Y35.450 E0.0514
G1 X3.650 Y11.428 E2.4717
G1 X3.650 Y12.135 E0.0514
G1 X26.965 Y35.450 E2.3989
G1 X26.258 Y35.450 E0.0514
G1 X3.650 Y12.842 E2.3262
G1 X3.650 Y13.549 E0.0514
G1 X25.551 Y35.450 E2.2534
G1 X24.843 Y35.450 E0.0514
G1 X3.650 Y14.257 E2.1807
G1 X3.650 Y14.964 E0.0514
G1 X24.136 Y35.450 E2.1079
G1 X23.429 Y35.450 E0.0514
G1 X3.650 Y15.671 E2.0351
G1 X3.650 Y16.378 E0.0514
G1 X22.722 Y35.450 E1.9624
G1 X22.015 Y35.450 E0.0514
G1 X3.650 Y17.085 E1.8896
G1 X3.650 Y17.792 E0.0514
G1 X21.308 Y35.450 E1.8169
G1 X20.601 Y35.450 E0.0514
G1 X3.650 Y18.499 E1.7441
G1 X3.650 Y19.206 E0.0514
G1 X19.894 Y35.450 E1.6714
G1 X19.187 Y35.450 E0.0514
G1 X3.650 Y19.913 E1.5986
G1 X3.650 Y20.621 E0.0514
G1 X18.479 Y35.450 E1.5259
G1 X17.772 Y35.450 E0.0514
G1 X3.650 Y21.328 E1.4531
G1 X3.650 Y22.035 E0.0514
G1 X17.065 Y35.450 E1.3803
G1 X16.358 Y35.450 E0.0514
G1 X3.650 Y22.742 E1.3076
G1 X3.650 Y23.449 E0.0514
G1 X15.651 Y35.450 E1.2348
G1 X14.944 Y35.450 E0.0514
G1 X3.650 Y24.156 E1.1621
G1 X3.650 Y24.863 E0.0514
G1 X14.237 Y35.450 E1.0893
G1 X13.530 Y35.450 E0.0514
G1 X3.650 Y25.570 E1.0166
G1 X3.650 Y26.277 E0.0514
G1 X12.823 Y35.450 E0.9438
G1 X12.115 Y35.450 E0.0514
G1 X3.650 Y26.984 E0.8710
G1 X3.650 Y27.692 E0.0514
G1 X11.408 Y35.450 E0.7983
G1 X10.701 Y35.450 E0.0514
G1 X3.650 Y28.399 E0.7255
G1 X3.650 Y29.106 E0.0514
G1 X9.994 Y35.450 E0.6528
G1 X9.287 Y35.450 E0.0514
G1 X3.650 Y29.813 E0.5800
G1 X3.650 Y30.520 E0.0514
G1 X8.580 Y35.450 E0.5073
G1 X7.873 Y35.450 E0.0514
G1 X3.650 Y31.227 E0.4345
G1 X3.650 Y31.934 E0.0514
G1 X7.166 Y35.450 E0.3617
G1 X6.459 Y35.450 E0.0514
G1 X3.650 Y32.641 E0.2890
G1 X3.650 Y33.348 E0.0514
G1 X5.752 Y35.450 E0.2162
G1 X5.044 Y35.450 E0.0514
G1 X3.650 Y34.056 E0.1435
G1 X3.650 Y34.763 E0.0514
G1 X4.337 Y35.450 E0.0707
G1 E-1.9000 F1200
; feature inner perimeter
G1 Z0.850 F1200
G1 X-3.250 Y3.250 F9000
G1 Z0.350 F1200
G1 E1.9000 F1200
G1 X-3.250 Y35.850 E2.3719 F1800
G1 X-49.520 Y35.850 E3.3664
G1 X-49.520 Y3.250 E2.3719
G1 X-3.250 Y3.250 E3.3664
; feature outer perimeter
G1 X-2.750 Y2.750 F9000
G1 X-2.750 Y36.350 E2.4446 F1200
G1 X-50.020 Y36.350 E3.4392
G1 X-50.020 Y2.750 E2.4446
G1 X-2.750 Y2.750 E3.4392
; feature solid layer
G1 X-4.128 Y3.650 F9000
G1 X-3.650 Y4.128 E0.0492 F2400
G1 X-3.650 Y4.835 E0.0514
G1 X-4.835 Y3.650 E0.1220
G1 X-5.542 Y3.650 E0.0514
G1 X-3.650 Y5.542 E0.1947
G1 X-3.650 Y6.249 E0.0514
G1 X-6.249 Y3.650 E0.2675
G1 X-6.957 Y3.650 E0.0514
G1 X-3.650 Y6.957 E0.3402
G1 X-3.650 Y7.664 E0.0514
G1 X-7.664 Y3.650 E0.4130
G1 X-8.371 Y3.650 E0.0514
G1 X-3.650 Y8.371 E0.4857
G1 X-3.650 Y9.078 E0.0514
G1 X-9.078 Y3.650 E0.5585
G1 X-9.785 Y3.650 E0.0514
G1 X-3.650 Y9.785 E0.6313
G1 X-3.650 Y10.492 E0.0514
G1 X-10.492 Y3.650 E0.7040
G1 X-11.199 Y3.650 E0.0514
G1 X-3.650 Y11.199 E0.7768
G1 X-3.650 Y11.906 E0.0514
G1 X-11.906 Y3.650 E0.8495
G1 X-12.613 Y3.650 E0.0514
G1 X-3.650 Y12.613 E0.9223
G1 X-3.650 Y13.321 E0.0514
G1 X-13.321 Y3.650 E0.9950
G1 X-14.028 Y3.650 E0.0514
G1 X-3.650 Y14.028 E1.0678
G1 X-3.650 Y14.735 E0.0514
G1 X-14.735 Y3.650 E1.1405
G1 X-15.442 Y3.650 E0.0514
G1 X-3.650 Y15.442 E1.2133
G1 X-3.650 Y16.149 E0.0514
G1 X-16.149 Y3.650 E1.2861
G1 X-16.856 Y3.650 E0.0514
G1 X-3.650 Y16.856 E1.3588
G1 X-3.650 Y17.563 E0.0514
G1 X-17.563 Y3.650 E1.4316
G1 X-18.270 Y3.650 E0.0514
G1 X-3.650 Y18.270 E1.5043
G1 X-3.650 Y18.977 E0.0514
G1 X-18.977 Y3.650 E1.5771
G1 X-19.685 Y3.650 E0.0514
G1 X-3.650 Y19.685 E1.6498
G1 X-3.650 Y20.392 E0.0514
G1 X-20.392 Y3.650 E1.7226
G1 X-21.099 Y3.650 E0.0514
G1 X-3.650 Y21.099 E1.7954
G1 X-3.650 Y21.806 E0.0514
G1 X-21.806 Y3.650 E1.8681
G1 X-22.513 Y3.650 E0.0514
G1 X-3.650 Y22.513 E1.9409
G1 X-3.650 Y23.220 E0.0514
G1 X-23.220 Y3.650 E2.0136
G1 X-23.927 Y3.650 E0.0514
G1 X-3.650 Y23.927 E2.0864
G1 X-3.650 Y24.634 E0.0514
G1 X-24.634 Y3.650 E2.1591
G1 X-25.341 Y3.650 E0.0514
G1 X-3.650 Y25.341 E2.2319
G1 X-3.650 Y26.048 E0.0514
G1 X-26.048 Y3.650 E2.3047
G1 X-26.756 Y3.650 E0.0514
G1 X-3.650 Y26.756 E2.3774
G1 X-3.650 Y27.463 E0.0514
G1 X-27.463 Y3.650 E2.4502
G1 X-28.170 Y3.650 E0.0514
G1 X-3.650 Y28.170 E2.5229
G1 X-3.650 Y28.877 E0.0514
G1 X-28.877 Y3.650 E2.5957
G1 X-29.584 Y3.650 E0.0514
G1 X-3.650 Y29.584 E2.6684
