; G-Code generated by Simplify3D(R) Version 4.1.2
; Aug 3, 2020 at 12:37:04 PM
; Settings Summary
;   processName,Process1
;   applyToModels,Bracket L,Bracket R,Case 1,Case 2,Bracket L(2),Bracket R(2),Case 1(2),Case 2(2),Bracket L(3),Bracket R(3),Case 1(3),Case 2(3),Bracket L(2)(2),Bracket R(2)(2),Case 1(2)(2),Case 2(2)(2)
;   profileName,MakerBot Replicator 2 HBP (modified)
;   profileVersion,2020-04-21 14:45:34
;   baseProfile,MakerBot Replicator 2(2)
;   printMaterial,PLA
;   printQuality,Medium
;   printExtruders,
;   extruderName,Primary Extruder
;   extruderToolheadNumber,0
;   extruderDiameter,0.4
;   extruderAutoWidth,0
;   extruderWidth,0.5
;   extrusionMultiplier,1
;   extruderUseRetract,1
;   extruderRetractionDistance,1.9
;   extruderExtraRestartDistance,0
;   extruderRetractionZLift,0.5
;   extruderRetractionSpeed,1200
;   extruderUseCoasting,0
;   extruderCoastingDistance,0.2
;   extruderUseWipe,0
;   extruderWipeDistance,5
;   primaryExtruder,0
;   layerHeight,0.35
;   topSolidLayers,4
;   bottomSolidLayers,3
;   perimeterOutlines,2
;   printPerimetersInsideOut,1
;   startPointOption,3
;   startPointOriginX,140
;   startPointOriginY,0
;   sequentialIslands,0
;   spiralVaseMode,0
;   firstLayerHeightPercentage,100
;   firstLayerWidthPercentage,100
;   firstLayerUnderspeed,0.5
;   useRaft,0
;   raftExtruder,0
;   raftTopLayers,2
;   raftBaseLayers,1
;   raftOffset,1
;   raftSeparationDistance,0.14
;   raftTopInfill,90
;   aboveRaftSpeedMultiplier,0.3
;   useSkirt,0
;   skirtExtruder,0
;   skirtLayers,1
;   skirtOutlines,5
;   skirtOffset,0
;   usePrimePillar,0
;   primePillarExtruder,999
;   primePillarWidth,12
;   primePillarLocation,7
;   primePillarSpeedMultiplier,1
;   useOozeShield,0
;   oozeShieldExtruder,999
;   oozeShieldOffset,2
;   oozeShieldOutlines,1
;   oozeShieldSidewallShape,1
;   oozeShieldSidewallAngle,30
;   oozeShieldSpeedMultiplier,1
;   infillExtruder,0
;   internalInfillPattern,Rectilinear
;   externalInfillPattern,Rectilinear
;   infillPercentage,20
;   outlineOverlapPercentage,20
;   infillExtrusionWidthPercentage,100
;   minInfillLength,5
;   infillLayerInterval,1
;   internalInfillAngles,45,-45
;   overlapInternalInfillAngles,0
;   externalInfillAngles,45,-45
;   generateSupport,0
;   supportExtruder,0
;   supportInfillPercentage,30
;   supportExtraInflation,0.6
;   supportBaseLayers,0
;   denseSupportExtruder,0
;   denseSupportLayers,2
;   denseSupportInfillPercentage,70
;   supportLayerInterval,1
;   supportHorizontalPartOffset,0.3
;   supportUpperSeparationLayers,1
;   supportLowerSeparationLayers,1
;   supportType,0
;   supportGridSpacing,99
;   maxOverhangAngle,45
;   supportAngles,0
;   temperatureName,Primary Extruder,Heated Build Platform
;   temperatureNumber,0,0
;   temperatureSetpointCount,1,1
;   temperatureSetpointLayers,1,1
;   temperatureSetpointTemperatures,210,65
;   temperatureStabilizeAtStartup,1,1
;   temperatureHeatedBed,0,1
;   fanLayers,1,2
;   fanSpeeds,0,100
;   blipFanToFullPower,1
;   adjustSpeedForCooling,1
;   minSpeedLayerTime,15
;   minCoolingSpeedSlowdown,20
;   increaseFanForCooling,1
;   minFanLayerTime,45
;   maxCoolingFanSpeed,100
;   increaseFanForBridging,1
;   bridgingFanSpeed,100
;   use5D,1
;   relativeEdistances,1
;   allowEaxisZeroing,0
;   independentExtruderAxes,1
;   includeM10123,0
;   stickySupport,1
;   applyToolheadOffsets,0
;   gcodeXoffset,0
;   gcodeYoffset,0
;   gcodeZoffset,0
;   overrideMachineDefinition,1
;   machineTypeOverride,0
;   strokeXoverride,280
;   strokeYoverride,150
;   strokeZoverride,150
;   originOffsetXoverride,140
;   originOffsetYoverride,75
;   originOffsetZoverride,0
;   homeXdirOverride,1
;   homeYdirOverride,1
;   homeZdirOverride,-1
;   flipXoverride,1
;   flipYoverride,-1
;   flipZoverride,1
;   toolheadOffsets,0,0|0,0|0,0|0,0|0,0|0,0
;   overrideFirmwareConfiguration,1
;   firmwareTypeOverride,MakerBot/Sailfish Firmware
;   GPXconfigOverride,r2h
;   baudRateOverride,115200
;   overridePrinterModels,1
;   printerModelsOverride,MakerBot_Replicator2.stl
;   startingGcode,; **** Replicator 2 start.gcode ****,M73 P0 ; enable build progress,G162 X Y F3000 ; home XY maximum,G161 Z F1200 ; home Z minimum,G92 Z-5 ; set Z to -5,G1 Z0 ; move Z to 0,G28 ; better homing homie,M132 X Y Z A B ; recall home offsets,G1 X-145 Y-75 Z30 F9000 ; move to wait position off table,G130 X20 Y20 Z20 A20 B20 ; lower stepper Vrefs while heating,M126 S[fan_speed_pwm],M140 S[bed0_temperature] T0,M134 T0 ; stabilize bed temperature,M104 S[extruder0_temperature] T0,M133 T0 ; stabilize extruder temperature,G130 X127 Y127 Z40 A127 B127 ; default stepper Vrefs,G92 A0 ; zero extruder,G1 Z0.4 ; position nozzle,G1 E25 F300 ; purge nozzle,G1 X-140 Y-70 Z0.15 F1200 ; slow wipe,G1 X-135 Y-65 Z0.5 F1200 ; lift,G92 A0 ; zero extruder,M73 P1 ;@body (notify GPX body has started),; **** end of start.gcode ****
;   layerChangeGcode,
;   retractionGcode,
;   toolChangeGcode,
;   endingGcode,; **** Replicator 2 end.gcode ****,M73 P100 ; end build progress,G1 Z155 F1000 ; send Z axis to bottom of machine,M104 S0 T0 ; cool down extruder,M140 S0 T0 ; cool down HBP,M127 ; stop blower fan,G162 X Y F3000 ; home XY maximum,M18 ; disable stepper,M0 ; stop codes,M72 P1 ; play Ta-Da song,; **** end of end.gcode ****
;   exportFileFormat,gcode
;   celebration,0
;   celebrationSong,Random Song
;   postProcessing,
;   defaultSpeed,4800
;   outlineUnderspeed,0.5
;   solidInfillUnderspeed,1
;   supportUnderspeed,1
;   rapidXYspeed,9000
;   rapidZspeed,1200
;   minBridgingArea,50
;   bridgingExtraInflation,0
;   bridgingExtrusionMultiplier,1
;   bridgingSpeedMultiplier,0.8
;   useFixedBridgingAngle,0
;   fixedBridgingAngle,0
;   applyBridgingToPerimeters,0
;   filamentDiameters,1.75|1.75|1.75|1.75|1.75|1.75
;   filamentPricesPerKg,46|46|46|46|46|46
;   filamentDensities,1.25|1.25|1.25|1.25|1.25|1.25
;   useMinPrintHeight,0
;   minPrintHeight,0
;   useMaxPrintHeight,0
;   maxPrintHeight,4.84
;   useDiaphragm,0
;   diaphragmLayerInterval,20
;   robustSlicing,1
;   mergeAllIntoSolid,0
;   onlyRetractWhenCrossingOutline,0
;   retractBetweenLayers,0
;   useRetractionMinTravel,1
;   retractionMinTravel,7
;   retractWhileWiping,1
;   onlyWipeOutlines,1
;   avoidCrossingOutline,0
;   maxMovementDetourFactor,3
;   toolChangeRetractionDistance,12
;   toolChangeExtraRestartDistance,-0.5
;   toolChangeRetractionSpeed,600
;   externalThinWallType,0
;   internalThinWallType,0
;   thinWallAllowedOverlapPercentage,10
;   singleExtrusionMinLength,1
;   singleExtrusionMinPrintingWidthPercentage,50
;   singleExtrusionMaxPrintingWidthPercentage,200
;   singleExtrusionEndpointExtension,0.2
;   horizontalSizeCompensation,0
G90
M83
; **** Replicator 2 start.gcode ****
M73 P0 ; enable build progress
G162 X Y F3000 ; home XY maximum
G161 Z F1200 ; home Z minimum
G92 Z-5 ; set Z to -5
G1 Z0 ; move Z to 0
G28 ; better homing homie
M132 X Y Z A B ; recall home offsets
G1 X-145 Y-75 Z30 F9000 ; move to wait position off table
G130 X20 Y20 Z20 A20 B20 ; lower stepper Vrefs while heating
M127
M140 S65 T0
M134 T0 ; stabilize bed temperature
M104 S210 T0
M133 T0 ; stabilize extruder temperature
G130 X127 Y127 Z40 A127 B127 ; default stepper Vrefs
G92 A0 ; zero extruder
G1 Z0.4 ; position nozzle
G1 E25 F300 ; purge nozzle
G1 X-140 Y-70 Z0.15 F1200 ; slow wipe
G1 X-135 Y-65 Z0.5 F1200 ; lift
G92 A0 ; zero extruder
M73 P1 ;@body (notify GPX body has started)
; **** end of start.gcode ****
; process Process1
; layer 1, Z = 0.350
M135 T0
G1 E-1.9000 F1200
; feature inner perimeter
; tool H0.350 W0.500
G1 Z0.500 F1200
G1 X12.873 Y15.850 F9000
G1 Z0.350 F1200
G1 E1.9000 F1200
G1 X12.873 Y35.850 E1.4551 F1800
G1 X-23.849 Y35.850 E2.6718
G1 X-23.849 Y15.850 E1.4551
G1 X12.873 Y15.850 E2.6718
; feature outer perimeter
G1 X13.373 Y15.350 F9000
G1 X13.373 Y36.350 E1.5279 F1200
G1 X-24.349 Y36.350 E2.7446
G1 X-24.349 Y15.350 E1.5279
G1 X13.373 Y15.350 E2.7446
; feature inner perimeter
G1 X11.451 Y17.150 F9000
G1 X-22.549 Y17.150 E2.4737 F1800
G1 X-22.549 Y34.550 E1.2660
G1 X11.451 Y34.550 E2.4737
G1 X11.451 Y17.150 E1.2660
; feature outer perimeter
G1 X10.951 Y17.650 F9000
G1 X-22.049 Y17.650 E2.4010 F1200
G1 X-22.049 Y34.050 E1.1932
G1 X10.951 Y34.050 E2.4010
G1 X10.951 Y17.650 E1.1932
; feature solid layer
G1 X11.851 Y17.507 F9000
G1 X12.473 Y18.130 E0.0641 F2400
G1 X12.473 Y18.837 E0.0514
G1 X11.851 Y18.214 E0.0641
G1 X11.851 Y18.922 E0.0514
G1 X12.473 Y19.544 E0.0641
G1 X12.473 Y20.251 E0.0514
G1 X11.851 Y19.629 E0.0641
G1 X11.851 Y20.336 E0.0514
G1 X12.473 Y20.958 E0.0641
G1 X12.473 Y21.665 E0.0514
G1 X11.851 Y21.043 E0.0641
G1 X11.851 Y21.750 E0.0514
G1 X12.473 Y22.373 E0.0641
G1 X12.473 Y23.080 E0.0514
G1 X11.851 Y22.457 E0.0641
G1 X11.851 Y23.164 E0.0514
G1 X12.473 Y23.787 E0.0641
G1 X12.473 Y24.494 E0.0514
G1 X11.851 Y23.871 E0.0641
G1 X11.851 Y24.578 E0.0514
G1 X12.473 Y25.201 E0.0641
G1 X12.473 Y25.908 E0.0514
G1 X11.851 Y25.286 E0.0641
G1 X11.851 Y25.993 E0.0514
G1 X12.473 Y26.615 E0.0641
G1 X12.473 Y27.322 E0.0514
G1 X11.851 Y26.700 E0.0641
G1 X11.851 Y27.407 E0.0514
G1 X12.473 Y28.029 E0.0641
G1 X12.473 Y28.737 E0.0514
G1 X11.851 Y28.114 E0.0641
G1 X11.851 Y28.821 E0.0514
G1 X12.473 Y29.444 E0.0641
G1 X12.473 Y30.151 E0.0514
G1 X11.851 Y29.528 E0.0641
G1 X11.851 Y30.235 E0.0514
G1 X12.473 Y30.858 E0.0641
G1 X12.473 Y31.565 E0.0514
G1 X11.851 Y30.942 E0.0641
G1 X11.851 Y31.650 E0.0514
G1 X12.473 Y32.272 E0.0641
G1 X12.473 Y32.979 E0.0514
G1 X11.851 Y32.357 E0.0641
G1 X11.851 Y33.064 E0.0514
G1 X12.473 Y33.686 E0.0641
G1 X12.473 Y34.393 E0.0514
G1 X11.851 Y33.771 E0.0641
G1 X11.851 Y34.478 E0.0514
G1 X12.473 Y35.100 E0.0641
G1 X12.473 Y35.450 E0.0254
G1 X12.115 Y35.450 E0.0260
G1 X11.615 Y34.950 E0.0514
G1 X10.908 Y34.950 E0.0514
G1 X11.408 Y35.450 E0.0514
G1 X10.701 Y35.450 E0.0514
G1 X10.201 Y34.950 E0.0514
G1 X9.494 Y34.950 E0.0514
G1 X9.994 Y35.450 E0.0514
G1 X9.287 Y35.450 E0.0514
G1 X8.787 Y34.950 E0.0514
G1 X8.080 Y34.950 E0.0514
G1 X8.580 Y35.450 E0.0514
G1 X7.873 Y35.450 E0.0514
G1 X7.373 Y34.950 E0.0514
G1 X6.666 Y34.950 E0.0514
G1 X7.166 Y35.450 E0.0514
G1 X6.459 Y35.450 E0.0514
G1 X5.959 Y34.950 E0.0514
G1 X5.252 Y34.950 E0.0514
G1 X5.752 Y35.450 E0.0514
G1 X5.044 Y35.450 E0.0514
G1 X4.544 Y34.950 E0.0514
G1 X3.837 Y34.950 E0.0514
G1 X4.337 Y35.450 E0.0514
G1 X3.630 Y35.450 E0.0514
G1 X3.130 Y34.950 E0.0514
G1 X2.423 Y34.950 E0.0514
G1 X2.923 Y35.450 E0.0514
G1 X2.216 Y35.450 E0.0514
G1 X1.716 Y34.950 E0.0514
G1 X1.009 Y34.950 E0.0514
G1 X1.509 Y35.450 E0.0514
G1 X0.802 Y35.450 E0.0514
G1 X0.302 Y34.950 E0.0514
G1 X-0.405 Y34.950 E0.0514
G1 X0.095 Y35.450 E0.0514
G1 X-0.612 Y35.450 E0.0514
G1 X-1.112 Y34.950 E0.0514
G1 X-1.820 Y34.950 E0.0514
G1 X-1.320 Y35.450 E0.0514
G1 X-2.027 Y35.450 E0.0514
G1 X-2.527 Y34.950 E0.0514
G1 X-3.234 Y34.950 E0.0514
G1 X-2.734 Y35.450 E0.0514
G1 X-3.441 Y35.450 E0.0514
G1 X-3.941 Y34.950 E0.0514
G1 X-4.648 Y34.950 E0.0514
G1 X-4.148 Y35.450 E0.0514
G1 X-4.855 Y35.450 E0.0514
G1 X-5.355 Y34.950 E0.0514
G1 X-6.062 Y34.950 E0.0514
G1 X-5.562 Y35.450 E0.0514
G1 X-6.269 Y35.450 E0.0514
G1 X-6.769 Y34.950 E0.0514
G1 X-7.476 Y34.950 E0.0514
G1 X-6.976 Y35.450 E0.0514
G1 X-7.684 Y35.450 E0.0514
G1 X-8.184 Y34.950 E0.0514
G1 X-8.891 Y34.950 E0.0514
G1 X-8.391 Y35.450 E0.0514
G1 X-9.098 Y35.450 E0.0514
G1 X-9.598 Y34.950 E0.0514
G1 X-10.305 Y34.950 E0.0514
G1 X-9.805 Y35.450 E0.0514
G1 X-10.512 Y35.450 E0.0514
G1 X-11.012 Y34.950 E0.0514
G1 X-11.719 Y34.950 E0.0514
G1 X-11.219 Y35.450 E0.0514
G1 X-11.926 Y35.450 E0.0514
G1 X-12.426 Y34.950 E0.0514
G1 X-13.133 Y34.950 E0.0514
G1 X-12.633 Y35.450 E0.0514
G1 X-13.340 Y35.450 E0.0514
G1 X-13.840 Y34.950 E0.0514
G1 X-14.547 Y34.950 E0.0514
G1 X-14.047 Y35.450 E0.0514
G1 X-14.755 Y35.450 E0.0514
G1 X-15.255 Y34.950 E0.0514
G1 X-15.962 Y34.950 E0.0514
G1 X-15.462 Y35.450 E0.0514
G1 X-16.169 Y35.450 E0.0514
G1 X-16.669 Y34.950 E0.0514
G1 X-17.376 Y34.950 E0.0514
G1 X-16.876 Y35.450 E0.0514
G1 X-17.583 Y35.450 E0.0514
G1 X-18.083 Y34.950 E0.0514
G1 X-18.790 Y34.950 E0.0514
G1 X-18.290 Y35.450 E0.0514
G1 X-18.997 Y35.450 E0.0514
G1 X-19.497 Y34.950 E0.0514
G1 X-20.204 Y34.950 E0.0514
G1 X-19.704 Y35.450 E0.0514
G1 X-20.411 Y35.450 E0.0514
G1 X-20.911 Y34.950 E0.0514
G1 X-21.619 Y34.950 E0.0514
G1 X-21.119 Y35.450 E0.0514
G1 X-21.826 Y35.450 E0.0514
G1 X-22.326 Y34.950 E0.0514
G1 X-23.449 Y35.240 F9000
G1 X-23.240 Y35.450 E0.0216 F2400
G1 X-22.533 Y35.450 E0.0514
G1 X-23.449 Y34.533 E0.0943
G1 X-23.449 Y33.826 E0.0514
G1 X-22.949 Y34.326 E0.0514
G1 X-22.949 Y33.619 E0.0514
G1 X-23.449 Y33.119 E0.0514
G1 X-23.449 Y32.412 E0.0514
G1 X-22.949 Y32.912 E0.0514
G1 X-22.949 Y32.205 E0.0514
G1 X-23.449 Y31.705 E0.0514
G1 X-23.449 Y30.998 E0.0514
G1 X-22.949 Y31.498 E0.0514
G1 X-22.949 Y30.791 E0.0514
G1 X-23.449 Y30.291 E0.0514
G1 X-23.449 Y29.584 E0.0514
G1 X-22.949 Y30.084 E0.0514
G1 X-22.949 Y29.376 E0.0514
G1 X-23.449 Y28.876 E0.0514
G1 X-23.449 Y28.169 E0.0514
G1 X-22.949 Y28.669 E0.0514
G1 X-22.949 Y27.962 E0.0514
G1 X-23.449 Y27.462 E0.0514
G1 X-23.449 Y26.755 E0.0514
G1 X-22.949 Y27.255 E0.0514
G1 X-22.949 Y26.548 E0.0514
G1 X-23.449 Y26.048 E0.0514
G1 X-23.449 Y25.341 E0.0514
G1 X-22.949 Y25.841 E0.0514
G1 X-22.949 Y25.134 E0.0514
G1 X-23.449 Y24.634 E0.0514
G1 X-23.449 Y23.927 E0.0514
G1 X-22.949 Y24.427 E0.0514
G1 X-22.949 Y23.720 E0.0514
G1 X-23.449 Y23.220 E0.0514
G1 X-23.449 Y22.512 E0.0514
G1 X-22.949 Y23.012 E0.0514
G1 X-22.949 Y22.305 E0.0514
G1 X-23.449 Y21.805 E0.0514
G1 X-23.449 Y21.098 E0.0514
G1 X-22.949 Y21.598 E0.0514
G1 X-22.949 Y20.891 E0.0514
G1 X-23.449 Y20.391 E0.0514
G1 X-23.449 Y19.684 E0.0514
G1 X-22.949 Y20.184 E0.0514
G1 X-22.949 Y19.477 E0.0514
G1 X-23.449 Y18.977 E0.0514
G1 X-23.449 Y18.270 E0.0514
G1 X-22.949 Y18.770 E0.0514
G1 X-22.949 Y18.063 E0.0514
G1 X-23.449 Y17.563 E0.0514
G1 X-23.449 Y16.856 E0.0514
G1 X-22.949 Y17.356 E0.0514
G1 X-22.949 Y16.750 E0.0441
G1 X-22.848 Y16.750 E0.0074
G1 X-23.348 Y16.250 E0.0514
G1 X-22.641 Y16.250 E0.0514
G1 X-22.141 Y16.750 E0.0514
G1 X-21.434 Y16.750 E0.0514
G1 X-21.934 Y16.250 E0.0514
G1 X-21.227 Y16.250 E0.0514
G1 X-20.727 Y16.750 E0.0514
G1 X-20.020 Y16.750 E0.0514
G1 X-20.520 Y16.250 E0.0514
G1 X-19.812 Y16.250 E0.0514
G1 X-19.312 Y16.750 E0.0514
G1 X-18.605 Y16.750 E0.0514
G1 X-19.105 Y16.250 E0.0514
G1 X-18.398 Y16.250 E0.0514
G1 X-17.898 Y16.750 E0.0514
G1 X-17.191 Y16.750 E0.0514
G1 X-17.691 Y16.250 E0.0514
G1 X-16.984 Y16.250 E0.0514
G1 X-16.484 Y16.750 E0.0514
G1 X-15.777 Y16.750 E0.0514
G1 X-16.277 Y16.250 E0.0514
G1 X-15.570 Y16.250 E0.0514
G1 X-15.070 Y16.750 E0.0514
G1 X-14.363 Y16.750 E0.0514
G1 X-14.863 Y16.250 E0.0514
G1 X-14.156 Y16.250 E0.0514
G1 X-13.656 Y16.750 E0.0514
G1 X-12.948 Y16.750 E0.0514
G1 X-13.448 Y16.250 E0.0514
G1 X-12.741 Y16.250 E0.0514
G1 X-12.241 Y16.750 E0.0514
G1 X-11.534 Y16.750 E0.0514
G1 X-12.034 Y16.250 E0.0514
G1 X-11.327 Y16.250 E0.0514
G1 X-10.827 Y16.750 E0.0514
G1 X-10.120 Y16.750 E0.0514
G1 X-10.620 Y16.250 E0.0514
G1 X-9.913 Y16.250 E0.0514
G1 X-9.413 Y16.750 E0.0514
G1 X-8.706 Y16.750 E0.0514
G1 X-9.206 Y16.250 E0.0514
G1 X-8.499 Y16.250 E0.0514
G1 X-7.999 Y16.750 E0.0514
G1 X-7.292 Y16.750 E0.0514
G1 X-7.792 Y16.250 E0.0514
G1 X-7.085 Y16.250 E0.0514
G1 X-6.585 Y16.750 E0.0514
G1 X-5.877 Y16.750 E0.0514
G1 X-6.377 Y16.250 E0.0514
G1 X-5.670 Y16.250 E0.0514
G1 X-5.170 Y16.750 E0.0514
G1 X-4.463 Y16.750 E0.0514
G1 X-4.963 Y16.250 E0.0514
G1 X-4.256 Y16.250 E0.0514
G1 X-3.756 Y16.750 E0.0514
G1 X-3.049 Y16.750 E0.0514
G1 X-3.549 Y16.250 E0.0514
G1 X-2.842 Y16.250 E0.0514
G1 X-2.342 Y16.750 E0.0514
G1 X-1.635 Y16.750 E0.0514
G1 X-2.135 Y16.250 E0.0514
G1 X-1.428 Y16.250 E0.0514
G1 X-0.928 Y16.750 E0.0514
G1 X-0.221 Y16.750 E0.0514
G1 X-0.721 Y16.250 E0.0514
G1 X-0.013 Y16.250 E0.0514
G1 X0.487 Y16.750 E0.0514
G1 X1.194 Y16.750 E0.0514
G1 X0.694 Y16.250 E0.0514
G1 X1.401 Y16.250 E0.0514
G1 X1.901 Y16.750 E0.0514
G1 X2.608 Y16.750 E0.0514
G1 X2.108 Y16.250 E0.0514
G1 X2.815 Y16.250 E0.0514
G1 X3.315 Y16.750 E0.0514
G1 X4.022 Y16.750 E0.0514
G1 X3.522 Y16.250 E0.0514
