; G-Code generated by Simplify3D(R) Version 4.1.2
; Aug 3, 2020 at 12:36:47 PM
; Settings Summary
;   processName,Process1
;   applyToModels,Bracket L,Bracket R,Case 1,Case 2,Bracket L(2),Bracket R(2),Case 1(2),Case 2(2)
;   profileName,MakerBot Replicator 2 HBP (modified)
;   profileVersion,2020-04-21 14:45:34
;   baseProfile,MakerBot Replicator 2(2)
;   printMaterial,PLA
;   printQuality,Medium
;   printExtruders,
;   extruderName,Primary Extruder
;   extruderToolheadNumber,0
;   extruderDiameter,0.4
;   extruderAutoWidth,0
;   extruderWidth,0.5
;   extrusionMultiplier,1
;   extruderUseRetract,1
;   extruderRetractionDistance,1.9
;   extruderExtraRestartDistance,0
;   extruderRetractionZLift,0.5
;   extruderRetractionSpeed,1200
;   extruderUseCoasting,0
;   extruderCoastingDistance,0.2
;   extruderUseWipe,0
;   extruderWipeDistance,5
;   primaryExtruder,0
;   layerHeight,0.35
;   topSolidLayers,4
;   bottomSolidLayers,3
;   perimeterOutlines,2
;   printPerimetersInsideOut,1
;   startPointOption,3
;   startPointOriginX,140
;   startPointOriginY,0
;   sequentialIslands,0
;   spiralVaseMode,0
;   firstLayerHeightPercentage,100
;   firstLayerWidthPercentage,100
;   firstLayerUnderspeed,0.5
;   useRaft,0
;   raftExtruder,0
;   raftTopLayers,2
;   raftBaseLayers,1
;   raftOffset,1
;   raftSeparationDistance,0.14
;   raftTopInfill,90
;   aboveRaftSpeedMultiplier,0.3
;   useSkirt,0
;   skirtExtruder,0
;   skirtLayers,1
;   skirtOutlines,5
;   skirtOffset,0
;   usePrimePillar,0
;   primePillarExtruder,999
;   primePillarWidth,12
;   primePillarLocation,7
;   primePillarSpeedMultiplier,1
;   useOozeShield,0
;   oozeShieldExtruder,999
;   oozeShieldOffset,2
;   oozeShieldOutlines,1
;   oozeShieldSidewallShape,1
;   oozeShieldSidewallAngle,30
;   oozeShieldSpeedMultiplier,1
;   infillExtruder,0
;   internalInfillPattern,Rectilinear
;   externalInfillPattern,Rectilinear
;   infillPercentage,20
;   outlineOverlapPercentage,20
;   infillExtrusionWidthPercentage,100
;   minInfillLength,5
;   infillLayerInterval,1
;   internalInfillAngles,45,-45
;   overlapInternalInfillAngles,0
;   externalInfillAngles,45,-45
;   generateSupport,0
;   supportExtruder,0
;   supportInfillPercentage,30
;   supportExtraInflation,0.6
;   supportBaseLayers,0
;   denseSupportExtruder,0
;   denseSupportLayers,2
;   denseSupportInfillPercentage,70
;   supportLayerInterval,1
;   supportHorizontalPartOffset,0.3
;   supportUpperSeparationLayers,1
;   supportLowerSeparationLayers,1
;   supportType,0
;   supportGridSpacing,99
;   maxOverhangAngle,45
;   supportAngles,0
;   temperatureName,Primary Extruder,Heated Build Platform
;   temperatureNumber,0,0
;   temperatureSetpointCount,1,1
;   temperatureSetpointLayers,1,1
;   temperatureSetpointTemperatures,210,65
;   temperatureStabilizeAtStartup,1,1
;   temperatureHeatedBed,0,1
;   fanLayers,1,2
;   fanSpeeds,0,100
;   blipFanToFullPower,1
;   adjustSpeedForCooling,1
;   minSpeedLayerTime,15
;   minCoolingSpeedSlowdown,20
;   increaseFanForCooling,1
;   minFanLayerTime,45
;   maxCoolingFanSpeed,100
;   increaseFanForBridging,1
;   bridgingFanSpeed,100
;   use5D,1
;   relativeEdistances,1
;   allowEaxisZeroing,0
;   independentExtruderAxes,1
;   includeM10123,0
;   stickySupport,1
;   applyToolheadOffsets,0
;   gcodeXoffset,0
;   gcodeYoffset,0
;   gcodeZoffset,0
;   overrideMachineDefinition,1
;   machineTypeOverride,0
;   strokeXoverride,280
;   strokeYoverride,150
;   strokeZoverride,150
;   originOffsetXoverride,140
;   originOffsetYoverride,75
;   originOffsetZoverride,0
;   homeXdirOverride,1
;   homeYdirOverride,1
;   homeZdirOverride,-1
;   flipXoverride,1
;   flipYoverride,-1
;   flipZoverride,1
;   toolheadOffsets,0,0|0,0|0,0|0,0|0,0|0,0
;   overrideFirmwareConfiguration,1
;   firmwareTypeOverride,MakerBot/Sailfish Firmware
;   GPXconfigOverride,r2h
;   baudRateOverride,115200
;   overridePrinterModels,1
;   printerModelsOverride,MakerBot_Replicator2.stl
;   startingGcode,; **** Replicator 2 start.gcode ****,M73 P0 ; enable build progress,G162 X Y F3000 ; home XY maximum,G161 Z F1200 ; home Z minimum,G92 Z-5 ; set Z to -5,G1 Z0 ; move Z to 0,G28 ; better homing homie,M132 X Y Z A B ; recall home offsets,G1 X-145 Y-75 Z30 F9000 ; move to wait position off table,G130 X20 Y20 Z20 A20 B20 ; lower stepper Vrefs while heating,M126 S[fan_speed_pwm],M140 S[bed0_temperature] T0,M134 T0 ; stabilize bed temperature,M104 S[extruder0_temperature] T0,M133 T0 ; stabilize extruder temperature,G130 X127 Y127 Z40 A127 B127 ; default stepper Vrefs,G92 A0 ; zero extruder,G1 Z0.4 ; position nozzle,G1 E25 F300 ; purge nozzle,G1 X-140 Y-70 Z0.15 F1200 ; slow wipe,G1 X-135 Y-65 Z0.5 F1200 ; lift,G92 A0 ; zero extruder,M73 P1 ;@body (notify GPX body has started),; **** end of start.gcode ****
;   layerChangeGcode,
;   retractionGcode,
;   toolChangeGcode,
;   endingGcode,; **** Replicator 2 end.gcode ****,M73 P100 ; end build progress,G1 Z155 F1000 ; send Z axis to bottom of machine,M104 S0 T0 ; cool down extruder,M140 S0 T0 ; cool down HBP,M127 ; stop blower fan,G162 X Y F3000 ; home XY maximum,M18 ; disable stepper,M0 ; stop codes,M72 P1 ; play Ta-Da song,; **** end of end.gcode ****
;   exportFileFormat,gcode
;   celebration,0
;   celebrationSong,Random Song
;   postProcessing,
;   defaultSpeed,4800
;   outlineUnderspeed,0.5
;   solidInfillUnderspeed,1
;   supportUnderspeed,1
;   rapidXYspeed,9000
;   rapidZspeed,1200
;   minBridgingArea,50
;   bridgingExtraInflation,0
;   bridgingExtrusionMultiplier,1
;   bridgingSpeedMultiplier,0.8
;   useFixedBridgingAngle,0
;   fixedBridgingAngle,0
;   applyBridgingToPerimeters,0
;   filamentDiameters,1.75|1.75|1.75|1.75|1.75|1.75
;   filamentPricesPerKg,46|46|46|46|46|46
;   filamentDensities,1.25|1.25|1.25|1.25|1.25|1.25
;   useMinPrintHeight,0
;   minPrintHeight,0
;   useMaxPrintHeight,0
;   maxPrintHeight,4.84
;   useDiaphragm,0
;   diaphragmLayerInterval,20
;   robustSlicing,1
;   mergeAllIntoSolid,0
;   onlyRetractWhenCrossingOutline,0
;   retractBetweenLayers,0
;   useRetractionMinTravel,1
;   retractionMinTravel,7
;   retractWhileWiping,1
;   onlyWipeOutlines,1
;   avoidCrossingOutline,0
;   maxMovementDetourFactor,3
;   toolChangeRetractionDistance,12
;   toolChangeExtraRestartDistance,-0.5
;   toolChangeRetractionSpeed,600
;   externalThinWallType,0
;   internalThinWallType,0
;   thinWallAllowedOverlapPercentage,10
;   singleExtrusionMinLength,1
;   singleExtrusionMinPrintingWidthPercentage,50
;   singleExtrusionMaxPrintingWidthPercentage,200
;   singleExtrusionEndpointExtension,0.2
;   horizontalSizeCompensation,0
G90
M83
; **** Replicator 2 start.gcode ****
M73 P0 ; enable build progress
G162 X Y F3000 ; home XY maximum
G161 Z F1200 ; home Z minimum
G92 Z-5 ; set Z to -5
G1 Z0 ; move Z to 0
G28 ; better homing homie
M132 X Y Z A B ; recall home offsets
G1 X-145 Y-75 Z30 F9000 ; move to wait position off table
G130 X20 Y20 Z20 A20 B20 ; lower stepper Vrefs while heating
M127
M140 S65 T0
M134 T0 ; stabilize bed temperature
M104 S210 T0
M133 T0 ; stabilize extruder temperature
G130 X127 Y127 Z40 A127 B127 ; default stepper Vrefs
G92 A0 ; zero extruder
G1 Z0.4 ; position nozzle
G1 E25 F300 ; purge nozzle
G1 X-140 Y-70 Z0.15 F1200 ; slow wipe
G1 X-135 Y-65 Z0.5 F1200 ; lift
G92 A0 ; zero extruder
M73 P1 ;@body (notify GPX body has started)
; **** end of start.gcode ****
; process Process1
; layer 1, Z = 0.350
M135 T0
G1 E-1.9000 F1200
; feature inner perimeter
; tool H0.350 W0.500
G1 Z0.500 F1200
G1 X13.588 Y10.000 F9000
G1 Z0.350 F1200
G1 E1.9000 F1200
G1 X-23.135 Y10.000 E2.6718 F1800
G1 X-23.135 Y-10.000 E1.4551
G1 X13.588 Y-10.000 E2.6718
G1 X13.588 Y10.000 E1.4551
; feature outer perimeter
G1 X14.088 Y10.500 F9000
G1 X-23.635 Y10.500 E2.7446 F1200
G1 X-23.635 Y-10.500 E1.5279
G1 X14.088 Y-10.500 E2.7446
G1 X14.088 Y10.500 E1.5279
; feature inner perimeter
G1 X12.165 Y8.700 F9000
G1 X12.165 Y-8.700 E1.2660 F1800
G1 X-21.835 Y-8.700 E2.4737
G1 X-21.835 Y8.700 E1.2660
G1 X12.165 Y8.700 E2.4737
; feature outer perimeter
G1 X11.665 Y8.200 F9000
G1 X11.665 Y-8.200 E1.1932 F1200
G1 X-21.335 Y-8.200 E2.4010
G1 X-21.335 Y8.200 E1.1932
G1 X11.665 Y8.200 E2.4010
G1 E-1.9000 F1200
; feature solid layer
G1 Z0.850 F1200
G1 X12.565 Y-8.648 F9000
G1 Z0.350 F1200
G1 E1.9000 F1200
G1 X13.188 Y-8.026 E0.0641 F2400
G1 X13.188 Y-7.319 E0.0514
G1 X12.565 Y-7.941 E0.0641
G1 X12.565 Y-7.234 E0.0514
G1 X13.188 Y-6.611 E0.0641
G1 X13.188 Y-5.904 E0.0514
G1 X12.565 Y-6.527 E0.0641
G1 X12.565 Y-5.820 E0.0514
G1 X13.188 Y-5.197 E0.0641
G1 X13.188 Y-4.490 E0.0514
G1 X12.565 Y-5.113 E0.0641
G1 X12.565 Y-4.406 E0.0514
G1 X13.188 Y-3.783 E0.0641
G1 X13.188 Y-3.076 E0.0514
G1 X12.565 Y-3.698 E0.0641
G1 X12.565 Y-2.991 E0.0514
G1 X13.188 Y-2.369 E0.0641
G1 X13.188 Y-1.662 E0.0514
G1 X12.565 Y-2.284 E0.0641
G1 X12.565 Y-1.577 E0.0514
G1 X13.188 Y-0.955 E0.0641
G1 X13.188 Y-0.247 E0.0514
G1 X12.565 Y-0.870 E0.0641
G1 X12.565 Y-0.163 E0.0514
G1 X13.188 Y0.460 E0.0641
G1 X13.188 Y1.167 E0.0514
G1 X12.565 Y0.544 E0.0641
G1 X12.565 Y1.251 E0.0514
G1 X13.188 Y1.874 E0.0641
G1 X13.188 Y2.581 E0.0514
G1 X12.565 Y1.958 E0.0641
G1 X12.565 Y2.665 E0.0514
G1 X13.188 Y3.288 E0.0641
G1 X13.188 Y3.995 E0.0514
G1 X12.565 Y3.373 E0.0641
G1 X12.565 Y4.080 E0.0514
G1 X13.188 Y4.702 E0.0641
G1 X13.188 Y5.409 E0.0514
G1 X12.565 Y4.787 E0.0641
G1 X12.565 Y5.494 E0.0514
G1 X13.188 Y6.116 E0.0641
G1 X13.188 Y6.824 E0.0514
G1 X12.565 Y6.201 E0.0641
G1 X12.565 Y6.908 E0.0514
G1 X13.188 Y7.531 E0.0641
G1 X13.188 Y8.238 E0.0514
G1 X12.565 Y7.615 E0.0641
G1 X12.565 Y8.322 E0.0514
G1 X13.188 Y8.945 E0.0641
G1 X13.188 Y9.600 E0.0477
G1 X13.136 Y9.600 E0.0038
G1 X12.565 Y9.029 E0.0587
G1 X12.565 Y9.100 E0.0051
G1 X11.928 Y9.100 E0.0463
G1 X12.428 Y9.600 E0.0514
G1 X11.721 Y9.600 E0.0514
G1 X11.221 Y9.100 E0.0514
G1 X10.514 Y9.100 E0.0514
G1 X11.014 Y9.600 E0.0514
G1 X10.307 Y9.600 E0.0514
G1 X9.807 Y9.100 E0.0514
G1 X9.100 Y9.100 E0.0514
G1 X9.600 Y9.600 E0.0514
G1 X8.893 Y9.600 E0.0514
G1 X8.393 Y9.100 E0.0514
G1 X7.686 Y9.100 E0.0514
G1 X8.186 Y9.600 E0.0514
G1 X7.479 Y9.600 E0.0514
G1 X6.979 Y9.100 E0.0514
G1 X6.272 Y9.100 E0.0514
G1 X6.772 Y9.600 E0.0514
G1 X6.064 Y9.600 E0.0514
G1 X5.564 Y9.100 E0.0514
G1 X4.857 Y9.100 E0.0514
G1 X5.357 Y9.600 E0.0514
G1 X4.650 Y9.600 E0.0514
G1 X4.150 Y9.100 E0.0514
G1 X3.443 Y9.100 E0.0514
G1 X3.943 Y9.600 E0.0514
G1 X3.236 Y9.600 E0.0514
G1 X2.736 Y9.100 E0.0514
G1 X2.029 Y9.100 E0.0514
G1 X2.529 Y9.600 E0.0514
G1 X1.822 Y9.600 E0.0514
G1 X1.322 Y9.100 E0.0514
G1 X0.615 Y9.100 E0.0514
G1 X1.115 Y9.600 E0.0514
G1 X0.408 Y9.600 E0.0514
G1 X-0.092 Y9.100 E0.0514
G1 X-0.799 Y9.100 E0.0514
G1 X-0.299 Y9.600 E0.0514
G1 X-1.007 Y9.600 E0.0514
G1 X-1.507 Y9.100 E0.0514
G1 X-2.214 Y9.100 E0.0514
G1 X-1.714 Y9.600 E0.0514
G1 X-2.421 Y9.600 E0.0514
G1 X-2.921 Y9.100 E0.0514
G1 X-3.628 Y9.100 E0.0514
G1 X-3.128 Y9.600 E0.0514
G1 X-3.835 Y9.600 E0.0514
G1 X-4.335 Y9.100 E0.0514
G1 X-5.042 Y9.100 E0.0514
G1 X-4.542 Y9.600 E0.0514
G1 X-5.249 Y9.600 E0.0514
G1 X-5.749 Y9.100 E0.0514
G1 X-6.456 Y9.100 E0.0514
G1 X-5.956 Y9.600 E0.0514
G1 X-6.663 Y9.600 E0.0514
G1 X-7.163 Y9.100 E0.0514
G1 X-7.871 Y9.100 E0.0514
G1 X-7.371 Y9.600 E0.0514
G1 X-8.078 Y9.600 E0.0514
G1 X-8.578 Y9.100 E0.0514
G1 X-9.285 Y9.100 E0.0514
G1 X-8.785 Y9.600 E0.0514
G1 X-9.492 Y9.600 E0.0514
G1 X-9.992 Y9.100 E0.0514
G1 X-10.699 Y9.100 E0.0514
G1 X-10.199 Y9.600 E0.0514
G1 X-10.906 Y9.600 E0.0514
G1 X-11.406 Y9.100 E0.0514
G1 X-12.113 Y9.100 E0.0514
G1 X-11.613 Y9.600 E0.0514
G1 X-12.320 Y9.600 E0.0514
G1 X-12.820 Y9.100 E0.0514
G1 X-13.527 Y9.100 E0.0514
G1 X-13.027 Y9.600 E0.0514
G1 X-13.735 Y9.600 E0.0514
G1 X-14.235 Y9.100 E0.0514
G1 X-14.942 Y9.100 E0.0514
G1 X-14.442 Y9.600 E0.0514
G1 X-15.149 Y9.600 E0.0514
G1 X-15.649 Y9.100 E0.0514
G1 X-16.356 Y9.100 E0.0514
G1 X-15.856 Y9.600 E0.0514
G1 X-16.563 Y9.600 E0.0514
G1 X-17.063 Y9.100 E0.0514
G1 X-17.770 Y9.100 E0.0514
G1 X-17.270 Y9.600 E0.0514
G1 X-17.977 Y9.600 E0.0514
G1 X-18.477 Y9.100 E0.0514
G1 X-19.184 Y9.100 E0.0514
G1 X-18.684 Y9.600 E0.0514
G1 X-19.391 Y9.600 E0.0514
G1 X-19.891 Y9.100 E0.0514
G1 X-20.598 Y9.100 E0.0514
G1 X-20.098 Y9.600 E0.0514
G1 X-20.806 Y9.600 E0.0514
G1 X-21.306 Y9.100 E0.0514
G1 X-22.735 Y9.085 F9000
G1 X-22.220 Y9.600 E0.0530 F2400
G1 X-21.513 Y9.600 E0.0514
G1 X-22.013 Y9.100 E0.0514
G1 X-22.235 Y9.100 E0.0162
G1 X-22.235 Y8.878 E0.0162
G1 X-22.735 Y8.378 E0.0514
G1 X-22.735 Y7.671 E0.0514
G1 X-22.235 Y8.171 E0.0514
G1 X-22.235 Y7.463 E0.0514
G1 X-22.735 Y6.963 E0.0514
G1 X-22.735 Y6.256 E0.0514
G1 X-22.235 Y6.756 E0.0514
G1 X-22.235 Y6.049 E0.0514
G1 X-22.735 Y5.549 E0.0514
G1 X-22.735 Y4.842 E0.0514
G1 X-22.235 Y5.342 E0.0514
G1 X-22.235 Y4.635 E0.0514
G1 X-22.735 Y4.135 E0.0514
G1 X-22.735 Y3.428 E0.0514
G1 X-22.235 Y3.928 E0.0514
G1 X-22.235 Y3.221 E0.0514
G1 X-22.735 Y2.721 E0.0514
G1 X-22.735 Y2.014 E0.0514
G1 X-22.235 Y2.514 E0.0514
G1 X-22.235 Y1.807 E0.0514
G1 X-22.735 Y1.307 E0.0514
G1 X-22.735 Y0.600 E0.0514
G1 X-22.235 Y1.100 E0.0514
G1 X-22.235 Y0.392 E0.0514
G1 X-22.735 Y-0.108 E0.0514
G1 X-22.735 Y-0.815 E0.0514
G1 X-22.235 Y-0.315 E0.0514
G1 X-22.235 Y-1.022 E0.0514
G1 X-22.735 Y-1.522 E0.0514
G1 X-22.735 Y-2.229 E0.0514
G1 X-22.235 Y-1.729 E0.0514
G1 X-22.235 Y-2.436 E0.0514
G1 X-22.735 Y-2.936 E0.0514
G1 X-22.735 Y-3.643 E0.0514
G1 X-22.235 Y-3.143 E0.0514
G1 X-22.235 Y-3.850 E0.0514
G1 X-22.735 Y-4.350 E0.0514
G1 X-22.735 Y-5.057 E0.0514
G1 X-22.235 Y-4.557 E0.0514
G1 X-22.235 Y-5.264 E0.0514
G1 X-22.735 Y-5.764 E0.0514
G1 X-22.735 Y-6.472 E0.0514
G1 X-22.235 Y-5.972 E0.0514
G1 X-22.235 Y-6.679 E0.0514
G1 X-22.735 Y-7.179 E0.0514
G1 X-22.735 Y-7.886 E0.0514
G1 X-22.235 Y-7.386 E0.0514
G1 X-22.235 Y-8.093 E0.0514
G1 X-22.735 Y-8.593 E0.0514
G1 X-22.735 Y-9.300 E0.0514
G1 X-22.235 Y-8.800 E0.0514
G1 X-22.235 Y-9.100 E0.0218
G1 X-21.828 Y-9.100 E0.0296
G1 X-22.328 Y-9.600 E0.0514
G1 X-21.621 Y-9.600 E0.0514
G1 X-21.121 Y-9.100 E0.0514
G1 X-20.414 Y-9.100 E0.0514
G1 X-20.914 Y-9.600 E0.0514
G1 X-20.207 Y-9.600 E0.0514
G1 X-19.707 Y-9.100 E0.0514
G1 X-18.999 Y-9.100 E0.0514
G1 X-19.499 Y-9.600 E0.0514
G1 X-18.792 Y-9.600 E0.0514
G1 X-18.292 Y-9.100 E0.0514
G1 X-17.585 Y-9.100 E0.0514
G1 X-18.085 Y-9.600 E0.0514
G1 X-17.378 Y-9.600 E0.0514
G1 X-16.878 Y-9.100 E0.0514
G1 X-16.171 Y-9.100 E0.0514
G1 X-16.671 Y-9.600 E0.0514
G1 X-15.964 Y-9.600 E0.0514
G1 X-15.464 Y-9.100 E0.0514
G1 X-14.757 Y-9.100 E0.0514
G1 X-15.257 Y-9.600 E0.0514
G1 X-14.550 Y-9.600 E0.0514
G1 X-14.050 Y-9.100 E0.0514
G1 X-13.343 Y-9.100 E0.0514
G1 X-13.843 Y-9.600 E0.0514
G1 X-13.136 Y-9.600 E0.0514
G1 X-12.636 Y-9.100 E0.0514
G1 X-11.928 Y-9.100 E0.0514
G1 X-12.428 Y-9.600 E0.0514
G1 X-11.721 Y-9.600 E0.0514
G1 X-11.221 Y-9.100 E0.0514
G1 X-10.514 Y-9.100 E0.0514
G1 X-11.014 Y-9.600 E0.0514
G1 X-10.307 Y-9.600 E0.0514
G1 X-9.807 Y-9.100 E0.0514
G1 X-9.100 Y-9.100 E0.0514
G1 X-9.600 Y-9.600 E0.0514
G1 X-8.893 Y-9.600 E0.0514
G1 X-8.393 Y-9.100 E0.0514
G1 X-7.686 Y-9.100 E0.0514
G1 X-8.186 Y-9.600 E0.0514
G1 X-7.479 Y-9.600 E0.0514
G1 X-6.979 Y-9.100 E0.0514
G1 X-6.272 Y-9.100 E0.0514
G1 X-6.772 Y-9.600 E0.0514
G1 X-6.064 Y-9.600 E0.0514
G1 X-5.564 Y-9.100 E0.0514
G1 X-4.857 Y-9.100 E0.0514
G1 X-5.357 Y-9.600 E0.0514
G1 X-4.650 Y-9.600 E0.0514
G1 X-4.150 Y-9.100 E0.0514
G1 X-3.443 Y-9.100 E0.0514
G1 X-3.943 Y-9.600 E0.0514
G1 X-3.236 Y-9.600 E0.0514
G1 X-2.736 Y-9.100 E0.0514
G1 X-2.029 Y-9.100 E0.0514
G1 X-2.529 Y-9.600 E0.0514
G1 X-1.822 Y-9.600 E0.0514
G1 X-1.322 Y-9.100 E0.0514
G1 X-0.615 Y-9.100 E0.0514
G1 X-1.115 Y-9.600 E0.0514
G1 X-0.408 Y-9.600 E0.0514
G1 X0.092 Y-9.100 E0.0514
G1 X0.800 Y-9.100 E0.0514
G1 X0.300 Y-9.600 E0.0514
G1 X1.007 Y-9.600 E0.0514
G1 X1.507 Y-9.100 E0.0514
G1 X2.214 Y-9.100 E0.0514
G1 X1.714 Y-9.600 E0.0514
G1 X2.421 Y-9.600 E0.0514
G1 X2.921 Y-9.100 E0.0514
G1 X3.628 Y-9.100 E0.0514
G1 X3.128 Y-9.600 E0.0514
G1 X3.835 Y-9.600 E0.0514
G1 X4.335 Y-9.100 E0.0514
G1 X5.042 Y-9.100 E0.0514
G1 X4.542 Y-9.600 E0.0514
G1 X5.249 Y-9.600 E0.0514
G1 X5.749 Y-9.100 E0.0514
G1 X6.456 Y-9.100 E0.0514
G1 X5.956 Y-9.600 E0.0514
