; G-Code generated by Simplify3D(R) Version 4.1.2
; Apr 28, 2020 at 11:03:58 AM
; Settings Summary
;   processName,Process1
;   applyToModels,Amp Body,Strip Harness,Pro Speaker
;   profileName,MakerBot Replicator 2 HBP (modified)
;   profileVersion,2020-04-21 14:45:34
;   baseProfile,MakerBot Replicator 2(2)
;   printMaterial,PLA
;   printQuality,Medium
;   printExtruders,
;   extruderName,Primary Extruder
;   extruderToolheadNumber,0
;   extruderDiameter,0.4
;   extruderAutoWidth,0
;   extruderWidth,0.4
;   extrusionMultiplier,1
;   extruderUseRetract,1
;   extruderRetractionDistance,1.9
;   extruderExtraRestartDistance,0
;   extruderRetractionZLift,0.5
;   extruderRetractionSpeed,1200
;   extruderUseCoasting,0
;   extruderCoastingDistance,0.2
;   extruderUseWipe,0
;   extruderWipeDistance,5
;   primaryExtruder,0
;   layerHeight,0.2
;   topSolidLayers,3
;   bottomSolidLayers,3
;   perimeterOutlines,2
;   printPerimetersInsideOut,1
;   startPointOption,3
;   startPointOriginX,140
;   startPointOriginY,0
;   sequentialIslands,0
;   spiralVaseMode,0
;   firstLayerHeightPercentage,100
;   firstLayerWidthPercentage,100
;   firstLayerUnderspeed,0.5
;   useRaft,0
;   raftExtruder,0
;   raftTopLayers,2
;   raftBaseLayers,1
;   raftOffset,1
;   raftSeparationDistance,0.14
;   raftTopInfill,90
;   aboveRaftSpeedMultiplier,0.3
;   useSkirt,0
;   skirtExtruder,0
;   skirtLayers,1
;   skirtOutlines,5
;   skirtOffset,0
;   usePrimePillar,0
;   primePillarExtruder,999
;   primePillarWidth,12
;   primePillarLocation,7
;   primePillarSpeedMultiplier,1
;   useOozeShield,0
;   oozeShieldExtruder,999
;   oozeShieldOffset,2
;   oozeShieldOutlines,1
;   oozeShieldSidewallShape,1
;   oozeShieldSidewallAngle,30
;   oozeShieldSpeedMultiplier,1
;   infillExtruder,0
;   internalInfillPattern,Rectilinear
;   externalInfillPattern,Rectilinear
;   infillPercentage,15
;   outlineOverlapPercentage,20
;   infillExtrusionWidthPercentage,100
;   minInfillLength,5
;   infillLayerInterval,1
;   internalInfillAngles,45,-45
;   overlapInternalInfillAngles,0
;   externalInfillAngles,45,-45
;   generateSupport,1
;   supportExtruder,0
;   supportInfillPercentage,30
;   supportExtraInflation,0.6
;   supportBaseLayers,0
;   denseSupportExtruder,0
;   denseSupportLayers,2
;   denseSupportInfillPercentage,70
;   supportLayerInterval,1
;   supportHorizontalPartOffset,0.3
;   supportUpperSeparationLayers,1
;   supportLowerSeparationLayers,1
;   supportType,0
;   supportGridSpacing,99
;   maxOverhangAngle,45
;   supportAngles,0
;   temperatureName,Primary Extruder,Heated Build Platform
;   temperatureNumber,0,0
;   temperatureSetpointCount,1,1
;   temperatureSetpointLayers,1,1
;   temperatureSetpointTemperatures,230,60
;   temperatureStabilizeAtStartup,1,1
;   temperatureHeatedBed,0,1
;   fanLayers,1,2
;   fanSpeeds,0,100
;   blipFanToFullPower,1
;   adjustSpeedForCooling,1
;   minSpeedLayerTime,15
;   minCoolingSpeedSlowdown,20
;   increaseFanForCooling,1
;   minFanLayerTime,45
;   maxCoolingFanSpeed,100
;   increaseFanForBridging,1
;   bridgingFanSpeed,100
;   use5D,1
;   relativeEdistances,1
;   allowEaxisZeroing,0
;   independentExtruderAxes,1
;   includeM10123,0
;   stickySupport,1
;   applyToolheadOffsets,0
;   gcodeXoffset,0
;   gcodeYoffset,0
;   gcodeZoffset,0
;   overrideMachineDefinition,1
;   machineTypeOverride,0
;   strokeXoverride,280
;   strokeYoverride,150
;   strokeZoverride,150
;   originOffsetXoverride,140
;   originOffsetYoverride,75
;   originOffsetZoverride,0
;   homeXdirOverride,1
;   homeYdirOverride,1
;   homeZdirOverride,-1
;   flipXoverride,1
;   flipYoverride,-1
;   flipZoverride,1
;   toolheadOffsets,0,0|0,0|0,0|0,0|0,0|0,0
;   overrideFirmwareConfiguration,1
;   firmwareTypeOverride,MakerBot/Sailfish Firmware
;   GPXconfigOverride,r2h
;   baudRateOverride,115200
;   overridePrinterModels,1
;   printerModelsOverride,MakerBot_Replicator2.stl
;   startingGcode,; **** Replicator 2 start.gcode ****,M73 P0 ; enable build progress,G162 X Y F3000 ; home XY maximum,G161 Z F1200 ; home Z minimum,G92 Z-5 ; set Z to -5,G1 Z0 ; move Z to 0,G161 Z F100 ; home Z slowly,M132 X Y Z A B ; recall home offsets,G1 X-145 Y-75 Z30 F9000 ; move to wait position off table,G130 X20 Y20 Z20 A20 B20 ; lower stepper Vrefs while heating,M126 S[fan_speed_pwm],M140 S[bed0_temperature] T0,M134 T0 ; stabilize bed temperature,M104 S[extruder0_temperature] T0,M133 T0 ; stabilize extruder temperature,G130 X127 Y127 Z40 A127 B127 ; default stepper Vrefs,G92 A0 ; zero extruder,G1 Z0.4 ; position nozzle,G1 E25 F300 ; purge nozzle,G1 X-140 Y-70 Z0.15 F1200 ; slow wipe,G1 X-135 Y-65 Z0.5 F1200 ; lift,G92 A0 ; zero extruder,M73 P1 ;@body (notify GPX body has started),; **** end of start.gcode ****
;   layerChangeGcode,
;   retractionGcode,
;   toolChangeGcode,
;   endingGcode,; **** Replicator 2 end.gcode ****,M73 P100 ; end build progress,G1 Z155 F1000 ; send Z axis to bottom of machine,M104 S0 T0 ; cool down extruder,M140 S0 T0 ; cool down HBP,M127 ; stop blower fan,G162 X Y F3000 ; home XY maximum,M18 ; disable stepper,M0 ; stop codes,M72 P1 ; play Ta-Da song,; **** end of end.gcode ****
;   exportFileFormat,gcode
;   celebration,0
;   celebrationSong,Random Song
;   postProcessing,
;   defaultSpeed,4800
;   outlineUnderspeed,0.5
;   solidInfillUnderspeed,1
;   supportUnderspeed,1
;   rapidXYspeed,9000
;   rapidZspeed,1200
;   minBridgingArea,50
;   bridgingExtraInflation,0
;   bridgingExtrusionMultiplier,1
;   bridgingSpeedMultiplier,0.8
;   useFixedBridgingAngle,0
;   fixedBridgingAngle,0
;   applyBridgingToPerimeters,0
;   filamentDiameters,1.75|1.75|1.75|1.75|1.75|1.75
;   filamentPricesPerKg,46|46|46|46|46|46
;   filamentDensities,1.25|1.25|1.25|1.25|1.25|1.25
;   useMinPrintHeight,0
;   minPrintHeight,0
;   useMaxPrintHeight,0
;   maxPrintHeight,4.84
;   useDiaphragm,0
;   diaphragmLayerInterval,20
;   robustSlicing,1
;   mergeAllIntoSolid,0
;   onlyRetractWhenCrossingOutline,0
;   retractBetweenLayers,0
;   useRetractionMinTravel,1
;   retractionMinTravel,7
;   retractWhileWiping,1
;   onlyWipeOutlines,1
;   avoidCrossingOutline,0
;   maxMovementDetourFactor,3
;   toolChangeRetractionDistance,12
;   toolChangeExtraRestartDistance,-0.5
;   toolChangeRetractionSpeed,600
;   externalThinWallType,0
;   internalThinWallType,0
;   thinWallAllowedOverlapPercentage,10
;   singleExtrusionMinLength,1
;   singleExtrusionMinPrintingWidthPercentage,50
;   singleExtrusionMaxPrintingWidthPercentage,200
;   singleExtrusionEndpointExtension,0.2
;   horizontalSizeCompensation,0
G90
M83
; **** Replicator 2 start.gcode ****
M73 P0 ; enable build progress
G162 X Y F3000 ; home XY maximum
G161 Z F1200 ; home Z minimum
G92 Z-5 ; set Z to -5
G1 Z0 ; move Z to 0
G161 Z F100 ; home Z slowly
M132 X Y Z A B ; recall home offsets
G1 X-145 Y-75 Z30 F9000 ; move to wait position off table
G130 X20 Y20 Z20 A20 B20 ; lower stepper Vrefs while heating
M127
M140 S60 T0
M134 T0 ; stabilize bed temperature
M104 S230 T0
M133 T0 ; stabilize extruder temperature
G130 X127 Y127 Z40 A127 B127 ; default stepper Vrefs
G92 A0 ; zero extruder
G1 Z0.4 ; position nozzle
G1 E25 F300 ; purge nozzle
G1 X-140 Y-70 Z0.15 F1200 ; slow wipe
G1 X-135 Y-65 Z0.5 F1200 ; lift
G92 A0 ; zero extruder
M73 P1 ;@body (notify GPX body has started)
; **** end of start.gcode ****
; process Process1
; layer 1, Z = 0.200
M135 T0
G1 E-1.9000 F1200
; feature inner perimeter
; tool H0.200 W0.400
G1 Z0.500 F1200
G1 X4.447 Y3.148 F9000
G1 Z0.200 F1200
G1 E1.9000 F1200
G1 X-57.447 Y3.148 E2.0586 F1800
G1 X-57.447 Y-25.359 E0.9482
G1 X-23.273 Y-25.359 E1.1366
G1 X-23.273 Y-35.303 E0.3307
G1 X-14.473 Y-35.303 E0.2927
G1 X-14.473 Y-25.359 E0.3307
G1 X4.447 Y-25.359 E0.6293
G1 X4.447 Y3.148 E0.9482
; feature outer perimeter
G1 X4.847 Y3.548 F9000
G1 X-57.847 Y3.548 E2.0852 F1200
G1 X-57.847 Y-25.759 E0.9748
G1 X-23.673 Y-25.759 E1.1366
G1 X-23.673 Y-35.703 E0.3307
G1 X-14.073 Y-35.703 E0.3193
G1 X-14.073 Y-25.759 E0.3307
G1 X4.847 Y-25.759 E0.6293
G1 X4.847 Y3.548 E0.9748
G1 E-1.9000 F1200
; feature inner perimeter
G1 Z0.700 F1200
G1 X-17.110 Y-28.465 F9000
G1 Z0.200 F1200
G1 E1.9000 F1200
G1 X-16.677 Y-28.820 E0.0186 F1800
G1 X-16.323 Y-29.252 E0.0186
G1 X-16.059 Y-29.746 E0.0186
G1 X-15.897 Y-30.281 E0.0186
G1 X-15.842 Y-30.837 E0.0186
G1 X-15.897 Y-31.394 E0.0186
G1 X-16.059 Y-31.929 E0.0186
G1 X-16.323 Y-32.422 E0.0186
G1 X-16.677 Y-32.855 E0.0186
G1 X-17.110 Y-33.209 E0.0186
G1 X-17.603 Y-33.473 E0.0186
G1 X-18.138 Y-33.635 E0.0186
G1 X-18.695 Y-33.690 E0.0186
G1 X-19.251 Y-33.635 E0.0186
G1 X-19.787 Y-33.473 E0.0186
G1 X-20.280 Y-33.209 E0.0186
G1 X-20.712 Y-32.855 E0.0186
G1 X-21.067 Y-32.422 E0.0186
G1 X-21.330 Y-31.929 E0.0186
G1 X-21.493 Y-31.394 E0.0186
G1 X-21.548 Y-30.837 E0.0186
G1 X-21.493 Y-30.281 E0.0186
G1 X-21.330 Y-29.746 E0.0186
G1 X-21.067 Y-29.252 E0.0186
G1 X-20.712 Y-28.820 E0.0186
G1 X-20.280 Y-28.465 E0.0186
G1 X-19.787 Y-28.202 E0.0186
G1 X-19.251 Y-28.039 E0.0186
G1 X-18.695 Y-27.984 E0.0186
G1 X-18.138 Y-28.039 E0.0186
G1 X-17.603 Y-28.202 E0.0186
G1 X-17.110 Y-28.465 E0.0186
; feature outer perimeter
G1 X-17.333 Y-28.799 F9000
G1 X-16.962 Y-29.104 E0.0160 F1200
G1 X-16.657 Y-29.476 E0.0160
G1 X-16.430 Y-29.899 E0.0160
G1 X-16.291 Y-30.359 E0.0160
G1 X-16.244 Y-30.837 E0.0160
G1 X-16.291 Y-31.316 E0.0160
G1 X-16.430 Y-31.775 E0.0160
G1 X-16.657 Y-32.199 E0.0160
G1 X-16.962 Y-32.570 E0.0160
G1 X-17.333 Y-32.875 E0.0160
G1 X-17.757 Y-33.102 E0.0160
G1 X-18.217 Y-33.241 E0.0160
G1 X-18.695 Y-33.288 E0.0160
G1 X-19.173 Y-33.241 E0.0160
G1 X-19.633 Y-33.102 E0.0160
G1 X-20.056 Y-32.875 E0.0160
G1 X-20.428 Y-32.570 E0.0160
G1 X-20.733 Y-32.199 E0.0160
G1 X-20.959 Y-31.775 E0.0160
G1 X-21.099 Y-31.315 E0.0160
G1 X-21.146 Y-30.837 E0.0160
G1 X-21.099 Y-30.359 E0.0160
G1 X-20.959 Y-29.899 E0.0160
G1 X-20.733 Y-29.476 E0.0160
G1 X-20.428 Y-29.104 E0.0160
G1 X-20.056 Y-28.799 E0.0160
G1 X-19.633 Y-28.573 E0.0160
G1 X-19.173 Y-28.433 E0.0160
G1 X-18.695 Y-28.386 E0.0160
G1 X-18.217 Y-28.433 E0.0160
G1 X-17.757 Y-28.573 E0.0160
G1 X-17.333 Y-28.799 E0.0160
; feature solid layer
G1 X-18.104 Y-27.721 F9000
G1 X4.127 Y-5.489 E1.0457 F2400
G1 X4.127 Y-4.924 E0.0188
G1 X-18.619 Y-27.670 E1.0699
G1 X-18.695 Y-27.663 E0.0025
G1 X-19.230 Y-27.716 E0.0179
G1 X4.127 Y-4.358 E1.0987
G1 X4.127 Y-3.792 E0.0188
G1 X-20.071 Y-27.991 E1.1382
G1 E-1.9000 F1200
G1 Z0.700 F1200
G1 X-18.579 Y-34.983 F9000
G1 Z0.200 F1200
G1 E1.9000 F1200
G1 X-17.234 Y-33.638 E0.0633 F2400
G1 X-17.480 Y-33.770 E0.0093
G1 X-18.075 Y-33.951 E0.0207
G1 X-18.116 Y-33.955 E0.0013
G1 X-19.144 Y-34.983 E0.0484
G1 X-19.710 Y-34.983 E0.0188
G1 X-18.734 Y-34.008 E0.0459
G1 X-19.249 Y-33.957 E0.0172
G1 X-20.276 Y-34.983 E0.0483
G1 X-20.841 Y-34.983 E0.0188
G1 X-19.694 Y-33.836 E0.0540
G1 X-19.910 Y-33.770 E0.0075
G1 X-20.095 Y-33.671 E0.0070
G1 X-21.407 Y-34.983 E0.0617
G1 X-21.973 Y-34.983 E0.0188
G1 X-20.463 Y-33.473 E0.0710
G1 X-20.773 Y-33.218 E0.0134
G1 X-22.538 Y-34.983 E0.0830
G1 X-22.953 Y-34.983 E0.0138
G1 X-22.953 Y-34.832 E0.0050
G1 X-21.058 Y-32.937 E0.0891
G1 X-21.313 Y-32.627 E0.0134
G1 X-22.953 Y-34.267 E0.0771
G1 X-22.953 Y-33.701 E0.0188
G1 X-21.515 Y-32.263 E0.0676
G1 X-21.628 Y-32.052 E0.0079
G1 X-21.684 Y-31.866 E0.0065
G1 X-22.953 Y-33.135 E0.0597
G1 X-22.953 Y-32.570 E0.0188
G1 X-21.811 Y-31.428 E0.0537
G1 X-21.862 Y-30.913 E0.0172
G1 X-22.953 Y-32.004 E0.0513
G1 X-22.953 Y-31.438 E0.0188
G1 X-21.816 Y-30.302 E0.0535
G1 X-21.808 Y-30.218 E0.0028
G1 X-21.628 Y-29.623 E0.0207
G1 X-21.541 Y-29.461 E0.0061
G1 X-22.953 Y-30.873 E0.0664
G1 X-22.953 Y-30.307 E0.0188
G1 X4.127 Y-3.226 E1.2738
G1 X4.127 Y-2.661 E0.0188
G1 X-22.953 Y-29.741 E1.2738
G1 X-22.953 Y-29.176 E0.0188
G1 X4.127 Y-2.095 E1.2738
G1 X4.127 Y-1.529 E0.0188
G1 X-22.953 Y-28.610 E1.2738
G1 X-22.953 Y-28.044 E0.0188
G1 X4.127 Y-0.964 E1.2738
G1 X4.127 Y-0.398 E0.0188
G1 X-22.953 Y-27.479 E1.2738
G1 X-22.953 Y-26.913 E0.0188
G1 X4.127 Y0.168 E1.2738
G1 X4.127 Y0.733 E0.0188
G1 X-22.953 Y-26.347 E1.2738
G1 X-22.953 Y-25.781 E0.0188
G1 X4.127 Y1.299 E1.2738
G1 X4.127 Y1.865 E0.0188
G1 X-22.953 Y-25.216 E1.2738
G1 X-22.953 Y-25.039 E0.0059
G1 X-23.342 Y-25.039 E0.0129
G1 X4.127 Y2.430 E1.2921
G1 X4.127 Y2.828 E0.0132
G1 X3.959 Y2.828 E0.0056
G1 X-23.908 Y-25.039 E1.3108
G1 X-24.474 Y-25.039 E0.0188
G1 X3.394 Y2.828 E1.3108
G1 X2.828 Y2.828 E0.0188
G1 X-25.039 Y-25.039 E1.3108
G1 X-25.605 Y-25.039 E0.0188
G1 X2.262 Y2.828 E1.3108
G1 X1.697 Y2.828 E0.0188
G1 X-26.171 Y-25.039 E1.3108
G1 X-26.736 Y-25.039 E0.0188
G1 X1.131 Y2.828 E1.3108
G1 X0.565 Y2.828 E0.0188
G1 X-27.302 Y-25.039 E1.3108
G1 X-27.868 Y-25.039 E0.0188
G1 X-0.001 Y2.828 E1.3108
G1 X-0.566 Y2.828 E0.0188
G1 X-28.433 Y-25.039 E1.3108
G1 X-28.999 Y-25.039 E0.0188
G1 X-1.132 Y2.828 E1.3108
G1 X-1.698 Y2.828 E0.0188
G1 X-29.565 Y-25.039 E1.3108
G1 X-30.130 Y-25.039 E0.0188
G1 X-2.263 Y2.828 E1.3108
G1 X-2.829 Y2.828 E0.0188
G1 X-30.696 Y-25.039 E1.3108
G1 X-31.262 Y-25.039 E0.0188
G1 X-3.395 Y2.828 E1.3108
G1 X-3.960 Y2.828 E0.0188
G1 X-31.828 Y-25.039 E1.3108
G1 X-32.393 Y-25.039 E0.0188
G1 X-4.526 Y2.828 E1.3108
G1 X-5.092 Y2.828 E0.0188
G1 X-32.959 Y-25.039 E1.3108
G1 X-33.525 Y-25.039 E0.0188
G1 X-5.657 Y2.828 E1.3108
G1 X-6.223 Y2.828 E0.0188
G1 X-34.090 Y-25.039 E1.3108
G1 X-34.656 Y-25.039 E0.0188
G1 X-6.789 Y2.828 E1.3108
G1 X-7.354 Y2.828 E0.0188
G1 X-35.222 Y-25.039 E1.3108
G1 X-35.787 Y-25.039 E0.0188
G1 X-7.920 Y2.828 E1.3108
G1 X-8.486 Y2.828 E0.0188
G1 X-36.353 Y-25.039 E1.3108
G1 X-36.919 Y-25.039 E0.0188
G1 X-9.052 Y2.828 E1.3108
G1 X-9.617 Y2.828 E0.0188
G1 X-37.484 Y-25.039 E1.3108
G1 X-38.050 Y-25.039 E0.0188
G1 X-10.183 Y2.828 E1.3108
G1 X-10.749 Y2.828 E0.0188
G1 X-38.616 Y-25.039 E1.3108
G1 X-39.181 Y-25.039 E0.0188
G1 X-11.314 Y2.828 E1.3108
G1 X-11.880 Y2.828 E0.0188
G1 X-39.747 Y-25.039 E1.3108
G1 X-40.313 Y-25.039 E0.0188
G1 X-12.446 Y2.828 E1.3108
G1 X-13.011 Y2.828 E0.0188
G1 X-40.878 Y-25.039 E1.3108
G1 X-41.444 Y-25.039 E0.0188
G1 X-13.577 Y2.828 E1.3108
G1 X-14.143 Y2.828 E0.0188
G1 X-42.010 Y-25.039 E1.3108
G1 X-42.576 Y-25.039 E0.0188
G1 X-14.708 Y2.828 E1.3108
G1 X-15.274 Y2.828 E0.0188
G1 X-43.141 Y-25.039 E1.3108
G1 X-43.707 Y-25.039 E0.0188
G1 X-15.840 Y2.828 E1.3108
G1 X-16.405 Y2.828 E0.0188
G1 X-44.273 Y-25.039 E1.3108
G1 X-44.838 Y-25.039 E0.0188
G1 X-16.971 Y2.828 E1.3108
G1 X-17.537 Y2.828 E0.0188
G1 X-45.404 Y-25.039 E1.3108
G1 X-45.970 Y-25.039 E0.0188
G1 X-18.102 Y2.828 E1.3108
G1 X-18.668 Y2.828 E0.0188
G1 X-46.535 Y-25.039 E1.3108
G1 X-47.101 Y-25.039 E0.0188
G1 X-19.234 Y2.828 E1.3108
G1 X-19.800 Y2.828 E0.0188
G1 X-47.667 Y-25.039 E1.3108
G1 X-48.232 Y-25.039 E0.0188
G1 X-20.365 Y2.828 E1.3108
G1 X-20.931 Y2.828 E0.0188
G1 X-48.798 Y-25.039 E1.3108
G1 X-49.364 Y-25.039 E0.0188
G1 X-21.497 Y2.828 E1.3108
G1 X-22.062 Y2.828 E0.0188
G1 X-49.929 Y-25.039 E1.3108
G1 X-50.495 Y-25.039 E0.0188
G1 X-22.628 Y2.828 E1.3108
G1 X-23.194 Y2.828 E0.0188
G1 X-51.061 Y-25.039 E1.3108
G1 X-51.627 Y-25.039 E0.0188
G1 X-23.759 Y2.828 E1.3108
G1 X-24.325 Y2.828 E0.0188
G1 X-52.192 Y-25.039 E1.3108
G1 X-52.758 Y-25.039 E0.0188
G1 X-24.891 Y2.828 E1.3108
G1 X-25.456 Y2.828 E0.0188
G1 X-53.324 Y-25.039 E1.3108
G1 X-53.889 Y-25.039 E0.0188
G1 X-26.022 Y2.828 E1.3108
G1 X-26.588 Y2.828 E0.0188
G1 X-54.455 Y-25.039 E1.3108
G1 X-55.021 Y-25.039 E0.0188
G1 X-27.153 Y2.828 E1.3108
G1 X-27.719 Y2.828 E0.0188
G1 X-55.586 Y-25.039 E1.3108
G1 X-56.152 Y-25.039 E0.0188
G1 X-28.285 Y2.828 E1.3108
G1 X-28.850 Y2.828 E0.0188
G1 X-56.718 Y-25.039 E1.3108
G1 X-57.127 Y-25.039 E0.0136
G1 X-57.127 Y-24.883 E0.0052
G1 X-29.416 Y2.828 E1.3035
G1 X-29.982 Y2.828 E0.0188
G1 X-57.127 Y-24.318 E1.2768
G1 X-57.127 Y-23.752 E0.0188
G1 X-30.548 Y2.828 E1.2502
G1 X-31.113 Y2.828 E0.0188
G1 X-57.127 Y-23.186 E1.2236
G1 X-57.127 Y-22.621 E0.0188
G1 X-31.679 Y2.828 E1.1970
G1 X-32.245 Y2.828 E0.0188
G1 X-57.127 Y-22.055 E1.1704
G1 X-57.127 Y-21.489 E0.0188
G1 X-32.810 Y2.828 E1.1438
G1 X-33.376 Y2.828 E0.0188
G1 X-57.127 Y-20.924 E1.1172
G1 X-57.127 Y-20.358 E0.0188
G1 X-33.942 Y2.828 E1.0906
