; G-Code generated by Simplify3D(R) Version 4.1.2
; Apr 28, 2020 at 11:03:18 AM
; Settings Summary
;   processName,Process1
;   applyToModels,Amp Body,Prem Speaker,Sol cover,Strip Harness
;   profileName,MakerBot Replicator 2 HBP (modified)
;   profileVersion,2020-04-21 14:45:34
;   baseProfile,MakerBot Replicator 2(2)
;   printMaterial,PLA
;   printQuality,Medium
;   printExtruders,
;   extruderName,Primary Extruder
;   extruderToolheadNumber,0
;   extruderDiameter,0.4
;   extruderAutoWidth,0
;   extruderWidth,0.4
;   extrusionMultiplier,1
;   extruderUseRetract,1
;   extruderRetractionDistance,1.9
;   extruderExtraRestartDistance,0
;   extruderRetractionZLift,0.5
;   extruderRetractionSpeed,1200
;   extruderUseCoasting,0
;   extruderCoastingDistance,0.2
;   extruderUseWipe,0
;   extruderWipeDistance,5
;   primaryExtruder,0
;   layerHeight,0.2
;   topSolidLayers,3
;   bottomSolidLayers,3
;   perimeterOutlines,2
;   printPerimetersInsideOut,1
;   startPointOption,3
;   startPointOriginX,140
;   startPointOriginY,0
;   sequentialIslands,0
;   spiralVaseMode,0
;   firstLayerHeightPercentage,100
;   firstLayerWidthPercentage,100
;   firstLayerUnderspeed,0.5
;   useRaft,0
;   raftExtruder,0
;   raftTopLayers,2
;   raftBaseLayers,1
;   raftOffset,1
;   raftSeparationDistance,0.14
;   raftTopInfill,90
;   aboveRaftSpeedMultiplier,0.3
;   useSkirt,0
;   skirtExtruder,0
;   skirtLayers,1
;   skirtOutlines,5
;   skirtOffset,0
;   usePrimePillar,0
;   primePillarExtruder,999
;   primePillarWidth,12
;   primePillarLocation,7
;   primePillarSpeedMultiplier,1
;   useOozeShield,0
;   oozeShieldExtruder,999
;   oozeShieldOffset,2
;   oozeShieldOutlines,1
;   oozeShieldSidewallShape,1
;   oozeShieldSidewallAngle,30
;   oozeShieldSpeedMultiplier,1
;   infillExtruder,0
;   internalInfillPattern,Rectilinear
;   externalInfillPattern,Rectilinear
;   infillPercentage,15
;   outlineOverlapPercentage,20
;   infillExtrusionWidthPercentage,100
;   minInfillLength,5
;   infillLayerInterval,1
;   internalInfillAngles,45,-45
;   overlapInternalInfillAngles,0
;   externalInfillAngles,45,-45
;   generateSupport,1
;   supportExtruder,0
;   supportInfillPercentage,30
;   supportExtraInflation,0.6
;   supportBaseLayers,0
;   denseSupportExtruder,0
;   denseSupportLayers,2
;   denseSupportInfillPercentage,70
;   supportLayerInterval,1
;   supportHorizontalPartOffset,0.3
;   supportUpperSeparationLayers,1
;   supportLowerSeparationLayers,1
;   supportType,0
;   supportGridSpacing,99
;   maxOverhangAngle,45
;   supportAngles,0
;   temperatureName,Primary Extruder,Heated Build Platform
;   temperatureNumber,0,0
;   temperatureSetpointCount,1,1
;   temperatureSetpointLayers,1,1
;   temperatureSetpointTemperatures,230,60
;   temperatureStabilizeAtStartup,1,1
;   temperatureHeatedBed,0,1
;   fanLayers,1,2
;   fanSpeeds,0,100
;   blipFanToFullPower,1
;   adjustSpeedForCooling,1
;   minSpeedLayerTime,15
;   minCoolingSpeedSlowdown,20
;   increaseFanForCooling,1
;   minFanLayerTime,45
;   maxCoolingFanSpeed,100
;   increaseFanForBridging,1
;   bridgingFanSpeed,100
;   use5D,1
;   relativeEdistances,1
;   allowEaxisZeroing,0
;   independentExtruderAxes,1
;   includeM10123,0
;   stickySupport,1
;   applyToolheadOffsets,0
;   gcodeXoffset,0
;   gcodeYoffset,0
;   gcodeZoffset,0
;   overrideMachineDefinition,1
;   machineTypeOverride,0
;   strokeXoverride,280
;   strokeYoverride,150
;   strokeZoverride,150
;   originOffsetXoverride,140
;   originOffsetYoverride,75
;   originOffsetZoverride,0
;   homeXdirOverride,1
;   homeYdirOverride,1
;   homeZdirOverride,-1
;   flipXoverride,1
;   flipYoverride,-1
;   flipZoverride,1
;   toolheadOffsets,0,0|0,0|0,0|0,0|0,0|0,0
;   overrideFirmwareConfiguration,1
;   firmwareTypeOverride,MakerBot/Sailfish Firmware
;   GPXconfigOverride,r2h
;   baudRateOverride,115200
;   overridePrinterModels,1
;   printerModelsOverride,MakerBot_Replicator2.stl
;   startingGcode,; **** Replicator 2 start.gcode ****,M73 P0 ; enable build progress,G162 X Y F3000 ; home XY maximum,G161 Z F1200 ; home Z minimum,G92 Z-5 ; set Z to -5,G1 Z0 ; move Z to 0,G161 Z F100 ; home Z slowly,M132 X Y Z A B ; recall home offsets,G1 X-145 Y-75 Z30 F9000 ; move to wait position off table,G130 X20 Y20 Z20 A20 B20 ; lower stepper Vrefs while heating,M126 S[fan_speed_pwm],M140 S[bed0_temperature] T0,M134 T0 ; stabilize bed temperature,M104 S[extruder0_temperature] T0,M133 T0 ; stabilize extruder temperature,G130 X127 Y127 Z40 A127 B127 ; default stepper Vrefs,G92 A0 ; zero extruder,G1 Z0.4 ; position nozzle,G1 E25 F300 ; purge nozzle,G1 X-140 Y-70 Z0.15 F1200 ; slow wipe,G1 X-135 Y-65 Z0.5 F1200 ; lift,G92 A0 ; zero extruder,M73 P1 ;@body (notify GPX body has started),; **** end of start.gcode ****
;   layerChangeGcode,
;   retractionGcode,
;   toolChangeGcode,
;   endingGcode,; **** Replicator 2 end.gcode ****,M73 P100 ; end build progress,G1 Z155 F1000 ; send Z axis to bottom of machine,M104 S0 T0 ; cool down extruder,M140 S0 T0 ; cool down HBP,M127 ; stop blower fan,G162 X Y F3000 ; home XY maximum,M18 ; disable stepper,M0 ; stop codes,M72 P1 ; play Ta-Da song,; **** end of end.gcode ****
;   exportFileFormat,gcode
;   celebration,0
;   celebrationSong,Random Song
;   postProcessing,
;   defaultSpeed,4800
;   outlineUnderspeed,0.5
;   solidInfillUnderspeed,1
;   supportUnderspeed,1
;   rapidXYspeed,9000
;   rapidZspeed,1200
;   minBridgingArea,50
;   bridgingExtraInflation,0
;   bridgingExtrusionMultiplier,1
;   bridgingSpeedMultiplier,0.8
;   useFixedBridgingAngle,0
;   fixedBridgingAngle,0
;   applyBridgingToPerimeters,0
;   filamentDiameters,1.75|1.75|1.75|1.75|1.75|1.75
;   filamentPricesPerKg,46|46|46|46|46|46
;   filamentDensities,1.25|1.25|1.25|1.25|1.25|1.25
;   useMinPrintHeight,0
;   minPrintHeight,0
;   useMaxPrintHeight,0
;   maxPrintHeight,4.84
;   useDiaphragm,0
;   diaphragmLayerInterval,20
;   robustSlicing,1
;   mergeAllIntoSolid,0
;   onlyRetractWhenCrossingOutline,0
;   retractBetweenLayers,0
;   useRetractionMinTravel,1
;   retractionMinTravel,7
;   retractWhileWiping,1
;   onlyWipeOutlines,1
;   avoidCrossingOutline,0
;   maxMovementDetourFactor,3
;   toolChangeRetractionDistance,12
;   toolChangeExtraRestartDistance,-0.5
;   toolChangeRetractionSpeed,600
;   externalThinWallType,0
;   internalThinWallType,0
;   thinWallAllowedOverlapPercentage,10
;   singleExtrusionMinLength,1
;   singleExtrusionMinPrintingWidthPercentage,50
;   singleExtrusionMaxPrintingWidthPercentage,200
;   singleExtrusionEndpointExtension,0.2
;   horizontalSizeCompensation,0
G90
M83
; **** Replicator 2 start.gcode ****
M73 P0 ; enable build progress
G162 X Y F3000 ; home XY maximum
G161 Z F1200 ; home Z minimum
G92 Z-5 ; set Z to -5
G1 Z0 ; move Z to 0
G161 Z F100 ; home Z slowly
M132 X Y Z A B ; recall home offsets
G1 X-145 Y-75 Z30 F9000 ; move to wait position off table
G130 X20 Y20 Z20 A20 B20 ; lower stepper Vrefs while heating
M127
M140 S60 T0
M134 T0 ; stabilize bed temperature
M104 S230 T0
M133 T0 ; stabilize extruder temperature
G130 X127 Y127 Z40 A127 B127 ; default stepper Vrefs
G92 A0 ; zero extruder
G1 Z0.4 ; position nozzle
G1 E25 F300 ; purge nozzle
G1 X-140 Y-70 Z0.15 F1200 ; slow wipe
G1 X-135 Y-65 Z0.5 F1200 ; lift
G92 A0 ; zero extruder
M73 P1 ;@body (notify GPX body has started)
; **** end of start.gcode ****
; process Process1
; layer 1, Z = 0.200
M135 T0
G1 E-1.9000 F1200
; feature inner perimeter
; tool H0.200 W0.400
G1 Z0.500 F1200
G1 X-6.050 Y4.777 F9000
G1 Z0.200 F1200
G1 E1.9000 F1200
G1 X-66.850 Y4.777 E2.0222 F1800
G1 X-66.850 Y-50.023 E1.8227
G1 X-6.050 Y-50.023 E2.0222
G1 X-6.050 Y4.777 E1.8227
; feature outer perimeter
G1 X-5.650 Y5.177 F9000
G1 X-67.250 Y5.177 E2.0488 F1200
G1 X-67.250 Y-50.423 E1.8493
G1 X-5.650 Y-50.423 E2.0488
G1 X-5.650 Y5.177 E1.8493
G1 E-1.9000 F1200
; feature solid layer
G1 Z0.700 F1200
G1 X-6.613 Y-49.703 F9000
G1 Z0.200 F1200
G1 E1.9000 F1200
G1 X-6.370 Y-49.460 E0.0114 F2400
G1 X-6.370 Y-48.894 E0.0188
G1 X-7.179 Y-49.703 E0.0380
G1 X-7.745 Y-49.703 E0.0188
G1 X-6.370 Y-48.328 E0.0646
G1 X-6.370 Y-47.763 E0.0188
G1 X-8.310 Y-49.703 E0.0913
G1 X-8.876 Y-49.703 E0.0188
G1 X-6.370 Y-47.197 E0.1179
G1 X-6.370 Y-46.631 E0.0188
G1 X-9.442 Y-49.703 E0.1445
G1 X-10.007 Y-49.703 E0.0188
G1 X-6.370 Y-46.066 E0.1711
G1 X-6.370 Y-45.500 E0.0188
G1 X-10.573 Y-49.703 E0.1977
G1 X-11.139 Y-49.703 E0.0188
G1 X-6.370 Y-44.934 E0.2243
G1 X-6.370 Y-44.369 E0.0188
G1 X-11.704 Y-49.703 E0.2509
G1 X-12.270 Y-49.703 E0.0188
G1 X-6.370 Y-43.803 E0.2775
G1 X-6.370 Y-43.237 E0.0188
G1 X-12.836 Y-49.703 E0.3041
G1 X-13.402 Y-49.703 E0.0188
G1 X-6.370 Y-42.672 E0.3307
G1 X-6.370 Y-42.106 E0.0188
G1 X-13.967 Y-49.703 E0.3573
G1 X-14.533 Y-49.703 E0.0188
G1 X-6.370 Y-41.540 E0.3839
G1 X-6.370 Y-40.975 E0.0188
G1 X-15.099 Y-49.703 E0.4105
G1 X-15.664 Y-49.703 E0.0188
G1 X-6.370 Y-40.409 E0.4372
G1 X-6.370 Y-39.843 E0.0188
G1 X-16.230 Y-49.703 E0.4638
G1 X-16.796 Y-49.703 E0.0188
G1 X-6.370 Y-39.277 E0.4904
G1 X-6.370 Y-38.712 E0.0188
G1 X-17.361 Y-49.703 E0.5170
G1 X-17.927 Y-49.703 E0.0188
G1 X-6.370 Y-38.146 E0.5436
G1 X-6.370 Y-37.580 E0.0188
G1 X-18.493 Y-49.703 E0.5702
G1 X-19.058 Y-49.703 E0.0188
G1 X-6.370 Y-37.015 E0.5968
G1 X-6.370 Y-36.449 E0.0188
G1 X-19.624 Y-49.703 E0.6234
G1 X-20.190 Y-49.703 E0.0188
G1 X-6.370 Y-35.883 E0.6500
G1 X-6.370 Y-35.318 E0.0188
G1 X-20.755 Y-49.703 E0.6766
G1 X-21.321 Y-49.703 E0.0188
G1 X-6.370 Y-34.752 E0.7032
G1 X-6.370 Y-34.186 E0.0188
G1 X-21.887 Y-49.703 E0.7298
G1 X-22.452 Y-49.703 E0.0188
G1 X-6.370 Y-33.621 E0.7565
G1 X-6.370 Y-33.055 E0.0188
G1 X-23.018 Y-49.703 E0.7831
G1 X-23.584 Y-49.703 E0.0188
G1 X-6.370 Y-32.489 E0.8097
G1 X-6.370 Y-31.924 E0.0188
G1 X-24.150 Y-49.703 E0.8363
G1 X-24.715 Y-49.703 E0.0188
G1 X-6.370 Y-31.358 E0.8629
G1 X-6.370 Y-30.792 E0.0188
G1 X-25.281 Y-49.703 E0.8895
G1 X-25.847 Y-49.703 E0.0188
G1 X-6.370 Y-30.227 E0.9161
G1 X-6.370 Y-29.661 E0.0188
G1 X-26.412 Y-49.703 E0.9427
G1 X-26.978 Y-49.703 E0.0188
G1 X-6.370 Y-29.095 E0.9693
G1 X-6.370 Y-28.529 E0.0188
G1 X-27.544 Y-49.703 E0.9959
G1 X-28.109 Y-49.703 E0.0188
G1 X-6.370 Y-27.964 E1.0225
G1 X-6.370 Y-27.398 E0.0188
G1 X-28.675 Y-49.703 E1.0491
G1 X-29.241 Y-49.703 E0.0188
G1 X-6.370 Y-26.832 E1.0758
G1 X-6.370 Y-26.267 E0.0188
G1 X-29.806 Y-49.703 E1.1024
G1 X-30.372 Y-49.703 E0.0188
G1 X-6.370 Y-25.701 E1.1290
G1 X-6.370 Y-25.135 E0.0188
G1 X-30.938 Y-49.703 E1.1556
G1 X-31.503 Y-49.703 E0.0188
G1 X-6.370 Y-24.570 E1.1822
G1 X-6.370 Y-24.004 E0.0188
G1 X-32.069 Y-49.703 E1.2088
G1 X-32.635 Y-49.703 E0.0188
G1 X-6.370 Y-23.438 E1.2354
G1 X-6.370 Y-22.873 E0.0188
G1 X-33.200 Y-49.703 E1.2620
G1 X-33.766 Y-49.703 E0.0188
G1 X-6.370 Y-22.307 E1.2886
G1 X-6.370 Y-21.741 E0.0188
G1 X-34.332 Y-49.703 E1.3152
G1 X-34.898 Y-49.703 E0.0188
G1 X-6.370 Y-21.176 E1.3418
G1 X-6.370 Y-20.610 E0.0188
G1 X-35.463 Y-49.703 E1.3684
G1 X-36.029 Y-49.703 E0.0188
G1 X-6.370 Y-20.044 E1.3950
G1 X-6.370 Y-19.478 E0.0188
G1 X-36.595 Y-49.703 E1.4217
G1 X-37.160 Y-49.703 E0.0188
G1 X-6.370 Y-18.913 E1.4483
G1 X-6.370 Y-18.347 E0.0188
G1 X-37.726 Y-49.703 E1.4749
G1 X-38.292 Y-49.703 E0.0188
G1 X-6.370 Y-17.781 E1.5015
G1 X-6.370 Y-17.216 E0.0188
G1 X-38.857 Y-49.703 E1.5281
G1 X-39.423 Y-49.703 E0.0188
G1 X-6.370 Y-16.650 E1.5547
G1 X-6.370 Y-16.084 E0.0188
G1 X-39.989 Y-49.703 E1.5813
G1 X-40.554 Y-49.703 E0.0188
G1 X-6.370 Y-15.519 E1.6079
G1 X-6.370 Y-14.953 E0.0188
G1 X-41.120 Y-49.703 E1.6345
G1 X-41.686 Y-49.703 E0.0188
G1 X-6.370 Y-14.387 E1.6611
G1 X-6.370 Y-13.822 E0.0188
G1 X-42.251 Y-49.703 E1.6877
G1 X-42.817 Y-49.703 E0.0188
G1 X-6.370 Y-13.256 E1.7143
G1 X-6.370 Y-12.690 E0.0188
G1 X-43.383 Y-49.703 E1.7410
G1 X-43.949 Y-49.703 E0.0188
G1 X-6.370 Y-12.125 E1.7676
G1 X-6.370 Y-11.559 E0.0188
G1 X-44.514 Y-49.703 E1.7942
G1 X-45.080 Y-49.703 E0.0188
G1 X-6.370 Y-10.993 E1.8208
G1 X-6.370 Y-10.428 E0.0188
G1 X-45.646 Y-49.703 E1.8474
G1 X-46.211 Y-49.703 E0.0188
G1 X-6.370 Y-9.862 E1.8740
G1 X-6.370 Y-9.296 E0.0188
G1 X-46.777 Y-49.703 E1.9006
G1 X-47.343 Y-49.703 E0.0188
G1 X-6.370 Y-8.730 E1.9272
G1 X-6.370 Y-8.165 E0.0188
G1 X-47.908 Y-49.703 E1.9538
G1 X-48.474 Y-49.703 E0.0188
G1 X-6.370 Y-7.599 E1.9804
G1 X-6.370 Y-7.033 E0.0188
G1 X-49.040 Y-49.703 E2.0070
G1 X-49.605 Y-49.703 E0.0188
G1 X-6.370 Y-6.468 E2.0336
G1 X-6.370 Y-5.902 E0.0188
G1 X-50.171 Y-49.703 E2.0603
G1 X-50.737 Y-49.703 E0.0188
G1 X-6.370 Y-5.336 E2.0869
G1 X-6.370 Y-4.771 E0.0188
G1 X-51.302 Y-49.703 E2.1135
G1 X-51.868 Y-49.703 E0.0188
G1 X-6.370 Y-4.205 E2.1401
G1 X-6.370 Y-3.639 E0.0188
G1 X-52.434 Y-49.703 E2.1667
G1 X-52.999 Y-49.703 E0.0188
G1 X-6.370 Y-3.074 E2.1933
G1 X-6.370 Y-2.508 E0.0188
G1 X-53.565 Y-49.703 E2.2199
G1 X-54.131 Y-49.703 E0.0188
G1 X-6.370 Y-1.942 E2.2465
G1 X-6.370 Y-1.377 E0.0188
G1 X-54.697 Y-49.703 E2.2731
G1 X-55.262 Y-49.703 E0.0188
G1 X-6.370 Y-0.811 E2.2997
G1 X-6.370 Y-0.245 E0.0188
G1 X-55.828 Y-49.703 E2.3263
G1 X-56.394 Y-49.703 E0.0188
G1 X-6.370 Y0.321 E2.3529
G1 X-6.370 Y0.886 E0.0188
G1 X-56.959 Y-49.703 E2.3795
G1 X-57.525 Y-49.703 E0.0188
G1 X-6.370 Y1.452 E2.4062
G1 X-6.370 Y2.018 E0.0188
G1 X-58.091 Y-49.703 E2.4328
G1 X-58.656 Y-49.703 E0.0188
G1 X-6.370 Y2.583 E2.4594
G1 X-6.370 Y3.149 E0.0188
G1 X-59.222 Y-49.703 E2.4860
G1 X-59.788 Y-49.703 E0.0188
G1 X-6.370 Y3.715 E2.5126
G1 X-6.370 Y4.280 E0.0188
G1 X-60.353 Y-49.703 E2.5392
G1 X-60.919 Y-49.703 E0.0188
G1 X-6.759 Y4.457 E2.5475
G1 X-7.325 Y4.457 E0.0188
G1 X-61.485 Y-49.703 E2.5475
G1 X-62.050 Y-49.703 E0.0188
G1 X-7.890 Y4.457 E2.5475
G1 X-8.456 Y4.457 E0.0188
G1 X-62.616 Y-49.703 E2.5475
G1 X-63.182 Y-49.703 E0.0188
G1 X-9.022 Y4.457 E2.5475
G1 X-9.588 Y4.457 E0.0188
G1 X-63.748 Y-49.703 E2.5475
G1 X-64.313 Y-49.703 E0.0188
G1 X-10.153 Y4.457 E2.5475
G1 X-10.719 Y4.457 E0.0188
G1 X-64.879 Y-49.703 E2.5475
G1 X-65.445 Y-49.703 E0.0188
G1 X-11.285 Y4.457 E2.5475
G1 X-11.850 Y4.457 E0.0188
G1 X-66.010 Y-49.703 E2.5475
G1 X-66.530 Y-49.703 E0.0173
G1 X-66.530 Y-49.657 E0.0015
G1 X-12.416 Y4.457 E2.5454
G1 X-12.982 Y4.457 E0.0188
G1 X-66.530 Y-49.091 E2.5188
G1 X-66.530 Y-48.526 E0.0188
G1 X-13.547 Y4.457 E2.4922
G1 X-14.113 Y4.457 E0.0188
G1 X-66.530 Y-47.960 E2.4656
G1 X-66.530 Y-47.394 E0.0188
G1 X-14.679 Y4.457 E2.4389
G1 X-15.244 Y4.457 E0.0188
G1 X-66.530 Y-46.829 E2.4123
G1 X-66.530 Y-46.263 E0.0188
G1 X-15.810 Y4.457 E2.3857
G1 X-16.376 Y4.457 E0.0188
G1 X-66.530 Y-45.697 E2.3591
G1 X-66.530 Y-45.132 E0.0188
G1 X-16.941 Y4.457 E2.3325
G1 X-17.507 Y4.457 E0.0188
G1 X-66.530 Y-44.566 E2.3059
G1 X-66.530 Y-44.000 E0.0188
G1 X-18.073 Y4.457 E2.2793
G1 X-18.638 Y4.457 E0.0188
G1 X-66.530 Y-43.435 E2.2527
G1 X-66.530 Y-42.869 E0.0188
G1 X-19.204 Y4.457 E2.2261
G1 X-19.770 Y4.457 E0.0188
G1 X-66.530 Y-42.303 E2.1995
G1 X-66.530 Y-41.738 E0.0188
G1 X-20.336 Y4.457 E2.1729
G1 X-20.901 Y4.457 E0.0188
G1 X-66.530 Y-41.172 E2.1463
G1 X-66.530 Y-40.606 E0.0188
G1 X-21.467 Y4.457 E2.1196
G1 X-22.033 Y4.457 E0.0188
G1 X-66.530 Y-40.040 E2.0930
G1 X-66.530 Y-39.475 E0.0188
G1 X-22.598 Y4.457 E2.0664
G1 X-23.164 Y4.457 E0.0188
G1 X-66.530 Y-38.909 E2.0398
G1 X-66.530 Y-38.343 E0.0188
G1 X-23.730 Y4.457 E2.0132
G1 X-24.295 Y4.457 E0.0188
G1 X-66.530 Y-37.778 E1.9866
G1 X-66.530 Y-37.212 E0.0188
G1 X-24.861 Y4.457 E1.9600
G1 X-25.427 Y4.457 E0.0188
G1 X-66.530 Y-36.646 E1.9334
G1 X-66.530 Y-36.081 E0.0188
G1 X-25.992 Y4.457 E1.9068
G1 X-26.558 Y4.457 E0.0188
G1 X-66.530 Y-35.515 E1.8802
G1 X-66.530 Y-34.949 E0.0188
G1 X-27.124 Y4.457 E1.8536
G1 X-27.689 Y4.457 E0.0188
G1 X-66.530 Y-34.384 E1.8270
G1 X-66.530 Y-33.818 E0.0188
G1 X-28.255 Y4.457 E1.8003
G1 X-28.821 Y4.457 E0.0188
G1 X-66.530 Y-33.252 E1.7737
G1 X-66.530 Y-32.687 E0.0188
G1 X-29.387 Y4.457 E1.7471
G1 X-29.952 Y4.457 E0.0188
G1 X-66.530 Y-32.121 E1.7205
G1 X-66.530 Y-31.555 E0.0188
G1 X-30.518 Y4.457 E1.6939
G1 X-31.084 Y4.457 E0.0188
G1 X-66.530 Y-30.990 E1.6673
G1 X-66.530 Y-30.424 E0.0188
G1 X-31.649 Y4.457 E1.6407
G1 X-32.215 Y4.457 E0.0188
G1 X-66.530 Y-29.858 E1.6141
G1 X-66.530 Y-29.292 E0.0188
G1 X-32.781 Y4.457 E1.5875
G1 X-33.346 Y4.457 E0.0188
