; G-Code generated by Simplify3D(R) Version 4.1.2
; Apr 28, 2020 at 11:04:22 AM
; Settings Summary
;   processName,Process1
;   applyToModels,FlameBig,FlameSmall
;   profileName,MakerBot Replicator 2 HBP (modified)
;   profileVersion,2020-04-21 14:45:34
;   baseProfile,MakerBot Replicator 2(2)
;   printMaterial,PLA
;   printQuality,Medium
;   printExtruders,
;   extruderName,Primary Extruder
;   extruderToolheadNumber,0
;   extruderDiameter,0.4
;   extruderAutoWidth,0
;   extruderWidth,0.4
;   extrusionMultiplier,1
;   extruderUseRetract,1
;   extruderRetractionDistance,1.9
;   extruderExtraRestartDistance,0
;   extruderRetractionZLift,0.5
;   extruderRetractionSpeed,1200
;   extruderUseCoasting,0
;   extruderCoastingDistance,0.2
;   extruderUseWipe,0
;   extruderWipeDistance,5
;   primaryExtruder,0
;   layerHeight,0.2
;   topSolidLayers,3
;   bottomSolidLayers,3
;   perimeterOutlines,2
;   printPerimetersInsideOut,1
;   startPointOption,3
;   startPointOriginX,140
;   startPointOriginY,0
;   sequentialIslands,0
;   spiralVaseMode,0
;   firstLayerHeightPercentage,100
;   firstLayerWidthPercentage,100
;   firstLayerUnderspeed,0.5
;   useRaft,0
;   raftExtruder,0
;   raftTopLayers,2
;   raftBaseLayers,1
;   raftOffset,1
;   raftSeparationDistance,0.14
;   raftTopInfill,90
;   aboveRaftSpeedMultiplier,0.3
;   useSkirt,0
;   skirtExtruder,0
;   skirtLayers,1
;   skirtOutlines,5
;   skirtOffset,0
;   usePrimePillar,0
;   primePillarExtruder,999
;   primePillarWidth,12
;   primePillarLocation,7
;   primePillarSpeedMultiplier,1
;   useOozeShield,0
;   oozeShieldExtruder,999
;   oozeShieldOffset,2
;   oozeShieldOutlines,1
;   oozeShieldSidewallShape,1
;   oozeShieldSidewallAngle,30
;   oozeShieldSpeedMultiplier,1
;   infillExtruder,0
;   internalInfillPattern,Rectilinear
;   externalInfillPattern,Rectilinear
;   infillPercentage,15
;   outlineOverlapPercentage,20
;   infillExtrusionWidthPercentage,100
;   minInfillLength,5
;   infillLayerInterval,1
;   internalInfillAngles,45,-45
;   overlapInternalInfillAngles,0
;   externalInfillAngles,45,-45
;   generateSupport,1
;   supportExtruder,0
;   supportInfillPercentage,30
;   supportExtraInflation,0.6
;   supportBaseLayers,0
;   denseSupportExtruder,0
;   denseSupportLayers,2
;   denseSupportInfillPercentage,70
;   supportLayerInterval,1
;   supportHorizontalPartOffset,0.3
;   supportUpperSeparationLayers,1
;   supportLowerSeparationLayers,1
;   supportType,0
;   supportGridSpacing,99
;   maxOverhangAngle,45
;   supportAngles,0
;   temperatureName,Primary Extruder,Heated Build Platform
;   temperatureNumber,0,0
;   temperatureSetpointCount,1,1
;   temperatureSetpointLayers,1,1
;   temperatureSetpointTemperatures,230,60
;   temperatureStabilizeAtStartup,1,1
;   temperatureHeatedBed,0,1
;   fanLayers,1,2
;   fanSpeeds,0,100
;   blipFanToFullPower,1
;   adjustSpeedForCooling,1
;   minSpeedLayerTime,15
;   minCoolingSpeedSlowdown,20
;   increaseFanForCooling,1
;   minFanLayerTime,45
;   maxCoolingFanSpeed,100
;   increaseFanForBridging,1
;   bridgingFanSpeed,100
;   use5D,1
;   relativeEdistances,1
;   allowEaxisZeroing,0
;   independentExtruderAxes,1
;   includeM10123,0
;   stickySupport,1
;   applyToolheadOffsets,0
;   gcodeXoffset,0
;   gcodeYoffset,0
;   gcodeZoffset,0
;   overrideMachineDefinition,1
;   machineTypeOverride,0
;   strokeXoverride,280
;   strokeYoverride,150
;   strokeZoverride,150
;   originOffsetXoverride,140
;   originOffsetYoverride,75
;   originOffsetZoverride,0
;   homeXdirOverride,1
;   homeYdirOverride,1
;   homeZdirOverride,-1
;   flipXoverride,1
;   flipYoverride,-1
;   flipZoverride,1
;   toolheadOffsets,0,0|0,0|0,0|0,0|0,0|0,0
;   overrideFirmwareConfiguration,1
;   firmwareTypeOverride,MakerBot/Sailfish Firmware
;   GPXconfigOverride,r2h
;   baudRateOverride,115200
;   overridePrinterModels,1
;   printerModelsOverride,MakerBot_Replicator2.stl
;   startingGcode,; **** Replicator 2 start.gcode ****,M73 P0 ; enable build progress,G162 X Y F3000 ; home XY maximum,G161 Z F1200 ; home Z minimum,G92 Z-5 ; set Z to -5,G1 Z0 ; move Z to 0,G161 Z F100 ; home Z slowly,M132 X Y Z A B ; recall home offsets,G1 X-145 Y-75 Z30 F9000 ; move to wait position off table,G130 X20 Y20 Z20 A20 B20 ; lower stepper Vrefs while heating,M126 S[fan_speed_pwm],M140 S[bed0_temperature] T0,M134 T0 ; stabilize bed temperature,M104 S[extruder0_temperature] T0,M133 T0 ; stabilize extruder temperature,G130 X127 Y127 Z40 A127 B127 ; default stepper Vrefs,G92 A0 ; zero extruder,G1 Z0.4 ; position nozzle,G1 E25 F300 ; purge nozzle,G1 X-140 Y-70 Z0.15 F1200 ; slow wipe,G1 X-135 Y-65 Z0.5 F1200 ; lift,G92 A0 ; zero extruder,M73 P1 ;@body (notify GPX body has started),; **** end of start.gcode ****
;   layerChangeGcode,
;   retractionGcode,
;   toolChangeGcode,
;   endingGcode,; **** Replicator 2 end.gcode ****,M73 P100 ; end build progress,G1 Z155 F1000 ; send Z axis to bottom of machine,M104 S0 T0 ; cool down extruder,M140 S0 T0 ; cool down HBP,M127 ; stop blower fan,G162 X Y F3000 ; home XY maximum,M18 ; disable stepper,M0 ; stop codes,M72 P1 ; play Ta-Da song,; **** end of end.gcode ****
;   exportFileFormat,gcode
;   celebration,0
;   celebrationSong,Random Song
;   postProcessing,
;   defaultSpeed,4800
;   outlineUnderspeed,0.5
;   solidInfillUnderspeed,1
;   supportUnderspeed,1
;   rapidXYspeed,9000
;   rapidZspeed,1200
;   minBridgingArea,50
;   bridgingExtraInflation,0
;   bridgingExtrusionMultiplier,1
;   bridgingSpeedMultiplier,0.8
;   useFixedBridgingAngle,0
;   fixedBridgingAngle,0
;   applyBridgingToPerimeters,0
;   filamentDiameters,1.75|1.75|1.75|1.75|1.75|1.75
;   filamentPricesPerKg,46|46|46|46|46|46
;   filamentDensities,1.25|1.25|1.25|1.25|1.25|1.25
;   useMinPrintHeight,0
;   minPrintHeight,0
;   useMaxPrintHeight,0
;   maxPrintHeight,4.84
;   useDiaphragm,0
;   diaphragmLayerInterval,20
;   robustSlicing,1
;   mergeAllIntoSolid,0
;   onlyRetractWhenCrossingOutline,0
;   retractBetweenLayers,0
;   useRetractionMinTravel,1
;   retractionMinTravel,7
;   retractWhileWiping,1
;   onlyWipeOutlines,1
;   avoidCrossingOutline,0
;   maxMovementDetourFactor,3
;   toolChangeRetractionDistance,12
;   toolChangeExtraRestartDistance,-0.5
;   toolChangeRetractionSpeed,600
;   externalThinWallType,0
;   internalThinWallType,0
;   thinWallAllowedOverlapPercentage,10
;   singleExtrusionMinLength,1
;   singleExtrusionMinPrintingWidthPercentage,50
;   singleExtrusionMaxPrintingWidthPercentage,200
;   singleExtrusionEndpointExtension,0.2
;   horizontalSizeCompensation,0
G90
M83
; **** Replicator 2 start.gcode ****
M73 P0 ; enable build progress
G162 X Y F3000 ; home XY maximum
G161 Z F1200 ; home Z minimum
G92 Z-5 ; set Z to -5
G1 Z0 ; move Z to 0
G161 Z F100 ; home Z slowly
M132 X Y Z A B ; recall home offsets
G1 X-145 Y-75 Z30 F9000 ; move to wait position off table
G130 X20 Y20 Z20 A20 B20 ; lower stepper Vrefs while heating
M126 S73
M140 S60 T0
M134 T0 ; stabilize bed temperature
M104 S230 T0
M133 T0 ; stabilize extruder temperature
G130 X127 Y127 Z40 A127 B127 ; default stepper Vrefs
G92 A0 ; zero extruder
G1 Z0.4 ; position nozzle
G1 E25 F300 ; purge nozzle
G1 X-140 Y-70 Z0.15 F1200 ; slow wipe
G1 X-135 Y-65 Z0.5 F1200 ; lift
G92 A0 ; zero extruder
M73 P1 ;@body (notify GPX body has started)
; **** end of start.gcode ****
; process Process1
; layer 1, Z = 0.200
M135 T0
G1 E-1.9000 F1200
; feature inner perimeter
; tool H0.200 W0.400
G1 Z0.500 F1200
G1 X6.404 Y7.110 F9000
G1 Z0.200 F1200
G1 E1.9000 F1200
G1 X5.226 Y8.717 E0.0663 F1800
G1 X4.647 Y9.422 E0.0303
G1 X3.983 Y9.058 E0.0252
G1 X3.077 Y8.634 E0.0333
G1 X2.233 Y8.301 E0.0302
G1 X1.368 Y8.015 E0.0303
G1 X0.106 Y7.675 E0.0435
G1 X0.106 Y18.024 E0.3442
G1 X-8.231 Y18.024 E0.2773
G1 X-8.231 Y8.023 E0.3326
G1 X-10.024 Y8.701 E0.0638
G1 X-10.983 Y9.158 E0.0353
G1 X-11.911 Y9.678 E0.0354
G1 X-12.437 Y10.010 E0.0207
G1 X-12.956 Y10.368 E0.0210
G1 X-13.459 Y10.747 E0.0209
G1 X-13.925 Y11.128 E0.0200
G1 X-14.712 Y11.849 E0.0355
G1 X-15.100 Y12.263 E0.0189
G1 X-17.381 Y10.620 E0.0935
G1 X-17.520 Y10.530 E0.0055
G1 X-17.064 Y10.051 E0.0220
G1 X-16.654 Y9.660 E0.0189
G1 X-16.116 Y9.183 E0.0239
G1 X-15.558 Y8.727 E0.0240
G1 X-14.949 Y8.269 E0.0253
G1 X-14.321 Y7.835 E0.0254
G1 X-13.676 Y7.427 E0.0254
G1 X-12.561 Y6.803 E0.0425
G1 X-11.408 Y6.255 E0.0425
G1 X-9.567 Y5.558 E0.0655
G1 X-8.486 Y5.242 E0.0375
G1 X-7.380 Y4.984 E0.0378
G1 X-6.308 Y4.796 E0.0362
G1 X-5.228 Y4.666 E0.0362
G1 X-3.987 Y4.587 E0.0414
G1 X-3.374 Y4.576 E0.0204
G1 X-2.558 Y4.590 E0.0271
G1 X-1.747 Y4.636 E0.0270
G1 X-0.803 Y4.731 E0.0316
G1 X0.129 Y4.870 E0.0314
G1 X1.388 Y5.129 E0.0427
G1 X2.450 Y5.415 E0.0366
G1 X3.499 Y5.761 E0.0367
G1 X4.520 Y6.165 E0.0365
G1 X5.618 Y6.678 E0.0403
G1 X6.404 Y7.110 E0.0298
; feature outer perimeter
G1 X6.868 Y6.909 F9000
G1 X6.963 Y6.983 E0.0040 F1200
G1 X6.975 Y7.009 E0.0009
G1 X5.542 Y8.963 E0.0806
G1 X4.741 Y9.937 E0.0419
G1 X4.652 Y9.881 E0.0035
G1 X3.802 Y9.415 E0.0322
G1 X2.919 Y9.002 E0.0324
G1 X2.096 Y8.677 E0.0294
G1 X1.253 Y8.398 E0.0295
G1 X0.506 Y8.197 E0.0257
G1 X0.506 Y18.424 E0.3401
G1 X-8.631 Y18.424 E0.3039
G1 X-8.631 Y8.602 E0.3267
G1 X-9.867 Y9.070 E0.0440
G1 X-10.799 Y9.513 E0.0343
G1 X-11.706 Y10.021 E0.0346
G1 X-12.216 Y10.344 E0.0201
G1 X-12.722 Y10.693 E0.0204
G1 X-13.212 Y11.062 E0.0204
G1 X-13.663 Y11.431 E0.0194
G1 X-14.431 Y12.133 E0.0346
G1 X-15.049 Y12.793 E0.0301
G1 X-17.607 Y10.950 E0.1049
G1 X-18.142 Y10.604 E0.0212
G1 X-17.348 Y9.768 E0.0384
G1 X-16.924 Y9.365 E0.0194
G1 X-16.375 Y8.878 E0.0244
G1 X-15.805 Y8.412 E0.0245
G1 X-15.183 Y7.944 E0.0259
G1 X-14.542 Y7.501 E0.0259
G1 X-13.881 Y7.084 E0.0260
G1 X-12.744 Y6.448 E0.0433
G1 X-11.565 Y5.886 E0.0435
G1 X-9.694 Y5.178 E0.0665
G1 X-8.587 Y4.854 E0.0383
G1 X-7.460 Y4.592 E0.0385
G1 X-6.367 Y4.401 E0.0369
G1 X-5.265 Y4.267 E0.0369
G1 X-4.003 Y4.187 E0.0420
G1 X-3.374 Y4.176 E0.0209
G1 X-2.543 Y4.190 E0.0276
G1 X-1.716 Y4.237 E0.0276
G1 X-0.754 Y4.334 E0.0322
G1 X0.199 Y4.476 E0.0320
G1 X1.480 Y4.739 E0.0435
G1 X2.565 Y5.031 E0.0374
G1 X3.635 Y5.385 E0.0375
G1 X4.678 Y5.797 E0.0373
G1 X5.800 Y6.321 E0.0412
G1 X6.868 Y6.909 E0.0406
G1 E-1.9000 F1200
; feature inner perimeter
G1 Z0.700 F1200
G1 X-1.379 Y11.680 F9000
G1 Z0.200 F1200
G1 E1.9000 F1200
G1 X-1.568 Y11.425 E0.0105 F1800
G1 X-1.780 Y11.191 E0.0105
G1 X-2.015 Y10.978 E0.0105
G1 X-2.269 Y10.789 E0.0105
G1 X-2.541 Y10.626 E0.0105
G1 X-2.828 Y10.491 E0.0105
G1 X-3.126 Y10.384 E0.0105
G1 X-3.433 Y10.307 E0.0105
G1 X-3.746 Y10.261 E0.0105
G1 X-4.063 Y10.245 E0.0105
G1 X-4.379 Y10.261 E0.0105
G1 X-4.692 Y10.307 E0.0105
G1 X-5.000 Y10.384 E0.0105
G1 X-5.298 Y10.491 E0.0105
G1 X-5.584 Y10.626 E0.0105
G1 X-5.856 Y10.789 E0.0105
G1 X-6.111 Y10.978 E0.0105
G1 X-6.345 Y11.191 E0.0105
G1 X-6.558 Y11.425 E0.0105
G1 X-6.747 Y11.680 E0.0105
G1 X-6.910 Y11.952 E0.0105
G1 X-7.045 Y12.238 E0.0105
G1 X-7.152 Y12.536 E0.0105
G1 X-7.229 Y12.843 E0.0105
G1 X-7.275 Y13.157 E0.0105
G1 X-7.291 Y13.473 E0.0105
G1 X-7.275 Y13.790 E0.0105
G1 X-7.229 Y14.103 E0.0105
G1 X-7.152 Y14.410 E0.0105
G1 X-7.045 Y14.708 E0.0105
G1 X-6.910 Y14.995 E0.0105
G1 X-6.747 Y15.267 E0.0105
G1 X-6.558 Y15.521 E0.0105
G1 X-6.345 Y15.756 E0.0105
G1 X-6.111 Y15.968 E0.0105
G1 X-5.856 Y16.157 E0.0105
G1 X-5.584 Y16.320 E0.0105
G1 X-5.298 Y16.455 E0.0105
G1 X-5.000 Y16.562 E0.0105
G1 X-4.692 Y16.639 E0.0105
G1 X-4.379 Y16.686 E0.0105
G1 X-4.062 Y16.701 E0.0106
G1 X-3.740 Y16.684 E0.0107
G1 X-3.433 Y16.639 E0.0103
G1 X-3.126 Y16.562 E0.0105
G1 X-2.828 Y16.455 E0.0105
G1 X-2.541 Y16.320 E0.0105
G1 X-2.269 Y16.157 E0.0105
G1 X-2.015 Y15.968 E0.0105
G1 X-1.780 Y15.756 E0.0105
G1 X-1.568 Y15.521 E0.0105
G1 X-1.379 Y15.267 E0.0105
G1 X-1.216 Y14.995 E0.0105
G1 X-1.081 Y14.708 E0.0105
G1 X-0.974 Y14.410 E0.0105
G1 X-0.897 Y14.103 E0.0105
G1 X-0.850 Y13.790 E0.0105
G1 X-0.835 Y13.473 E0.0105
G1 X-0.850 Y13.157 E0.0105
G1 X-0.897 Y12.843 E0.0105
G1 X-0.974 Y12.536 E0.0105
G1 X-1.081 Y12.238 E0.0105
G1 X-1.216 Y11.952 E0.0105
G1 X-1.379 Y11.680 E0.0105
; feature outer perimeter
G1 X-1.712 Y11.902 F9000
G1 X-1.877 Y11.679 E0.0092 F1200
G1 X-2.063 Y11.474 E0.0092
G1 X-2.269 Y11.288 E0.0092
G1 X-2.492 Y11.122 E0.0092
G1 X-2.730 Y10.980 E0.0092
G1 X-2.981 Y10.861 E0.0092
G1 X-3.242 Y10.768 E0.0092
G1 X-3.511 Y10.700 E0.0092
G1 X-3.786 Y10.659 E0.0092
G1 X-4.063 Y10.646 E0.0092
G1 X-4.340 Y10.659 E0.0092
G1 X-4.614 Y10.700 E0.0092
G1 X-4.884 Y10.768 E0.0092
G1 X-5.145 Y10.861 E0.0092
G1 X-5.396 Y10.980 E0.0092
G1 X-5.634 Y11.122 E0.0092
G1 X-5.856 Y11.288 E0.0092
G1 X-6.062 Y11.474 E0.0092
G1 X-6.248 Y11.679 E0.0092
G1 X-6.414 Y11.902 E0.0092
G1 X-6.556 Y12.140 E0.0092
G1 X-6.675 Y12.391 E0.0092
G1 X-6.768 Y12.652 E0.0092
G1 X-6.836 Y12.922 E0.0092
G1 X-6.877 Y13.196 E0.0092
G1 X-6.890 Y13.473 E0.0092
G1 X-6.877 Y13.750 E0.0092
G1 X-6.836 Y14.025 E0.0092
G1 X-6.768 Y14.294 E0.0092
G1 X-6.675 Y14.555 E0.0092
G1 X-6.556 Y14.806 E0.0092
G1 X-6.414 Y15.044 E0.0092
G1 X-6.248 Y15.267 E0.0092
G1 X-6.062 Y15.472 E0.0092
G1 X-5.856 Y15.659 E0.0092
G1 X-5.634 Y15.824 E0.0092
G1 X-5.396 Y15.967 E0.0092
G1 X-5.145 Y16.085 E0.0092
G1 X-4.884 Y16.179 E0.0092
G1 X-4.614 Y16.246 E0.0092
G1 X-4.340 Y16.287 E0.0092
G1 X-4.063 Y16.301 E0.0092
G1 X-3.779 Y16.286 E0.0094
G1 X-3.511 Y16.246 E0.0090
G1 X-3.242 Y16.179 E0.0092
G1 X-2.981 Y16.085 E0.0092
G1 X-2.730 Y15.967 E0.0092
G1 X-2.492 Y15.824 E0.0092
G1 X-2.269 Y15.659 E0.0092
G1 X-2.063 Y15.472 E0.0092
G1 X-1.877 Y15.267 E0.0092
G1 X-1.712 Y15.044 E0.0092
G1 X-1.569 Y14.806 E0.0092
G1 X-1.451 Y14.555 E0.0092
G1 X-1.357 Y14.294 E0.0092
G1 X-1.290 Y14.025 E0.0092
G1 X-1.249 Y13.750 E0.0092
G1 X-1.235 Y13.473 E0.0092
G1 X-1.249 Y13.196 E0.0092
G1 X-1.290 Y12.922 E0.0092
G1 X-1.357 Y12.652 E0.0092
G1 X-1.451 Y12.391 E0.0092
G1 X-1.569 Y12.140 E0.0092
G1 X-1.712 Y11.902 E0.0092
; feature solid layer
G1 X-0.723 Y12.288 F9000
G1 X-0.214 Y12.797 E0.0239 F2400
G1 X-0.214 Y13.362 E0.0188
G1 X-0.546 Y13.031 E0.0156
G1 X-0.532 Y13.125 E0.0032
G1 X-0.515 Y13.473 E0.0116
G1 X-0.522 Y13.620 E0.0049
G1 X-0.214 Y13.928 E0.0145
G1 X-0.214 Y14.494 E0.0188
G1 X-0.577 Y14.130 E0.0171
G1 X-0.583 Y14.165 E0.0012
G1 X-0.667 Y14.503 E0.0116
G1 X-0.694 Y14.579 E0.0027
G1 X-0.214 Y15.059 E0.0226
G1 X-0.214 Y15.625 E0.0188
G1 X-0.856 Y14.983 E0.0302
G1 X-0.933 Y15.146 E0.0060
G1 X-1.055 Y15.349 E0.0079
G1 X-0.214 Y16.191 E0.0396
G1 X-0.214 Y16.756 E0.0188
G1 X-1.289 Y15.682 E0.0505
G1 X-1.320 Y15.724 E0.0017
G1 X-1.554 Y15.982 E0.0116
G1 X-0.214 Y17.322 E0.0630
G1 X-0.214 Y17.704 E0.0127
G1 X-0.398 Y17.704 E0.0061
G1 X-1.854 Y16.248 E0.0685
G1 X-2.091 Y16.423 E0.0098
G1 X-2.187 Y16.481 E0.0037
G1 X-0.964 Y17.704 E0.0575
G1 X-1.530 Y17.704 E0.0188
G1 X-2.554 Y16.680 E0.0482
G1 X-2.705 Y16.751 E0.0056
G1 X-2.957 Y16.842 E0.0089
G1 X-2.095 Y17.704 E0.0405
G1 X-2.661 Y17.704 E0.0188
G1 X-3.406 Y16.959 E0.0350
G1 X-3.708 Y17.003 E0.0101
G1 X-3.916 Y17.014 E0.0069
G1 X-3.227 Y17.704 E0.0324
G1 X-3.792 Y17.704 E0.0188
G1 X-4.506 Y16.990 E0.0336
G1 X-4.755 Y16.953 E0.0084
G1 X-5.093 Y16.869 E0.0116
G1 X-5.249 Y16.813 E0.0055
G1 X-4.358 Y17.704 E0.0419
G1 X-4.924 Y17.704 E0.0188
G1 X-7.911 Y14.716 E0.1405
G1 X-7.911 Y14.150 E0.0188
G1 X-7.402 Y14.659 E0.0239
G1 X-7.458 Y14.503 E0.0055
G1 X-7.543 Y14.165 E0.0116
G1 X-7.580 Y13.916 E0.0084
G1 X-7.911 Y13.585 E0.0156
G1 X-7.911 Y13.019 E0.0188
G1 X-7.604 Y13.327 E0.0145
G1 X-7.594 Y13.125 E0.0067
G1 X-7.548 Y12.817 E0.0104
G1 X-7.911 Y12.453 E0.0171
G1 X-7.911 Y11.888 E0.0188
G1 X-7.431 Y12.368 E0.0226
G1 X-7.341 Y12.115 E0.0089
G1 X-7.269 Y11.964 E0.0056
G1 X-7.911 Y11.322 E0.0302
G1 X-7.911 Y10.756 E0.0188
G1 X-7.070 Y11.597 E0.0396
G1 X-7.013 Y11.502 E0.0037
G1 X-6.837 Y11.265 E0.0098
G1 X-7.911 Y10.191 E0.0505
G1 X-7.911 Y9.625 E0.0188
G1 X-6.572 Y10.964 E0.0630
G1 X-6.314 Y10.730 E0.0116
G1 X-6.272 Y10.699 E0.0017
G1 X-7.911 Y9.059 E0.0771
G1 X-7.911 Y8.493 E0.0188
G1 X-5.939 Y10.466 E0.0928
G1 X-7.911 Y15.282 F9000
G1 X-5.489 Y17.704 E0.1139 F2400
G1 X-6.055 Y17.704 E0.0188
G1 X-7.911 Y15.847 E0.0873
G1 X-7.911 Y16.413 E0.0188
G1 X-6.621 Y17.704 E0.0607
G1 X-7.186 Y17.704 E0.0188
