; G-Code generated by Simplify3D(R) Version 4.1.2
; Apr 28, 2020 at 11:13:47 AM
; Settings Summary
;   processName,Process1
;   applyToModels,KISS diffuser 7JV
;   profileName,MakerBot Replicator 2 HBP (modified)
;   profileVersion,2020-04-21 14:45:34
;   baseProfile,MakerBot Replicator 2(2)
;   printMaterial,PLA
;   printQuality,Medium
;   printExtruders,
;   extruderName,Primary Extruder
;   extruderToolheadNumber,0
;   extruderDiameter,0.4
;   extruderAutoWidth,0
;   extruderWidth,0.4
;   extrusionMultiplier,1
;   extruderUseRetract,1
;   extruderRetractionDistance,1.9
;   extruderExtraRestartDistance,0
;   extruderRetractionZLift,0.5
;   extruderRetractionSpeed,1200
;   extruderUseCoasting,0
;   extruderCoastingDistance,0.2
;   extruderUseWipe,0
;   extruderWipeDistance,5
;   primaryExtruder,0
;   layerHeight,0.2
;   topSolidLayers,3
;   bottomSolidLayers,3
;   perimeterOutlines,2
;   printPerimetersInsideOut,1
;   startPointOption,3
;   startPointOriginX,140
;   startPointOriginY,0
;   sequentialIslands,0
;   spiralVaseMode,0
;   firstLayerHeightPercentage,100
;   firstLayerWidthPercentage,100
;   firstLayerUnderspeed,0.5
;   useRaft,0
;   raftExtruder,0
;   raftTopLayers,2
;   raftBaseLayers,1
;   raftOffset,1
;   raftSeparationDistance,0.14
;   raftTopInfill,90
;   aboveRaftSpeedMultiplier,0.3
;   useSkirt,1
;   skirtExtruder,0
;   skirtLayers,1
;   skirtOutlines,5
;   skirtOffset,0
;   usePrimePillar,0
;   primePillarExtruder,999
;   primePillarWidth,12
;   primePillarLocation,7
;   primePillarSpeedMultiplier,1
;   useOozeShield,0
;   oozeShieldExtruder,999
;   oozeShieldOffset,2
;   oozeShieldOutlines,1
;   oozeShieldSidewallShape,1
;   oozeShieldSidewallAngle,30
;   oozeShieldSpeedMultiplier,1
;   infillExtruder,0
;   internalInfillPattern,Rectilinear
;   externalInfillPattern,Rectilinear
;   infillPercentage,15
;   outlineOverlapPercentage,20
;   infillExtrusionWidthPercentage,100
;   minInfillLength,5
;   infillLayerInterval,1
;   internalInfillAngles,45,-45
;   overlapInternalInfillAngles,0
;   externalInfillAngles,45,-45
;   generateSupport,0
;   supportExtruder,0
;   supportInfillPercentage,30
;   supportExtraInflation,0.6
;   supportBaseLayers,0
;   denseSupportExtruder,0
;   denseSupportLayers,2
;   denseSupportInfillPercentage,70
;   supportLayerInterval,1
;   supportHorizontalPartOffset,0.3
;   supportUpperSeparationLayers,1
;   supportLowerSeparationLayers,1
;   supportType,0
;   supportGridSpacing,99
;   maxOverhangAngle,45
;   supportAngles,0
;   temperatureName,Primary Extruder,Heated Build Platform
;   temperatureNumber,0,0
;   temperatureSetpointCount,1,1
;   temperatureSetpointLayers,1,1
;   temperatureSetpointTemperatures,230,60
;   temperatureStabilizeAtStartup,1,1
;   temperatureHeatedBed,0,1
;   fanLayers,1,2
;   fanSpeeds,0,100
;   blipFanToFullPower,1
;   adjustSpeedForCooling,1
;   minSpeedLayerTime,15
;   minCoolingSpeedSlowdown,20
;   increaseFanForCooling,1
;   minFanLayerTime,45
;   maxCoolingFanSpeed,100
;   increaseFanForBridging,1
;   bridgingFanSpeed,100
;   use5D,1
;   relativeEdistances,1
;   allowEaxisZeroing,0
;   independentExtruderAxes,1
;   includeM10123,0
;   stickySupport,1
;   applyToolheadOffsets,0
;   gcodeXoffset,0
;   gcodeYoffset,0
;   gcodeZoffset,0
;   overrideMachineDefinition,1
;   machineTypeOverride,0
;   strokeXoverride,280
;   strokeYoverride,150
;   strokeZoverride,150
;   originOffsetXoverride,140
;   originOffsetYoverride,75
;   originOffsetZoverride,0
;   homeXdirOverride,1
;   homeYdirOverride,1
;   homeZdirOverride,-1
;   flipXoverride,1
;   flipYoverride,-1
;   flipZoverride,1
;   toolheadOffsets,0,0|0,0|0,0|0,0|0,0|0,0
;   overrideFirmwareConfiguration,1
;   firmwareTypeOverride,MakerBot/Sailfish Firmware
;   GPXconfigOverride,r2h
;   baudRateOverride,115200
;   overridePrinterModels,1
;   printerModelsOverride,MakerBot_Replicator2.stl
;   startingGcode,; **** Replicator 2 start.gcode ****,M73 P0 ; enable build progress,G162 X Y F3000 ; home XY maximum,G161 Z F1200 ; home Z minimum,G92 Z-5 ; set Z to -5,G1 Z0 ; move Z to 0,G161 Z F100 ; home Z slowly,M132 X Y Z A B ; recall home offsets,G1 X-145 Y-75 Z30 F9000 ; move to wait position off table,G130 X20 Y20 Z20 A20 B20 ; lower stepper Vrefs while heating,M126 S[fan_speed_pwm],M140 S[bed0_temperature] T0,M134 T0 ; stabilize bed temperature,M104 S[extruder0_temperature] T0,M133 T0 ; stabilize extruder temperature,G130 X127 Y127 Z40 A127 B127 ; default stepper Vrefs,G92 A0 ; zero extruder,G1 Z0.4 ; position nozzle,G1 E25 F300 ; purge nozzle,G1 X-140 Y-70 Z0.15 F1200 ; slow wipe,G1 X-135 Y-65 Z0.5 F1200 ; lift,G92 A0 ; zero extruder,M73 P1 ;@body (notify GPX body has started),; **** end of start.gcode ****
;   layerChangeGcode,
;   retractionGcode,
;   toolChangeGcode,
;   endingGcode,; **** Replicator 2 end.gcode ****,M73 P100 ; end build progress,G1 Z155 F1000 ; send Z axis to bottom of machine,M104 S0 T0 ; cool down extruder,M140 S0 T0 ; cool down HBP,M127 ; stop blower fan,G162 X Y F3000 ; home XY maximum,M18 ; disable stepper,M0 ; stop codes,M72 P1 ; play Ta-Da song,; **** end of end.gcode ****
;   exportFileFormat,gcode
;   celebration,0
;   celebrationSong,Random Song
;   postProcessing,
;   defaultSpeed,4800
;   outlineUnderspeed,0.5
;   solidInfillUnderspeed,1
;   supportUnderspeed,1
;   rapidXYspeed,9000
;   rapidZspeed,1200
;   minBridgingArea,50
;   bridgingExtraInflation,0
;   bridgingExtrusionMultiplier,1
;   bridgingSpeedMultiplier,0.8
;   useFixedBridgingAngle,0
;   fixedBridgingAngle,0
;   applyBridgingToPerimeters,0
;   filamentDiameters,1.75|1.75|1.75|1.75|1.75|1.75
;   filamentPricesPerKg,46|46|46|46|46|46
;   filamentDensities,1.25|1.25|1.25|1.25|1.25|1.25
;   useMinPrintHeight,0
;   minPrintHeight,0
;   useMaxPrintHeight,0
;   maxPrintHeight,4.84
;   useDiaphragm,0
;   diaphragmLayerInterval,20
;   robustSlicing,1
;   mergeAllIntoSolid,0
;   onlyRetractWhenCrossingOutline,0
;   retractBetweenLayers,0
;   useRetractionMinTravel,1
;   retractionMinTravel,7
;   retractWhileWiping,1
;   onlyWipeOutlines,1
;   avoidCrossingOutline,0
;   maxMovementDetourFactor,3
;   toolChangeRetractionDistance,12
;   toolChangeExtraRestartDistance,-0.5
;   toolChangeRetractionSpeed,600
;   externalThinWallType,0
;   internalThinWallType,0
;   thinWallAllowedOverlapPercentage,10
;   singleExtrusionMinLength,1
;   singleExtrusionMinPrintingWidthPercentage,50
;   singleExtrusionMaxPrintingWidthPercentage,200
;   singleExtrusionEndpointExtension,0.2
;   horizontalSizeCompensation,0
G90
M83
; **** Replicator 2 start.gcode ****
M73 P0 ; enable build progress
G162 X Y F3000 ; home XY maximum
G161 Z F1200 ; home Z minimum
G92 Z-5 ; set Z to -5
G1 Z0 ; move Z to 0
G28 ; better homing, homie
M132 X Y Z A B ; recall home offsets
G1 X-145 Y-75 Z30 F9000 ; move to wait position off table
G130 X20 Y20 Z20 A20 B20 ; lower stepper Vrefs while heating
M126 S4
M140 S60 T0
M134 T0 ; stabilize bed temperature
M104 S230 T0
M133 T0 ; stabilize extruder temperature
G130 X127 Y127 Z40 A127 B127 ; default stepper Vrefs
G92 A0 ; zero extruder
G1 Z0.4 ; position nozzle
G1 E25 F300 ; purge nozzle
G1 X-140 Y-70 Z0.15 F1200 ; slow wipe
G1 X-135 Y-65 Z0.5 F1200 ; lift
G92 A0 ; zero extruder
M73 P1 ;@body (notify GPX body has started)
; **** end of start.gcode ****
; process Process1
; layer 1, Z = 0.200
M135 T0
G1 E-1.9000 F1200
; feature skirt
; tool H0.200 W0.400
G1 Z0.500 F1200
G1 X51.615 Y4.227 F9000
G1 Z0.200 F1200
G1 E1.9000 F1200
G1 X51.615 Y7.711 E0.1159 F2400
G1 X50.561 Y8.765 E0.0496
G1 X49.761 Y8.765 E0.0266
G1 X49.761 Y14.787 E0.2003
G1 X48.707 Y15.841 E0.0496
G1 X45.721 Y15.841 E0.0993
G1 X44.667 Y14.787 E0.0496
G1 X44.667 Y8.765 E0.2003
G1 X42.311 Y8.765 E0.0784
G1 X42.311 Y14.787 E0.2003
G1 X41.256 Y15.841 E0.0496
G1 X38.271 Y15.841 E0.0993
G1 X37.216 Y14.787 E0.0496
G1 X37.216 Y8.765 E0.2003
G1 X21.717 Y8.765 E0.5155
G1 X21.717 Y14.787 E0.2003
G1 X20.663 Y15.841 E0.0496
G1 X17.677 Y15.841 E0.0993
G1 X16.623 Y14.787 E0.0496
G1 X16.623 Y8.765 E0.2003
G1 X0.453 Y8.765 E0.5378
G1 X0.453 Y14.787 E0.2003
G1 X-0.601 Y15.841 E0.0496
G1 X-3.587 Y15.841 E0.0993
G1 X-4.641 Y14.787 E0.0496
G1 X-4.641 Y8.765 E0.2003
G1 X-11.703 Y8.765 E0.2349
G1 X-11.703 Y14.787 E0.2003
G1 X-12.757 Y15.841 E0.0496
G1 X-15.743 Y15.841 E0.0993
G1 X-16.797 Y14.787 E0.0496
G1 X-16.797 Y8.765 E0.2003
G1 X-39.579 Y8.765 E0.7577
G1 X-39.582 Y14.788 E0.2003
G1 X-40.637 Y15.841 E0.0496
G1 X-43.618 Y15.841 E0.0992
G1 X-44.673 Y14.787 E0.0496
G1 X-44.673 Y8.765 E0.2003
G1 X-44.865 Y8.765 E0.0064
G1 X-44.865 Y14.787 E0.2003
G1 X-45.919 Y15.841 E0.0496
G1 X-48.901 Y15.841 E0.0992
G1 X-49.955 Y14.788 E0.0496
G1 X-49.958 Y8.765 E0.2003
G1 X-50.561 Y8.765 E0.0200
G1 X-51.615 Y7.711 E0.0496
G1 X-51.615 Y4.227 E0.1159
G1 X-50.561 Y3.173 E0.0496
G1 X-40.230 Y3.173 E0.3436
G1 X-40.286 Y-0.727 E0.1297
G1 X-39.228 Y-1.800 E0.0501
G1 X38.994 Y-1.800 E2.6017
G1 X40.052 Y-0.724 E0.0502
G1 X39.986 Y3.173 E0.1296
G1 X50.561 Y3.173 E0.3517
G1 X51.615 Y4.227 E0.0496
G1 X51.215 Y4.393 F9000
G1 X51.215 Y7.545 E0.1048 F2400
G1 X50.395 Y8.365 E0.0386
G1 X49.361 Y8.365 E0.0344
G1 X49.361 Y14.621 E0.2081
G1 X48.541 Y15.441 E0.0386
G1 X45.887 Y15.441 E0.0883
G1 X45.067 Y14.621 E0.0386
G1 X45.067 Y8.365 E0.2081
G1 X41.911 Y8.365 E0.1050
G1 X41.911 Y14.621 E0.2081
G1 X41.091 Y15.441 E0.0386
G1 X38.436 Y15.441 E0.0883
G1 X37.616 Y14.621 E0.0386
G1 X37.616 Y8.365 E0.2081
G1 X21.317 Y8.365 E0.5421
G1 X21.317 Y14.621 E0.2081
G1 X20.497 Y15.441 E0.0386
G1 X17.843 Y15.441 E0.0883
G1 X17.023 Y14.621 E0.0386
G1 X17.023 Y8.365 E0.2081
G1 X0.053 Y8.365 E0.5644
G1 X0.053 Y14.621 E0.2081
G1 X-0.767 Y15.441 E0.0386
G1 X-3.421 Y15.441 E0.0883
G1 X-4.241 Y14.621 E0.0386
G1 X-4.241 Y8.365 E0.2081
G1 X-12.103 Y8.365 E0.2615
G1 X-12.103 Y14.621 E0.2081
G1 X-12.923 Y15.441 E0.0386
G1 X-15.577 Y15.441 E0.0883
G1 X-16.397 Y14.621 E0.0386
G1 X-16.397 Y8.365 E0.2081
G1 X-39.979 Y8.365 E0.7843
G1 X-39.982 Y14.622 E0.2081
G1 X-40.802 Y15.441 E0.0386
G1 X-43.453 Y15.441 E0.0882
G1 X-44.273 Y14.621 E0.0386
G1 X-44.273 Y8.365 E0.2081
G1 X-45.265 Y8.365 E0.0330
G1 X-45.265 Y14.621 E0.2081
G1 X-46.085 Y15.441 E0.0386
G1 X-48.735 Y15.441 E0.0882
G1 X-49.555 Y14.622 E0.0386
G1 X-49.559 Y8.365 E0.2081
G1 X-50.395 Y8.365 E0.0278
G1 X-51.215 Y7.545 E0.0386
G1 X-51.215 Y4.393 E0.1048
G1 X-50.395 Y3.573 E0.0386
G1 X-39.825 Y3.573 E0.3516
G1 X-39.883 Y-0.566 E0.1377
G1 X-39.061 Y-1.400 E0.0390
G1 X38.827 Y-1.400 E2.5906
G1 X39.650 Y-0.563 E0.0390
G1 X39.579 Y3.573 E0.1376
G1 X50.395 Y3.573 E0.3597
G1 X51.215 Y4.393 E0.0386
G1 X50.815 Y4.559 F9000
G1 X50.815 Y7.380 E0.0938 F2400
G1 X50.229 Y7.965 E0.0276
G1 X48.961 Y7.965 E0.0422
G1 X48.961 Y14.456 E0.2159
G1 X48.376 Y15.041 E0.0276
G1 X46.053 Y15.041 E0.0773
G1 X45.467 Y14.456 E0.0276
G1 X45.467 Y7.965 E0.2159
G1 X41.511 Y7.965 E0.1316
G1 X41.511 Y14.456 E0.2159
G1 X40.925 Y15.041 E0.0276
G1 X38.602 Y15.041 E0.0773
G1 X38.016 Y14.456 E0.0276
G1 X38.016 Y7.965 E0.2159
G1 X20.917 Y7.965 E0.5687
G1 X20.917 Y14.456 E0.2159
G1 X20.331 Y15.041 E0.0276
G1 X18.009 Y15.041 E0.0773
G1 X17.423 Y14.456 E0.0276
G1 X17.423 Y7.965 E0.2159
G1 X-0.347 Y7.965 E0.5910
G1 X-0.347 Y14.456 E0.2159
G1 X-0.932 Y15.041 E0.0276
G1 X-3.255 Y15.041 E0.0773
G1 X-3.841 Y14.456 E0.0276
G1 X-3.841 Y7.965 E0.2159
G1 X-12.503 Y7.965 E0.2881
G1 X-12.503 Y14.456 E0.2159
G1 X-13.089 Y15.041 E0.0276
G1 X-15.412 Y15.041 E0.0773
G1 X-15.997 Y14.456 E0.0276
G1 X-15.997 Y7.965 E0.2159
G1 X-40.379 Y7.965 E0.8109
G1 X-40.382 Y14.456 E0.2159
G1 X-40.968 Y15.041 E0.0275
G1 X-43.287 Y15.041 E0.0771
G1 X-43.873 Y14.456 E0.0276
G1 X-43.873 Y7.965 E0.2159
G1 X-45.665 Y7.965 E0.0596
G1 X-45.665 Y14.456 E0.2159
G1 X-46.251 Y15.041 E0.0276
G1 X-48.570 Y15.041 E0.0771
G1 X-49.155 Y14.456 E0.0275
G1 X-49.159 Y7.965 E0.2159
G1 X-50.229 Y7.965 E0.0356
G1 X-50.815 Y7.380 E0.0276
G1 X-50.815 Y4.559 E0.0938
G1 X-50.229 Y3.973 E0.0276
G1 X-39.419 Y3.973 E0.3596
G1 X-39.481 Y-0.404 E0.1456
G1 X-38.894 Y-1.000 E0.0278
G1 X38.659 Y-1.000 E2.5794
G1 X39.247 Y-0.402 E0.0279
G1 X39.172 Y3.973 E0.1455
G1 X50.229 Y3.973 E0.3678
G1 X50.815 Y4.559 E0.0276
G1 X50.415 Y4.724 F9000
G1 X50.415 Y7.214 E0.0828 F2400
G1 X50.063 Y7.565 E0.0165
G1 X48.561 Y7.565 E0.0500
G1 X48.561 Y14.290 E0.2237
G1 X48.210 Y14.641 E0.0165
G1 X46.218 Y14.641 E0.0662
G1 X45.867 Y14.290 E0.0165
G1 X45.867 Y7.565 E0.2237
G1 X41.111 Y7.565 E0.1582
G1 X41.111 Y14.290 E0.2237
G1 X40.759 Y14.641 E0.0165
G1 X38.768 Y14.641 E0.0662
G1 X38.416 Y14.290 E0.0165
G1 X38.416 Y7.565 E0.2237
G1 X20.517 Y7.565 E0.5953
G1 X20.517 Y14.290 E0.2237
G1 X20.166 Y14.641 E0.0165
G1 X18.174 Y14.641 E0.0662
G1 X17.823 Y14.290 E0.0165
G1 X17.823 Y7.565 E0.2237
G1 X-0.747 Y7.565 E0.6176
G1 X-0.747 Y14.290 E0.2237
G1 X-1.098 Y14.641 E0.0165
G1 X-3.090 Y14.641 E0.0662
G1 X-3.441 Y14.290 E0.0165
G1 X-3.441 Y7.565 E0.2237
G1 X-12.903 Y7.565 E0.3147
G1 X-12.903 Y14.290 E0.2237
G1 X-13.255 Y14.641 E0.0165
G1 X-15.246 Y14.641 E0.0662
G1 X-15.597 Y14.290 E0.0165
G1 X-15.597 Y7.565 E0.2237
G1 X-40.779 Y7.565 E0.8375
G1 X-40.782 Y14.290 E0.2237
G1 X-41.134 Y14.641 E0.0165
G1 X-43.121 Y14.641 E0.0661
G1 X-43.473 Y14.290 E0.0165
G1 X-43.473 Y7.565 E0.2237
G1 X-46.065 Y7.565 E0.0862
G1 X-46.065 Y14.290 E0.2237
G1 X-46.416 Y14.641 E0.0165
G1 X-48.404 Y14.641 E0.0661
G1 X-48.755 Y14.290 E0.0165
G1 X-48.759 Y7.565 E0.2237
G1 X-50.063 Y7.565 E0.0434
G1 X-50.415 Y7.214 E0.0165
G1 X-50.415 Y4.724 E0.0828
G1 X-50.063 Y4.373 E0.0165
G1 X-39.013 Y4.373 E0.3675
G1 X-39.079 Y-0.242 E0.1535
G1 X-38.726 Y-0.600 E0.0167
G1 X38.491 Y-0.600 E2.5683
G1 X38.844 Y-0.241 E0.0167
G1 X38.765 Y4.373 E0.1535
G1 X50.063 Y4.373 E0.3758
G1 X50.415 Y4.724 E0.0165
G1 X50.015 Y4.890 F9000
G1 X50.015 Y7.048 E0.0718 F2400
G1 X49.898 Y7.165 E0.0055
G1 X48.161 Y7.165 E0.0578
G1 X48.161 Y14.124 E0.2315
G1 X48.044 Y14.241 E0.0055
G1 X46.384 Y14.241 E0.0552
G1 X46.267 Y14.124 E0.0055
G1 X46.267 Y7.165 E0.2315
G1 X40.711 Y7.165 E0.1848
G1 X40.711 Y14.124 E0.2315
G1 X40.593 Y14.241 E0.0055
G1 X38.933 Y14.241 E0.0552
G1 X38.816 Y14.124 E0.0055
G1 X38.816 Y7.165 E0.2315
G1 X20.117 Y7.165 E0.6219
G1 X20.117 Y14.124 E0.2315
G1 X20.000 Y14.241 E0.0055
G1 X18.340 Y14.241 E0.0552
G1 X18.223 Y14.124 E0.0055
G1 X18.223 Y7.165 E0.2315
G1 X-1.147 Y7.165 E0.6442
G1 X-1.147 Y14.124 E0.2315
G1 X-1.264 Y14.241 E0.0055
G1 X-2.924 Y14.241 E0.0552
G1 X-3.041 Y14.124 E0.0055
G1 X-3.041 Y7.165 E0.2315
G1 X-13.303 Y7.165 E0.3413
G1 X-13.303 Y14.124 E0.2315
G1 X-13.420 Y14.241 E0.0055
G1 X-15.080 Y14.241 E0.0552
G1 X-15.197 Y14.124 E0.0055
G1 X-15.197 Y7.165 E0.2315
G1 X-41.178 Y7.165 E0.8641
G1 X-41.182 Y14.124 E0.2315
G1 X-41.299 Y14.241 E0.0055
G1 X-42.956 Y14.241 E0.0551
G1 X-43.073 Y14.124 E0.0055
G1 X-43.073 Y7.165 E0.2315
G1 X-46.465 Y7.165 E0.1128
G1 X-46.465 Y14.124 E0.2315
G1 X-46.582 Y14.241 E0.0055
G1 X-48.238 Y14.241 E0.0551
G1 X-48.356 Y14.124 E0.0055
G1 X-48.359 Y7.165 E0.2315
G1 X-49.898 Y7.165 E0.0512
G1 X-50.015 Y7.048 E0.0055
G1 X-50.015 Y4.890 E0.0718
G1 X-49.898 Y4.773 E0.0055
G1 X-38.607 Y4.773 E0.3755
G1 X-38.676 Y-0.081 E0.1615
G1 X-38.559 Y-0.200 E0.0056
G1 X38.324 Y-0.200 E2.5571
G1 X38.441 Y-0.080 E0.0056
G1 X38.358 Y4.773 E0.1614
G1 X49.898 Y4.773 E0.3838
G1 X50.015 Y4.890 E0.0055
; feature inner perimeter
G1 X49.215 Y5.573 F9000
G1 X49.215 Y6.365 E0.0264 F1800
G1 X47.361 Y6.365 E0.0617
G1 X47.361 Y13.441 E0.2353
G1 X47.067 Y13.441 E0.0098
G1 X47.067 Y6.365 E0.2353
G1 X39.911 Y6.365 E0.2380
G1 X39.911 Y13.441 E0.2353
G1 X39.616 Y13.441 E0.0098
G1 X39.616 Y6.365 E0.2353
G1 X19.317 Y6.365 E0.6751
G1 X19.317 Y13.441 E0.2353
G1 X19.023 Y13.441 E0.0098
G1 X19.023 Y6.365 E0.2353
G1 X-1.947 Y6.365 E0.6974
G1 X-1.947 Y13.441 E0.2353
G1 X-2.241 Y13.441 E0.0098
G1 X-2.241 Y6.365 E0.2353
G1 X-14.103 Y6.365 E0.3945
G1 X-14.103 Y13.441 E0.2353
G1 X-14.397 Y13.441 E0.0098
G1 X-14.397 Y6.365 E0.2353
G1 X-41.978 Y6.365 E0.9173
G1 X-41.982 Y13.441 E0.2353
G1 X-42.273 Y13.441 E0.0097
G1 X-42.273 Y6.365 E0.2353
G1 X-47.265 Y6.365 E0.1660
G1 X-47.265 Y13.441 E0.2353
G1 X-47.556 Y13.441 E0.0097
G1 X-47.560 Y6.365 E0.2353
