; G-Code generated by Simplify3D(R) Version 4.1.2
; Apr 20, 2020 at 1:57:02 PM
; Settings Summary
;   processName,Process1
;   applyToModels,D20RepMountV1R3
;   profileName,MakerBot Replicator 2 HBP (modified)
;   profileVersion,2019-10-28 12:37:50
;   baseProfile,MakerBot Replicator 2(2)
;   printMaterial,PLA
;   printQuality,Medium
;   printExtruders,
;   extruderName,Primary Extruder
;   extruderToolheadNumber,0
;   extruderDiameter,0.4
;   extruderAutoWidth,0
;   extruderWidth,0.4
;   extrusionMultiplier,1
;   extruderUseRetract,1
;   extruderRetractionDistance,1.9
;   extruderExtraRestartDistance,0
;   extruderRetractionZLift,0.5
;   extruderRetractionSpeed,1200
;   extruderUseCoasting,0
;   extruderCoastingDistance,0.2
;   extruderUseWipe,0
;   extruderWipeDistance,5
;   primaryExtruder,0
;   layerHeight,0.2
;   topSolidLayers,3
;   bottomSolidLayers,3
;   perimeterOutlines,2
;   printPerimetersInsideOut,1
;   startPointOption,3
;   startPointOriginX,140
;   startPointOriginY,0
;   sequentialIslands,0
;   spiralVaseMode,0
;   firstLayerHeightPercentage,100
;   firstLayerWidthPercentage,100
;   firstLayerUnderspeed,0.5
;   useRaft,0
;   raftExtruder,0
;   raftTopLayers,2
;   raftBaseLayers,1
;   raftOffset,1
;   raftSeparationDistance,0.14
;   raftTopInfill,90
;   aboveRaftSpeedMultiplier,0.3
;   useSkirt,0
;   skirtExtruder,0
;   skirtLayers,1
;   skirtOutlines,5
;   skirtOffset,0
;   usePrimePillar,0
;   primePillarExtruder,999
;   primePillarWidth,12
;   primePillarLocation,7
;   primePillarSpeedMultiplier,1
;   useOozeShield,0
;   oozeShieldExtruder,999
;   oozeShieldOffset,2
;   oozeShieldOutlines,1
;   oozeShieldSidewallShape,1
;   oozeShieldSidewallAngle,30
;   oozeShieldSpeedMultiplier,1
;   infillExtruder,0
;   internalInfillPattern,Rectilinear
;   externalInfillPattern,Rectilinear
;   infillPercentage,15
;   outlineOverlapPercentage,20
;   infillExtrusionWidthPercentage,100
;   minInfillLength,5
;   infillLayerInterval,1
;   internalInfillAngles,45,-45
;   overlapInternalInfillAngles,0
;   externalInfillAngles,45,-45
;   generateSupport,1
;   supportExtruder,0
;   supportInfillPercentage,20
;   supportExtraInflation,0.5
;   supportBaseLayers,0
;   denseSupportExtruder,0
;   denseSupportLayers,2
;   denseSupportInfillPercentage,70
;   supportLayerInterval,1
;   supportHorizontalPartOffset,0.3
;   supportUpperSeparationLayers,1
;   supportLowerSeparationLayers,1
;   supportType,0
;   supportGridSpacing,2
;   maxOverhangAngle,45
;   supportAngles,0
;   temperatureName,Primary Extruder,Heated Build Platform
;   temperatureNumber,0,0
;   temperatureSetpointCount,1,1
;   temperatureSetpointLayers,1,1
;   temperatureSetpointTemperatures,230,60
;   temperatureStabilizeAtStartup,1,1
;   temperatureHeatedBed,0,1
;   fanLayers,1,2
;   fanSpeeds,0,100
;   blipFanToFullPower,1
;   adjustSpeedForCooling,1
;   minSpeedLayerTime,15
;   minCoolingSpeedSlowdown,20
;   increaseFanForCooling,1
;   minFanLayerTime,45
;   maxCoolingFanSpeed,100
;   increaseFanForBridging,1
;   bridgingFanSpeed,100
;   use5D,1
;   relativeEdistances,1
;   allowEaxisZeroing,0
;   independentExtruderAxes,1
;   includeM10123,0
;   stickySupport,1
;   applyToolheadOffsets,0
;   gcodeXoffset,0
;   gcodeYoffset,0
;   gcodeZoffset,0
;   overrideMachineDefinition,1
;   machineTypeOverride,0
;   strokeXoverride,280
;   strokeYoverride,150
;   strokeZoverride,150
;   originOffsetXoverride,140
;   originOffsetYoverride,75
;   originOffsetZoverride,0
;   homeXdirOverride,1
;   homeYdirOverride,1
;   homeZdirOverride,-1
;   flipXoverride,1
;   flipYoverride,-1
;   flipZoverride,1
;   toolheadOffsets,0,0|0,0|0,0|0,0|0,0|0,0
;   overrideFirmwareConfiguration,1
;   firmwareTypeOverride,MakerBot/Sailfish Firmware
;   GPXconfigOverride,r2h
;   baudRateOverride,115200
;   overridePrinterModels,1
;   printerModelsOverride,MakerBot_Replicator2.stl
;   startingGcode,; **** Replicator 2 start.gcode ****,M73 P0 ; enable build progress,G162 X Y F3000 ; home XY maximum,G161 Z F1200 ; home Z minimum,G92 Z-5 ; set Z to -5,G1 Z0 ; move Z to 0,G161 Z F100 ; home Z slowly,M132 X Y Z A B ; recall home offsets,G1 X-145 Y-75 Z30 F9000 ; move to wait position off table,G130 X20 Y20 Z20 A20 B20 ; lower stepper Vrefs while heating,M126 S[fan_speed_pwm],M140 S[bed0_temperature] T0,M134 T0 ; stabilize bed temperature,M104 S[extruder0_temperature] T0,M133 T0 ; stabilize extruder temperature,G130 X127 Y127 Z40 A127 B127 ; default stepper Vrefs,G92 A0 ; zero extruder,G1 Z0.4 ; position nozzle,G1 E25 F300 ; purge nozzle,G1 X-140 Y-70 Z0.15 F1200 ; slow wipe,G1 X-135 Y-65 Z0.5 F1200 ; lift,G92 A0 ; zero extruder,M73 P1 ;@body (notify GPX body has started),; **** end of start.gcode ****
;   layerChangeGcode,
;   retractionGcode,
;   toolChangeGcode,
;   endingGcode,; **** Replicator 2 end.gcode ****,M73 P100 ; end build progress,G1 Z155 F1000 ; send Z axis to bottom of machine,M104 S0 T0 ; cool down extruder,M140 S0 T0 ; cool down HBP,M127 ; stop blower fan,G162 X Y F3000 ; home XY maximum,M18 ; disable stepper,M0 ; stop codes,M72 P1 ; play Ta-Da song,; **** end of end.gcode ****
;   exportFileFormat,gcode
;   celebration,0
;   celebrationSong,Random Song
;   postProcessing,
;   defaultSpeed,4800
;   outlineUnderspeed,0.5
;   solidInfillUnderspeed,1
;   supportUnderspeed,1
;   rapidXYspeed,9000
;   rapidZspeed,1200
;   minBridgingArea,50
;   bridgingExtraInflation,0
;   bridgingExtrusionMultiplier,1
;   bridgingSpeedMultiplier,0.8
;   useFixedBridgingAngle,0
;   fixedBridgingAngle,0
;   applyBridgingToPerimeters,0
;   filamentDiameters,1.75|1.75|1.75|1.75|1.75|1.75
;   filamentPricesPerKg,46|46|46|46|46|46
;   filamentDensities,1.25|1.25|1.25|1.25|1.25|1.25
;   useMinPrintHeight,0
;   minPrintHeight,0
;   useMaxPrintHeight,0
;   maxPrintHeight,4.84
;   useDiaphragm,0
;   diaphragmLayerInterval,20
;   robustSlicing,1
;   mergeAllIntoSolid,0
;   onlyRetractWhenCrossingOutline,0
;   retractBetweenLayers,0
;   useRetractionMinTravel,1
;   retractionMinTravel,7
;   retractWhileWiping,1
;   onlyWipeOutlines,1
;   avoidCrossingOutline,0
;   maxMovementDetourFactor,3
;   toolChangeRetractionDistance,12
;   toolChangeExtraRestartDistance,-0.5
;   toolChangeRetractionSpeed,600
;   externalThinWallType,0
;   internalThinWallType,0
;   thinWallAllowedOverlapPercentage,10
;   singleExtrusionMinLength,1
;   singleExtrusionMinPrintingWidthPercentage,50
;   singleExtrusionMaxPrintingWidthPercentage,200
;   singleExtrusionEndpointExtension,0.2
;   horizontalSizeCompensation,0
G90
M83
; **** Replicator 2 start.gcode ****
M73 P0 ; enable build progress
G162 X Y F3000 ; home XY maximum
G161 Z F1200 ; home Z minimum
G92 Z-5 ; set Z to -5
G1 Z0 ; move Z to 0
G28 ; better homing, homie
M132 X Y Z A B ; recall home offsets
G1 X-145 Y-75 Z30 F9000 ; move to wait position off table
G130 X20 Y20 Z20 A20 B20 ; lower stepper Vrefs while heating
M127
M140 S60 T0
M134 T0 ; stabilize bed temperature
M104 S230 T0
M133 T0 ; stabilize extruder temperature
G130 X127 Y127 Z40 A127 B127 ; default stepper Vrefs
G92 A0 ; zero extruder
G1 Z0.4 ; position nozzle
G1 E25 F300 ; purge nozzle
G1 X-140 Y-70 Z0.15 F1200 ; slow wipe
G1 X-135 Y-65 Z0.5 F1200 ; lift
G92 A0 ; zero extruder
M73 P1 ;@body (notify GPX body has started)
; **** end of start.gcode ****
; process Process1
; layer 1, Z = 0.200
M135 T0
G1 E-1.9000 F1200
; feature inner perimeter
; tool H0.200 W0.400
G1 Z0.500 F1200
G1 X38.475 Y28.400 F9000
G1 Z0.200 F1200
G1 E1.9000 F1200
G1 X-38.475 Y28.400 E2.5594 F1800
G1 X-38.475 Y-28.400 E1.8892
G1 X38.475 Y-28.400 E2.5594
G1 X38.475 Y28.400 E1.8892
; feature outer perimeter
G1 X38.875 Y28.800 F9000
G1 X-38.875 Y28.800 E2.5860 F1200
G1 X-38.875 Y-28.800 E1.9158
G1 X38.875 Y-28.800 E2.5860
G1 X38.875 Y28.800 E1.9158
G1 E-1.9000 F1200
; feature inner perimeter
G1 Z0.700 F1200
G1 X26.964 Y24.333 F9000
G1 Z0.200 F1200
G1 E1.9000 F1200
G1 X27.126 Y23.798 E0.0186 F1800
G1 X27.181 Y23.241 E0.0186
G1 X27.126 Y22.685 E0.0186
G1 X26.964 Y22.150 E0.0186
G1 X26.700 Y21.656 E0.0186
G1 X26.345 Y21.224 E0.0186
G1 X25.913 Y20.869 E0.0186
G1 X25.420 Y20.606 E0.0186
G1 X24.884 Y20.443 E0.0186
G1 X24.328 Y20.388 E0.0186
G1 X23.800 Y20.440 E0.0176
G1 X23.239 Y20.604 E0.0194
G1 X22.743 Y20.869 E0.0187
G1 X22.311 Y21.224 E0.0186
G1 X21.956 Y21.656 E0.0186
G1 X21.692 Y22.150 E0.0186
G1 X21.530 Y22.685 E0.0186
G1 X21.475 Y23.241 E0.0186
G1 X21.530 Y23.798 E0.0186
G1 X21.692 Y24.333 E0.0186
G1 X21.956 Y24.826 E0.0186
G1 X22.311 Y25.259 E0.0186
G1 X22.743 Y25.613 E0.0186
G1 X23.236 Y25.877 E0.0186
G1 X23.771 Y26.039 E0.0186
G1 X24.328 Y26.094 E0.0186
G1 X24.884 Y26.039 E0.0186
G1 X25.420 Y25.877 E0.0186
G1 X25.913 Y25.613 E0.0186
G1 X26.345 Y25.259 E0.0186
G1 X26.700 Y24.826 E0.0186
G1 X26.964 Y24.333 E0.0186
; feature outer perimeter
G1 X26.592 Y24.179 F9000
G1 X26.732 Y23.720 E0.0160 F1200
G1 X26.779 Y23.241 E0.0160
G1 X26.732 Y22.763 E0.0160
G1 X26.592 Y22.303 E0.0160
G1 X26.366 Y21.880 E0.0160
G1 X26.061 Y21.508 E0.0160
G1 X25.689 Y21.203 E0.0160
G1 X25.266 Y20.977 E0.0160
G1 X24.806 Y20.837 E0.0160
G1 X24.328 Y20.790 E0.0160
G1 X23.876 Y20.835 E0.0151
G1 X23.391 Y20.976 E0.0168
G1 X22.966 Y21.203 E0.0160
G1 X22.595 Y21.508 E0.0160
G1 X22.290 Y21.880 E0.0160
G1 X22.063 Y22.303 E0.0160
G1 X21.924 Y22.763 E0.0160
G1 X21.877 Y23.241 E0.0160
G1 X21.924 Y23.720 E0.0160
G1 X22.063 Y24.179 E0.0160
G1 X22.290 Y24.603 E0.0160
G1 X22.595 Y24.974 E0.0160
G1 X22.966 Y25.279 E0.0160
G1 X23.390 Y25.506 E0.0160
G1 X23.850 Y25.645 E0.0160
G1 X24.328 Y25.692 E0.0160
G1 X24.806 Y25.645 E0.0160
G1 X25.266 Y25.506 E0.0160
G1 X25.689 Y25.279 E0.0160
G1 X26.061 Y24.974 E0.0160
G1 X26.366 Y24.603 E0.0160
G1 X26.592 Y24.179 E0.0160
G1 E-1.9000 F1200
; feature inner perimeter
G1 Z0.700 F1200
G1 X32.834 Y5.481 F9000
G1 Z0.200 F1200
G1 E1.9000 F1200
G1 X27.284 Y-15.345 E0.7168 F1800
G1 X12.024 Y-0.126 E0.7168
G1 X32.834 Y5.481 E0.7168
; feature outer perimeter
G1 X32.269 Y4.914 F9000
G1 X27.076 Y-14.572 E0.6707 F1200
G1 X12.797 Y-0.332 E0.6707
G1 X32.269 Y4.914 E0.6707
G1 E-1.9000 F1200
; feature inner perimeter
G1 Z0.700 F1200
G1 X3.707 Y-8.156 F9000
G1 Z0.200 F1200
G1 E1.9000 F1200
G1 X3.869 Y-8.691 E0.0186 F1800
G1 X3.924 Y-9.248 E0.0186
G1 X3.869 Y-9.805 E0.0186
G1 X3.707 Y-10.340 E0.0186
G1 X3.443 Y-10.833 E0.0186
G1 X3.088 Y-11.265 E0.0186
G1 X2.656 Y-11.620 E0.0186
G1 X2.163 Y-11.884 E0.0186
G1 X1.628 Y-12.046 E0.0186
G1 X1.071 Y-12.101 E0.0186
G1 X0.543 Y-12.049 E0.0176
G1 X-0.018 Y-11.885 E0.0194
G1 X-0.514 Y-11.620 E0.0187
G1 X-0.946 Y-11.265 E0.0186
G1 X-1.301 Y-10.833 E0.0186
G1 X-1.565 Y-10.340 E0.0186
G1 X-1.727 Y-9.805 E0.0186
G1 X-1.782 Y-9.248 E0.0186
G1 X-1.727 Y-8.691 E0.0186
G1 X-1.565 Y-8.156 E0.0186
G1 X-1.301 Y-7.663 E0.0186
G1 X-0.946 Y-7.231 E0.0186
G1 X-0.514 Y-6.876 E0.0186
G1 X-0.021 Y-6.612 E0.0186
G1 X0.515 Y-6.450 E0.0186
G1 X1.071 Y-6.395 E0.0186
G1 X1.628 Y-6.450 E0.0186
G1 X2.163 Y-6.612 E0.0186
G1 X2.656 Y-6.876 E0.0186
G1 X3.088 Y-7.231 E0.0186
G1 X3.443 Y-7.663 E0.0186
G1 X3.707 Y-8.156 E0.0186
; feature outer perimeter
G1 X3.336 Y-8.310 F9000
G1 X3.475 Y-8.770 E0.0160 F1200
G1 X3.522 Y-9.248 E0.0160
G1 X3.475 Y-9.726 E0.0160
G1 X3.336 Y-10.186 E0.0160
G1 X3.109 Y-10.610 E0.0160
G1 X2.804 Y-10.981 E0.0160
G1 X2.433 Y-11.286 E0.0160
G1 X2.009 Y-11.512 E0.0160
G1 X1.549 Y-11.652 E0.0160
G1 X1.071 Y-11.699 E0.0160
G1 X0.620 Y-11.655 E0.0151
G1 X0.134 Y-11.513 E0.0168
G1 X-0.290 Y-11.286 E0.0160
G1 X-0.662 Y-10.981 E0.0160
G1 X-0.967 Y-10.610 E0.0160
G1 X-1.193 Y-10.186 E0.0160
G1 X-1.333 Y-9.726 E0.0160
G1 X-1.380 Y-9.248 E0.0160
G1 X-1.333 Y-8.770 E0.0160
G1 X-1.193 Y-8.310 E0.0160
G1 X-0.967 Y-7.886 E0.0160
G1 X-0.662 Y-7.515 E0.0160
G1 X-0.290 Y-7.210 E0.0160
G1 X0.133 Y-6.984 E0.0160
G1 X0.593 Y-6.844 E0.0160
G1 X1.071 Y-6.797 E0.0160
G1 X1.549 Y-6.844 E0.0160
G1 X2.009 Y-6.984 E0.0160
G1 X2.433 Y-7.210 E0.0160
G1 X2.804 Y-7.515 E0.0160
G1 X3.109 Y-7.886 E0.0160
G1 X3.336 Y-8.310 E0.0160
G1 E-1.9000 F1200
; feature inner perimeter
G1 Z0.700 F1200
G1 X-9.576 Y20.606 F9000
G1 Z0.200 F1200
G1 E1.9000 F1200
G1 X-10.111 Y20.443 E0.0186 F1800
G1 X-10.667 Y20.388 E0.0186
G1 X-11.195 Y20.440 E0.0176
G1 X-11.756 Y20.604 E0.0194
G1 X-12.252 Y20.869 E0.0187
G1 X-12.685 Y21.224 E0.0186
G1 X-13.039 Y21.656 E0.0186
G1 X-13.303 Y22.150 E0.0186
G1 X-13.465 Y22.685 E0.0186
G1 X-13.520 Y23.241 E0.0186
G1 X-13.465 Y23.798 E0.0186
G1 X-13.303 Y24.333 E0.0186
G1 X-13.039 Y24.826 E0.0186
G1 X-12.685 Y25.259 E0.0186
G1 X-12.252 Y25.613 E0.0186
G1 X-11.759 Y25.877 E0.0186
G1 X-11.224 Y26.039 E0.0186
G1 X-10.667 Y26.094 E0.0186
G1 X-10.111 Y26.039 E0.0186
G1 X-9.576 Y25.877 E0.0186
G1 X-9.082 Y25.613 E0.0186
G1 X-8.650 Y25.259 E0.0186
G1 X-8.295 Y24.826 E0.0186
G1 X-8.032 Y24.333 E0.0186
G1 X-7.869 Y23.798 E0.0186
G1 X-7.814 Y23.241 E0.0186
G1 X-7.869 Y22.685 E0.0186
G1 X-8.032 Y22.150 E0.0186
G1 X-8.295 Y21.656 E0.0186
G1 X-8.650 Y21.224 E0.0186
G1 X-9.082 Y20.869 E0.0186
G1 X-9.576 Y20.606 E0.0186
; feature outer perimeter
G1 X-9.729 Y20.977 F9000
G1 X-10.189 Y20.837 E0.0160 F1200
G1 X-10.667 Y20.790 E0.0160
G1 X-11.119 Y20.835 E0.0151
G1 X-11.604 Y20.976 E0.0168
G1 X-12.029 Y21.203 E0.0160
G1 X-12.400 Y21.508 E0.0160
G1 X-12.705 Y21.880 E0.0160
G1 X-12.932 Y22.303 E0.0160
G1 X-13.071 Y22.763 E0.0160
G1 X-13.118 Y23.241 E0.0160
G1 X-13.071 Y23.720 E0.0160
G1 X-12.932 Y24.179 E0.0160
G1 X-12.705 Y24.603 E0.0160
G1 X-12.400 Y24.974 E0.0160
G1 X-12.029 Y25.279 E0.0160
G1 X-11.605 Y25.506 E0.0160
G1 X-11.146 Y25.645 E0.0160
G1 X-10.667 Y25.692 E0.0160
G1 X-10.189 Y25.645 E0.0160
G1 X-9.729 Y25.506 E0.0160
G1 X-9.306 Y25.279 E0.0160
G1 X-8.934 Y24.974 E0.0160
G1 X-8.629 Y24.603 E0.0160
G1 X-8.403 Y24.179 E0.0160
G1 X-8.263 Y23.720 E0.0160
G1 X-8.216 Y23.241 E0.0160
G1 X-8.263 Y22.763 E0.0160
G1 X-8.403 Y22.303 E0.0160
G1 X-8.629 Y21.880 E0.0160
G1 X-8.934 Y21.508 E0.0160
G1 X-9.306 Y21.203 E0.0160
G1 X-9.729 Y20.977 E0.0160
; feature solid layer
G1 X-7.639 Y22.343 F9000
G1 X-1.901 Y28.080 E0.2699 F2400
G1 X-2.467 Y28.080 E0.0188
G1 X-7.513 Y23.034 E0.2374
G1 X-7.493 Y23.241 E0.0069
G1 X-7.527 Y23.586 E0.0115
G1 X-3.033 Y28.080 E0.2114
G1 X-3.598 Y28.080 E0.0188
G1 X-7.615 Y24.063 E0.1889
G1 X-7.735 Y24.456 E0.0137
G1 X-7.753 Y24.491 E0.0013
G1 X-4.164 Y28.080 E0.1688
G1 X-4.730 Y28.080 E0.0188
G1 X-7.950 Y24.860 E0.1515
G1 X-8.028 Y25.005 E0.0055
G1 X-8.182 Y25.193 E0.0081
G1 X-5.295 Y28.080 E0.1358
G1 X-5.861 Y28.080 E0.0188
G1 X-8.440 Y25.501 E0.1213
G1 X-8.751 Y25.756 E0.0134
G1 X-6.427 Y28.080 E0.1093
G1 X-6.992 Y28.080 E0.0188
G1 X-9.091 Y25.981 E0.0987
G1 X-9.453 Y26.174 E0.0136
G1 X-9.461 Y26.177 E0.0003
G1 X-7.558 Y28.080 E0.0895
G1 X-8.124 Y28.080 E0.0188
G1 X-9.895 Y26.308 E0.0833
G1 X-10.048 Y26.355 E0.0053
G1 X-10.382 Y26.388 E0.0112
G1 X-8.690 Y28.080 E0.0796
G1 X-9.255 Y28.080 E0.0188
G1 X-10.947 Y26.388 E0.0796
G1 E-1.9000 F1200
G1 Z0.700 F1200
G1 X-38.105 Y28.080 F9000
G1 Z0.200 F1200
G1 E1.9000 F1200
G1 X-38.155 Y28.030 E0.0023 F2400
G1 X-38.155 Y27.465 E0.0188
G1 X-37.539 Y28.080 E0.0289
G1 X-36.974 Y28.080 E0.0188
G1 X-38.155 Y26.899 E0.0556
G1 X-38.155 Y26.333 E0.0188
G1 X-36.408 Y28.080 E0.0822
G1 X-35.842 Y28.080 E0.0188
G1 X-38.155 Y25.767 E0.1088
G1 X-38.155 Y25.202 E0.0188
G1 X-35.277 Y28.080 E0.1354
G1 X-34.711 Y28.080 E0.0188
G1 X-38.155 Y24.636 E0.1620
G1 X-38.155 Y24.070 E0.0188
G1 X-34.145 Y28.080 E0.1886
G1 X-33.580 Y28.080 E0.0188
G1 X-38.155 Y23.505 E0.2152
G1 X-38.155 Y22.939 E0.0188
G1 X-33.014 Y28.080 E0.2418
G1 X-32.448 Y28.080 E0.0188
G1 X-38.155 Y22.373 E0.2684
G1 X-38.155 Y21.808 E0.0188
G1 X-31.883 Y28.080 E0.2950
G1 X-31.317 Y28.080 E0.0188
G1 X-38.155 Y21.242 E0.3216
G1 X-38.155 Y20.676 E0.0188
G1 X-30.751 Y28.080 E0.3482
G1 X-30.186 Y28.080 E0.0188
G1 X-38.155 Y20.111 E0.3749
G1 X-38.155 Y19.545 E0.0188
G1 X-29.620 Y28.080 E0.4015
G1 X-29.054 Y28.080 E0.0188
G1 X-38.155 Y18.979 E0.4281
G1 X-38.155 Y18.414 E0.0188
G1 X-28.489 Y28.080 E0.4547
G1 X-27.923 Y28.080 E0.0188
G1 X-38.155 Y17.848 E0.4813
G1 X-38.155 Y17.282 E0.0188
G1 X-27.357 Y28.080 E0.5079
G1 X-26.791 Y28.080 E0.0188
