; G-Code generated by Simplify3D(R) Version 4.1.2
; May 5, 2020 at 10:23:56 AM
; Settings Summary
;   processName,Process1
;   applyToModels,GateCoverFront,GateCoverRear,GateCoverFront(2),GateCoverRear(2),GateCoverFront(3),GateCoverRear(3),GateCoverFront(2)(2),GateCoverRear(2)(2),GateCoverFront(4),GateCoverRear(4),GateCoverFront(2)(3),GateCoverRear(2)(3),GateCoverFront(3)(2),GateCoverRear(3)(2),GateCoverFront(2)(2)(2),GateCoverRear(2)(2)(2)
;   profileName,MakerBot Replicator 2 HBP (modified)
;   profileVersion,2020-04-21 14:45:34
;   baseProfile,MakerBot Replicator 2(2)
;   printMaterial,PLA
;   printQuality,Medium
;   printExtruders,
;   extruderName,Primary Extruder
;   extruderToolheadNumber,0
;   extruderDiameter,0.4
;   extruderAutoWidth,0
;   extruderWidth,0.4
;   extrusionMultiplier,1
;   extruderUseRetract,1
;   extruderRetractionDistance,1.9
;   extruderExtraRestartDistance,0
;   extruderRetractionZLift,0.5
;   extruderRetractionSpeed,1200
;   extruderUseCoasting,0
;   extruderCoastingDistance,0.2
;   extruderUseWipe,0
;   extruderWipeDistance,5
;   primaryExtruder,0
;   layerHeight,0.2
;   topSolidLayers,3
;   bottomSolidLayers,3
;   perimeterOutlines,2
;   printPerimetersInsideOut,1
;   startPointOption,3
;   startPointOriginX,140
;   startPointOriginY,0
;   sequentialIslands,0
;   spiralVaseMode,0
;   firstLayerHeightPercentage,100
;   firstLayerWidthPercentage,100
;   firstLayerUnderspeed,0.5
;   useRaft,0
;   raftExtruder,0
;   raftTopLayers,2
;   raftBaseLayers,1
;   raftOffset,1
;   raftSeparationDistance,0.14
;   raftTopInfill,90
;   aboveRaftSpeedMultiplier,0.3
;   useSkirt,0
;   skirtExtruder,0
;   skirtLayers,1
;   skirtOutlines,5
;   skirtOffset,0
;   usePrimePillar,0
;   primePillarExtruder,999
;   primePillarWidth,12
;   primePillarLocation,7
;   primePillarSpeedMultiplier,1
;   useOozeShield,0
;   oozeShieldExtruder,999
;   oozeShieldOffset,2
;   oozeShieldOutlines,1
;   oozeShieldSidewallShape,1
;   oozeShieldSidewallAngle,30
;   oozeShieldSpeedMultiplier,1
;   infillExtruder,0
;   internalInfillPattern,Rectilinear
;   externalInfillPattern,Rectilinear
;   infillPercentage,15
;   outlineOverlapPercentage,20
;   infillExtrusionWidthPercentage,100
;   minInfillLength,5
;   infillLayerInterval,1
;   internalInfillAngles,45,-45
;   overlapInternalInfillAngles,0
;   externalInfillAngles,45,-45
;   generateSupport,1
;   supportExtruder,0
;   supportInfillPercentage,30
;   supportExtraInflation,0.6
;   supportBaseLayers,0
;   denseSupportExtruder,0
;   denseSupportLayers,2
;   denseSupportInfillPercentage,70
;   supportLayerInterval,1
;   supportHorizontalPartOffset,0.3
;   supportUpperSeparationLayers,1
;   supportLowerSeparationLayers,1
;   supportType,0
;   supportGridSpacing,99
;   maxOverhangAngle,45
;   supportAngles,0
;   temperatureName,Primary Extruder,Heated Build Platform
;   temperatureNumber,0,0
;   temperatureSetpointCount,1,1
;   temperatureSetpointLayers,1,1
;   temperatureSetpointTemperatures,230,65
;   temperatureStabilizeAtStartup,1,1
;   temperatureHeatedBed,0,1
;   fanLayers,1,2
;   fanSpeeds,0,100
;   blipFanToFullPower,1
;   adjustSpeedForCooling,1
;   minSpeedLayerTime,15
;   minCoolingSpeedSlowdown,20
;   increaseFanForCooling,1
;   minFanLayerTime,45
;   maxCoolingFanSpeed,100
;   increaseFanForBridging,1
;   bridgingFanSpeed,100
;   use5D,1
;   relativeEdistances,1
;   allowEaxisZeroing,0
;   independentExtruderAxes,1
;   includeM10123,0
;   stickySupport,1
;   applyToolheadOffsets,0
;   gcodeXoffset,0
;   gcodeYoffset,0
;   gcodeZoffset,0
;   overrideMachineDefinition,1
;   machineTypeOverride,0
;   strokeXoverride,280
;   strokeYoverride,150
;   strokeZoverride,150
;   originOffsetXoverride,140
;   originOffsetYoverride,75
;   originOffsetZoverride,0
;   homeXdirOverride,1
;   homeYdirOverride,1
;   homeZdirOverride,-1
;   flipXoverride,1
;   flipYoverride,-1
;   flipZoverride,1
;   toolheadOffsets,0,0|0,0|0,0|0,0|0,0|0,0
;   overrideFirmwareConfiguration,1
;   firmwareTypeOverride,MakerBot/Sailfish Firmware
;   GPXconfigOverride,r2h
;   baudRateOverride,115200
;   overridePrinterModels,1
;   printerModelsOverride,MakerBot_Replicator2.stl
;   startingGcode,; **** Replicator 2 start.gcode ****,M73 P0 ; enable build progress,G162 X Y F3000 ; home XY maximum,G161 Z F1200 ; home Z minimum,G92 Z-5 ; set Z to -5,G1 Z0 ; move Z to 0,G28 ; better homing homie,M132 X Y Z A B ; recall home offsets,G1 X-145 Y-75 Z30 F9000 ; move to wait position off table,G130 X20 Y20 Z20 A20 B20 ; lower stepper Vrefs while heating,M126 S[fan_speed_pwm],M140 S[bed0_temperature] T0,M134 T0 ; stabilize bed temperature,M104 S[extruder0_temperature] T0,M133 T0 ; stabilize extruder temperature,G130 X127 Y127 Z40 A127 B127 ; default stepper Vrefs,G92 A0 ; zero extruder,G1 Z0.4 ; position nozzle,G1 E25 F300 ; purge nozzle,G1 X-140 Y-70 Z0.15 F1200 ; slow wipe,G1 X-135 Y-65 Z0.5 F1200 ; lift,G92 A0 ; zero extruder,M73 P1 ;@body (notify GPX body has started),; **** end of start.gcode ****
;   layerChangeGcode,
;   retractionGcode,
;   toolChangeGcode,
;   endingGcode,; **** Replicator 2 end.gcode ****,M73 P100 ; end build progress,G1 Z155 F1000 ; send Z axis to bottom of machine,M104 S0 T0 ; cool down extruder,M140 S0 T0 ; cool down HBP,M127 ; stop blower fan,G162 X Y F3000 ; home XY maximum,M18 ; disable stepper,M0 ; stop codes,M72 P1 ; play Ta-Da song,; **** end of end.gcode ****
;   exportFileFormat,gcode
;   celebration,0
;   celebrationSong,Random Song
;   postProcessing,
;   defaultSpeed,4800
;   outlineUnderspeed,0.5
;   solidInfillUnderspeed,1
;   supportUnderspeed,1
;   rapidXYspeed,9000
;   rapidZspeed,1200
;   minBridgingArea,50
;   bridgingExtraInflation,0
;   bridgingExtrusionMultiplier,1
;   bridgingSpeedMultiplier,0.8
;   useFixedBridgingAngle,0
;   fixedBridgingAngle,0
;   applyBridgingToPerimeters,0
;   filamentDiameters,1.75|1.75|1.75|1.75|1.75|1.75
;   filamentPricesPerKg,46|46|46|46|46|46
;   filamentDensities,1.25|1.25|1.25|1.25|1.25|1.25
;   useMinPrintHeight,0
;   minPrintHeight,0
;   useMaxPrintHeight,0
;   maxPrintHeight,4.84
;   useDiaphragm,0
;   diaphragmLayerInterval,20
;   robustSlicing,1
;   mergeAllIntoSolid,0
;   onlyRetractWhenCrossingOutline,0
;   retractBetweenLayers,0
;   useRetractionMinTravel,1
;   retractionMinTravel,7
;   retractWhileWiping,1
;   onlyWipeOutlines,1
;   avoidCrossingOutline,0
;   maxMovementDetourFactor,3
;   toolChangeRetractionDistance,12
;   toolChangeExtraRestartDistance,-0.5
;   toolChangeRetractionSpeed,600
;   externalThinWallType,0
;   internalThinWallType,0
;   thinWallAllowedOverlapPercentage,10
;   singleExtrusionMinLength,1
;   singleExtrusionMinPrintingWidthPercentage,50
;   singleExtrusionMaxPrintingWidthPercentage,200
;   singleExtrusionEndpointExtension,0.2
;   horizontalSizeCompensation,0
G90
M83
; **** Replicator 2 start.gcode ****
M73 P0 ; enable build progress
G162 X Y F3000 ; home XY maximum
G161 Z F1200 ; home Z minimum
G92 Z-5 ; set Z to -5
G1 Z0 ; move Z to 0
G28 ; better homing homie
M132 X Y Z A B ; recall home offsets
G1 X-145 Y-75 Z30 F9000 ; move to wait position off table
G130 X20 Y20 Z20 A20 B20 ; lower stepper Vrefs while heating
M127
M140 S65 T0
M134 T0 ; stabilize bed temperature
M104 S230 T0
M133 T0 ; stabilize extruder temperature
G130 X127 Y127 Z40 A127 B127 ; default stepper Vrefs
G92 A0 ; zero extruder
G1 Z0.4 ; position nozzle
G1 E25 F300 ; purge nozzle
G1 X-140 Y-70 Z0.15 F1200 ; slow wipe
G1 X-135 Y-65 Z0.5 F1200 ; lift
G92 A0 ; zero extruder
M73 P1 ;@body (notify GPX body has started)
; **** end of start.gcode ****
; process Process1
; layer 1, Z = 0.200
M135 T0
G1 E-1.9000 F1200
; feature inner perimeter
; tool H0.200 W0.400
G1 Z0.500 F1200
G1 X14.270 Y17.850 F9000
G1 Z0.200 F1200
G1 E1.9000 F1200
G1 X-14.272 Y17.850 E0.9493 F1800
G1 X-9.344 Y-17.850 E1.1987
G1 X9.342 Y-17.850 E0.6215
G1 X14.270 Y17.850 E1.1987
; feature outer perimeter
G1 X14.729 Y18.250 F9000
G1 X-14.731 Y18.250 E0.9799 F1200
G1 X-9.693 Y-18.250 E1.2255
G1 X9.691 Y-18.250 E0.6447
G1 X14.729 Y18.250 E1.2255
G1 E-1.9000 F1200
; feature solid layer
G1 Z0.700 F1200
G1 X-13.582 Y17.530 F9000
G1 Z0.200 F1200
G1 E1.9000 F1200
G1 X-13.866 Y17.247 E0.0133 F2400
G1 X-13.797 Y16.750 E0.0167
G1 X-13.017 Y17.530 E0.0367
G1 X-12.451 Y17.530 E0.0188
G1 X-13.729 Y16.253 E0.0601
G1 X-13.660 Y15.756 E0.0167
G1 X-11.885 Y17.530 E0.0835
G1 X-11.320 Y17.530 E0.0188
G1 X-13.591 Y15.259 E0.1068
G1 X-13.523 Y14.762 E0.0167
G1 X-10.754 Y17.530 E0.1302
G1 X-10.188 Y17.530 E0.0188
G1 X-13.454 Y14.265 E0.1536
G1 X-13.385 Y13.767 E0.0167
G1 X-9.623 Y17.530 E0.1770
G1 X-9.057 Y17.530 E0.0188
G1 X-13.317 Y13.270 E0.2004
G1 X-13.248 Y12.773 E0.0167
G1 X-8.491 Y17.530 E0.2238
G1 X-7.926 Y17.530 E0.0188
G1 X-13.180 Y12.276 E0.2471
G1 X-13.111 Y11.779 E0.0167
G1 X-7.360 Y17.530 E0.2705
G1 X-6.794 Y17.530 E0.0188
G1 X-13.042 Y11.282 E0.2939
G1 X-12.974 Y10.785 E0.0167
G1 X-6.229 Y17.530 E0.3173
G1 X-5.663 Y17.530 E0.0188
G1 X-12.905 Y10.288 E0.3407
G1 X-12.837 Y9.791 E0.0167
G1 X-5.097 Y17.530 E0.3640
G1 X-4.531 Y17.530 E0.0188
G1 X-12.768 Y9.294 E0.3874
G1 X-12.699 Y8.797 E0.0167
G1 X-3.966 Y17.530 E0.4108
G1 X-3.400 Y17.530 E0.0188
G1 X-12.631 Y8.300 E0.4342
G1 X-12.562 Y7.803 E0.0167
G1 X-2.834 Y17.530 E0.4576
G1 X-2.269 Y17.530 E0.0188
G1 X-12.493 Y7.306 E0.4809
G1 X-12.425 Y6.808 E0.0167
G1 X-1.703 Y17.530 E0.5043
G1 X-1.137 Y17.530 E0.0188
G1 X-12.356 Y6.311 E0.5277
G1 X-12.288 Y5.814 E0.0167
G1 X-0.572 Y17.530 E0.5511
G1 X-0.006 Y17.530 E0.0188
G1 X-12.219 Y5.317 E0.5745
G1 X-12.150 Y4.820 E0.0167
G1 X0.560 Y17.530 E0.5978
G1 X1.125 Y17.530 E0.0188
G1 X-12.082 Y4.323 E0.6212
G1 X-12.013 Y3.826 E0.0167
G1 X1.691 Y17.530 E0.6446
G1 X2.257 Y17.530 E0.0188
G1 X-11.945 Y3.329 E0.6680
G1 X-11.876 Y2.832 E0.0167
G1 X2.822 Y17.530 E0.6914
G1 X3.388 Y17.530 E0.0188
G1 X-11.807 Y2.335 E0.7147
G1 X-11.739 Y1.838 E0.0167
G1 X3.954 Y17.530 E0.7381
G1 X4.519 Y17.530 E0.0188
G1 X-11.670 Y1.341 E0.7615
G1 X-11.601 Y0.844 E0.0167
G1 X5.085 Y17.530 E0.7849
G1 X5.651 Y17.530 E0.0188
G1 X-11.533 Y0.347 E0.8083
G1 X-11.464 Y-0.151 E0.0167
G1 X6.217 Y17.530 E0.8316
G1 X6.782 Y17.530 E0.0188
G1 X-11.396 Y-0.648 E0.8550
G1 X-11.327 Y-1.145 E0.0167
G1 X7.348 Y17.530 E0.8784
G1 X7.914 Y17.530 E0.0188
G1 X-11.258 Y-1.642 E0.9018
G1 X-11.190 Y-2.139 E0.0167
G1 X8.479 Y17.530 E0.9252
G1 X9.045 Y17.530 E0.0188
G1 X-11.121 Y-2.636 E0.9486
G1 X-11.053 Y-3.133 E0.0167
G1 X9.611 Y17.530 E0.9719
G1 X10.176 Y17.530 E0.0188
G1 X-10.984 Y-3.630 E0.9953
G1 X-10.915 Y-4.127 E0.0167
G1 X10.742 Y17.530 E1.0187
G1 X11.308 Y17.530 E0.0188
G1 X-10.847 Y-4.624 E1.0421
G1 X-10.778 Y-5.121 E0.0167
G1 X11.873 Y17.530 E1.0655
G1 X12.439 Y17.530 E0.0188
G1 X-10.709 Y-5.618 E1.0888
G1 X-10.641 Y-6.115 E0.0167
G1 X13.005 Y17.530 E1.1122
G1 X13.570 Y17.530 E0.0188
G1 X-10.572 Y-6.612 E1.1356
G1 X-10.504 Y-7.110 E0.0167
G1 X13.866 Y17.260 E1.1463
G1 X13.775 Y16.604 E0.0220
G1 X-10.435 Y-7.607 E1.1388
G1 X-10.366 Y-8.104 E0.0167
G1 X13.685 Y15.947 E1.1313
G1 X13.594 Y15.291 E0.0220
G1 X-10.298 Y-8.601 E1.1238
G1 X-10.229 Y-9.098 E0.0167
G1 X13.503 Y14.635 E1.1163
G1 X13.413 Y13.978 E0.0220
G1 X-10.161 Y-9.595 E1.1088
G1 X-10.092 Y-10.092 E0.0167
G1 X13.322 Y13.322 E1.1013
G1 X13.232 Y12.666 E0.0220
G1 X-10.023 Y-10.589 E1.0938
G1 X-9.955 Y-11.086 E0.0167
G1 X13.141 Y12.010 E1.0863
G1 X13.050 Y11.353 E0.0220
G1 X-9.886 Y-11.583 E1.0789
G1 X-9.817 Y-12.080 E0.0167
G1 X12.960 Y10.697 E1.0714
G1 X12.869 Y10.041 E0.0220
G1 X-9.749 Y-12.577 E1.0639
G1 X-9.680 Y-13.074 E0.0167
G1 X12.779 Y9.384 E1.0564
G1 X12.688 Y8.728 E0.0220
G1 X-9.612 Y-13.571 E1.0489
G1 X-9.543 Y-14.069 E0.0167
G1 X12.597 Y8.072 E1.0414
G1 X12.507 Y7.416 E0.0220
G1 X-9.474 Y-14.566 E1.0339
G1 X-9.406 Y-15.063 E0.0167
G1 X12.416 Y6.759 E1.0264
G1 X12.326 Y6.103 E0.0220
G1 X-9.337 Y-15.560 E1.0190
G1 X-9.269 Y-16.057 E0.0167
G1 X12.235 Y5.447 E1.0115
G1 X12.144 Y4.791 E0.0220
G1 X-9.200 Y-16.554 E1.0040
G1 X-9.131 Y-17.051 E0.0167
G1 X12.054 Y4.134 E0.9965
G1 X11.963 Y3.478 E0.0220
G1 X-9.045 Y-17.530 E0.9882
G1 X-8.479 Y-17.530 E0.0188
G1 X11.873 Y2.822 E0.9573
G1 X11.782 Y2.165 E0.0220
G1 X-7.914 Y-17.530 E0.9264
G1 X-7.348 Y-17.530 E0.0188
G1 X11.691 Y1.509 E0.8956
G1 X11.601 Y0.853 E0.0220
G1 X-6.782 Y-17.530 E0.8647
G1 X-6.217 Y-17.530 E0.0188
G1 X11.510 Y0.197 E0.8338
G1 X11.420 Y-0.460 E0.0220
G1 X-5.651 Y-17.530 E0.8029
G1 X-5.085 Y-17.530 E0.0188
G1 X11.329 Y-1.116 E0.7721
G1 X11.239 Y-1.772 E0.0220
G1 X-4.519 Y-17.530 E0.7412
G1 X-3.954 Y-17.530 E0.0188
G1 X11.148 Y-2.429 E0.7103
G1 X11.057 Y-3.085 E0.0220
G1 X-3.388 Y-17.530 E0.6795
G1 X-2.822 Y-17.530 E0.0188
G1 X10.967 Y-3.741 E0.6486
G1 X10.876 Y-4.397 E0.0220
G1 X-2.257 Y-17.530 E0.6177
G1 X-1.691 Y-17.530 E0.0188
G1 X10.786 Y-5.054 E0.5869
G1 X10.695 Y-5.710 E0.0220
G1 X-1.125 Y-17.530 E0.5560
G1 X-0.560 Y-17.530 E0.0188
G1 X10.604 Y-6.366 E0.5251
G1 X10.514 Y-7.022 E0.0220
G1 X0.006 Y-17.530 E0.4943
G1 X0.572 Y-17.530 E0.0188
G1 X10.423 Y-7.679 E0.4634
G1 X10.333 Y-8.335 E0.0220
G1 X1.137 Y-17.530 E0.4325
G1 X1.703 Y-17.530 E0.0188
G1 X10.242 Y-8.991 E0.4016
G1 X10.151 Y-9.648 E0.0220
G1 X2.269 Y-17.530 E0.3708
G1 X2.834 Y-17.530 E0.0188
G1 X10.061 Y-10.304 E0.3399
G1 X9.970 Y-10.960 E0.0220
G1 X3.400 Y-17.530 E0.3090
G1 X3.966 Y-17.530 E0.0188
G1 X9.880 Y-11.616 E0.2782
G1 X9.789 Y-12.273 E0.0220
G1 X4.532 Y-17.530 E0.2473
G1 X5.097 Y-17.530 E0.0188
G1 X9.698 Y-12.929 E0.2164
G1 X9.608 Y-13.585 E0.0220
G1 X5.663 Y-17.530 E0.1856
G1 X6.229 Y-17.530 E0.0188
G1 X9.517 Y-14.242 E0.1547
G1 X9.427 Y-14.898 E0.0220
G1 X6.794 Y-17.530 E0.1238
G1 X7.360 Y-17.530 E0.0188
G1 X9.336 Y-15.554 E0.0930
G1 X9.246 Y-16.210 E0.0220
G1 X7.926 Y-17.530 E0.0621
G1 X8.491 Y-17.530 E0.0188
G1 X9.155 Y-16.867 E0.0312
G1 X9.064 Y-17.523 E0.0220
G1 X9.057 Y-17.530 E0.0003
G1 E-1.9000 F1200
; feature inner perimeter
G1 Z0.700 F1200
G1 X14.271 Y-24.050 F9000
G1 Z0.200 F1200
G1 E1.9000 F1200
G1 X-14.271 Y-24.050 E0.9493 F1800
G1 X-9.343 Y-59.751 E1.1987
G1 X9.343 Y-59.751 E0.6215
G1 X14.271 Y-24.050 E1.1987
; feature outer perimeter
G1 X14.730 Y-23.650 F9000
G1 X-14.730 Y-23.650 E0.9799 F1200
G1 X-9.692 Y-60.151 E1.2255
G1 X9.692 Y-60.151 E0.6447
G1 X14.730 Y-23.650 E1.2255
G1 E-1.9000 F1200
; feature solid layer
G1 Z0.700 F1200
G1 X-13.622 Y-24.370 F9000
G1 Z0.200 F1200
G1 E1.9000 F1200
G1 X-13.870 Y-24.618 E0.0117 F2400
G1 X-13.801 Y-25.115 E0.0167
G1 X-13.057 Y-24.370 E0.0350
G1 X-12.491 Y-24.370 E0.0188
G1 X-13.733 Y-25.612 E0.0584
G1 X-13.664 Y-26.109 E0.0167
G1 X-11.925 Y-24.370 E0.0818
G1 X-11.359 Y-24.370 E0.0188
G1 X-13.595 Y-26.606 E0.1052
G1 X-13.527 Y-27.103 E0.0167
G1 X-10.794 Y-24.370 E0.1286
G1 X-10.228 Y-24.370 E0.0188
G1 X-13.458 Y-27.600 E0.1519
G1 X-13.390 Y-28.097 E0.0167
G1 X-9.662 Y-24.370 E0.1753
G1 X-9.097 Y-24.370 E0.0188
G1 X-13.321 Y-28.595 E0.1987
G1 X-13.252 Y-29.092 E0.0167
G1 X-8.531 Y-24.370 E0.2221
G1 X-7.965 Y-24.370 E0.0188
G1 X-13.184 Y-29.589 E0.2455
G1 X-13.115 Y-30.086 E0.0167
G1 X-7.400 Y-24.370 E0.2688
G1 X-6.834 Y-24.370 E0.0188
G1 X-13.047 Y-30.583 E0.2922
G1 X-12.978 Y-31.080 E0.0167
G1 X-6.268 Y-24.370 E0.3156
G1 X-5.703 Y-24.370 E0.0188
G1 X-12.909 Y-31.577 E0.3390
G1 X-12.841 Y-32.074 E0.0167
G1 X-5.137 Y-24.370 E0.3624
G1 X-4.571 Y-24.370 E0.0188
G1 X-12.772 Y-32.571 E0.3857
G1 X-12.703 Y-33.068 E0.0167
G1 X-4.006 Y-24.370 E0.4091
G1 X-3.440 Y-24.370 E0.0188
G1 X-12.635 Y-33.565 E0.4325
G1 X-12.566 Y-34.062 E0.0167
G1 X-2.874 Y-24.370 E0.4559
G1 X-2.309 Y-24.370 E0.0188
G1 X-12.498 Y-34.559 E0.4793
G1 X-12.429 Y-35.056 E0.0167
G1 X-1.743 Y-24.370 E0.5026
G1 X-1.177 Y-24.370 E0.0188
G1 X-12.360 Y-35.554 E0.5260
G1 X-12.292 Y-36.051 E0.0167
G1 X-0.611 Y-24.370 E0.5494
G1 X-0.046 Y-24.370 E0.0188
G1 X-12.223 Y-36.548 E0.5728
G1 X-12.155 Y-37.045 E0.0167
G1 X0.520 Y-24.370 E0.5962
G1 X1.086 Y-24.370 E0.0188
G1 X-12.086 Y-37.542 E0.6195
G1 X-12.017 Y-38.039 E0.0167
G1 X1.651 Y-24.370 E0.6429
G1 X2.217 Y-24.370 E0.0188
G1 X-11.949 Y-38.536 E0.6663
G1 X-11.880 Y-39.033 E0.0167
G1 X2.783 Y-24.370 E0.6897
G1 X3.348 Y-24.370 E0.0188
