; G-Code generated by Simplify3D(R) Version 4.1.2
; May 5, 2020 at 10:23:43 AM
; Settings Summary
;   processName,Process1
;   applyToModels,GateCoverFront,GateCoverRear,GateCoverFront(2),GateCoverRear(2),GateCoverFront(3),GateCoverRear(3),GateCoverFront(2)(2),GateCoverRear(2)(2)
;   profileName,MakerBot Replicator 2 HBP (modified)
;   profileVersion,2020-04-21 14:45:34
;   baseProfile,MakerBot Replicator 2(2)
;   printMaterial,PLA
;   printQuality,Medium
;   printExtruders,
;   extruderName,Primary Extruder
;   extruderToolheadNumber,0
;   extruderDiameter,0.4
;   extruderAutoWidth,0
;   extruderWidth,0.4
;   extrusionMultiplier,1
;   extruderUseRetract,1
;   extruderRetractionDistance,1.9
;   extruderExtraRestartDistance,0
;   extruderRetractionZLift,0.5
;   extruderRetractionSpeed,1200
;   extruderUseCoasting,0
;   extruderCoastingDistance,0.2
;   extruderUseWipe,0
;   extruderWipeDistance,5
;   primaryExtruder,0
;   layerHeight,0.2
;   topSolidLayers,3
;   bottomSolidLayers,3
;   perimeterOutlines,2
;   printPerimetersInsideOut,1
;   startPointOption,3
;   startPointOriginX,140
;   startPointOriginY,0
;   sequentialIslands,0
;   spiralVaseMode,0
;   firstLayerHeightPercentage,100
;   firstLayerWidthPercentage,100
;   firstLayerUnderspeed,0.5
;   useRaft,0
;   raftExtruder,0
;   raftTopLayers,2
;   raftBaseLayers,1
;   raftOffset,1
;   raftSeparationDistance,0.14
;   raftTopInfill,90
;   aboveRaftSpeedMultiplier,0.3
;   useSkirt,0
;   skirtExtruder,0
;   skirtLayers,1
;   skirtOutlines,5
;   skirtOffset,0
;   usePrimePillar,0
;   primePillarExtruder,999
;   primePillarWidth,12
;   primePillarLocation,7
;   primePillarSpeedMultiplier,1
;   useOozeShield,0
;   oozeShieldExtruder,999
;   oozeShieldOffset,2
;   oozeShieldOutlines,1
;   oozeShieldSidewallShape,1
;   oozeShieldSidewallAngle,30
;   oozeShieldSpeedMultiplier,1
;   infillExtruder,0
;   internalInfillPattern,Rectilinear
;   externalInfillPattern,Rectilinear
;   infillPercentage,15
;   outlineOverlapPercentage,20
;   infillExtrusionWidthPercentage,100
;   minInfillLength,5
;   infillLayerInterval,1
;   internalInfillAngles,45,-45
;   overlapInternalInfillAngles,0
;   externalInfillAngles,45,-45
;   generateSupport,1
;   supportExtruder,0
;   supportInfillPercentage,30
;   supportExtraInflation,0.6
;   supportBaseLayers,0
;   denseSupportExtruder,0
;   denseSupportLayers,2
;   denseSupportInfillPercentage,70
;   supportLayerInterval,1
;   supportHorizontalPartOffset,0.3
;   supportUpperSeparationLayers,1
;   supportLowerSeparationLayers,1
;   supportType,0
;   supportGridSpacing,99
;   maxOverhangAngle,45
;   supportAngles,0
;   temperatureName,Primary Extruder,Heated Build Platform
;   temperatureNumber,0,0
;   temperatureSetpointCount,1,1
;   temperatureSetpointLayers,1,1
;   temperatureSetpointTemperatures,230,65
;   temperatureStabilizeAtStartup,1,1
;   temperatureHeatedBed,0,1
;   fanLayers,1,2
;   fanSpeeds,0,100
;   blipFanToFullPower,1
;   adjustSpeedForCooling,1
;   minSpeedLayerTime,15
;   minCoolingSpeedSlowdown,20
;   increaseFanForCooling,1
;   minFanLayerTime,45
;   maxCoolingFanSpeed,100
;   increaseFanForBridging,1
;   bridgingFanSpeed,100
;   use5D,1
;   relativeEdistances,1
;   allowEaxisZeroing,0
;   independentExtruderAxes,1
;   includeM10123,0
;   stickySupport,1
;   applyToolheadOffsets,0
;   gcodeXoffset,0
;   gcodeYoffset,0
;   gcodeZoffset,0
;   overrideMachineDefinition,1
;   machineTypeOverride,0
;   strokeXoverride,280
;   strokeYoverride,150
;   strokeZoverride,150
;   originOffsetXoverride,140
;   originOffsetYoverride,75
;   originOffsetZoverride,0
;   homeXdirOverride,1
;   homeYdirOverride,1
;   homeZdirOverride,-1
;   flipXoverride,1
;   flipYoverride,-1
;   flipZoverride,1
;   toolheadOffsets,0,0|0,0|0,0|0,0|0,0|0,0
;   overrideFirmwareConfiguration,1
;   firmwareTypeOverride,MakerBot/Sailfish Firmware
;   GPXconfigOverride,r2h
;   baudRateOverride,115200
;   overridePrinterModels,1
;   printerModelsOverride,MakerBot_Replicator2.stl
;   startingGcode,; **** Replicator 2 start.gcode ****,M73 P0 ; enable build progress,G162 X Y F3000 ; home XY maximum,G161 Z F1200 ; home Z minimum,G92 Z-5 ; set Z to -5,G1 Z0 ; move Z to 0,G28 ; better homing homie,M132 X Y Z A B ; recall home offsets,G1 X-145 Y-75 Z30 F9000 ; move to wait position off table,G130 X20 Y20 Z20 A20 B20 ; lower stepper Vrefs while heating,M126 S[fan_speed_pwm],M140 S[bed0_temperature] T0,M134 T0 ; stabilize bed temperature,M104 S[extruder0_temperature] T0,M133 T0 ; stabilize extruder temperature,G130 X127 Y127 Z40 A127 B127 ; default stepper Vrefs,G92 A0 ; zero extruder,G1 Z0.4 ; position nozzle,G1 E25 F300 ; purge nozzle,G1 X-140 Y-70 Z0.15 F1200 ; slow wipe,G1 X-135 Y-65 Z0.5 F1200 ; lift,G92 A0 ; zero extruder,M73 P1 ;@body (notify GPX body has started),; **** end of start.gcode ****
;   layerChangeGcode,
;   retractionGcode,
;   toolChangeGcode,
;   endingGcode,; **** Replicator 2 end.gcode ****,M73 P100 ; end build progress,G1 Z155 F1000 ; send Z axis to bottom of machine,M104 S0 T0 ; cool down extruder,M140 S0 T0 ; cool down HBP,M127 ; stop blower fan,G162 X Y F3000 ; home XY maximum,M18 ; disable stepper,M0 ; stop codes,M72 P1 ; play Ta-Da song,; **** end of end.gcode ****
;   exportFileFormat,gcode
;   celebration,0
;   celebrationSong,Random Song
;   postProcessing,
;   defaultSpeed,4800
;   outlineUnderspeed,0.5
;   solidInfillUnderspeed,1
;   supportUnderspeed,1
;   rapidXYspeed,9000
;   rapidZspeed,1200
;   minBridgingArea,50
;   bridgingExtraInflation,0
;   bridgingExtrusionMultiplier,1
;   bridgingSpeedMultiplier,0.8
;   useFixedBridgingAngle,0
;   fixedBridgingAngle,0
;   applyBridgingToPerimeters,0
;   filamentDiameters,1.75|1.75|1.75|1.75|1.75|1.75
;   filamentPricesPerKg,46|46|46|46|46|46
;   filamentDensities,1.25|1.25|1.25|1.25|1.25|1.25
;   useMinPrintHeight,0
;   minPrintHeight,0
;   useMaxPrintHeight,0
;   maxPrintHeight,4.84
;   useDiaphragm,0
;   diaphragmLayerInterval,20
;   robustSlicing,1
;   mergeAllIntoSolid,0
;   onlyRetractWhenCrossingOutline,0
;   retractBetweenLayers,0
;   useRetractionMinTravel,1
;   retractionMinTravel,7
;   retractWhileWiping,1
;   onlyWipeOutlines,1
;   avoidCrossingOutline,0
;   maxMovementDetourFactor,3
;   toolChangeRetractionDistance,12
;   toolChangeExtraRestartDistance,-0.5
;   toolChangeRetractionSpeed,600
;   externalThinWallType,0
;   internalThinWallType,0
;   thinWallAllowedOverlapPercentage,10
;   singleExtrusionMinLength,1
;   singleExtrusionMinPrintingWidthPercentage,50
;   singleExtrusionMaxPrintingWidthPercentage,200
;   singleExtrusionEndpointExtension,0.2
;   horizontalSizeCompensation,0
G90
M83
; **** Replicator 2 start.gcode ****
M73 P0 ; enable build progress
G162 X Y F3000 ; home XY maximum
G161 Z F1200 ; home Z minimum
G92 Z-5 ; set Z to -5
G1 Z0 ; move Z to 0
G28 ; better homing homie
M132 X Y Z A B ; recall home offsets
G1 X-145 Y-75 Z30 F9000 ; move to wait position off table
G130 X20 Y20 Z20 A20 B20 ; lower stepper Vrefs while heating
M127
M140 S65 T0
M134 T0 ; stabilize bed temperature
M104 S230 T0
M133 T0 ; stabilize extruder temperature
G130 X127 Y127 Z40 A127 B127 ; default stepper Vrefs
G92 A0 ; zero extruder
G1 Z0.4 ; position nozzle
G1 E25 F300 ; purge nozzle
G1 X-140 Y-70 Z0.15 F1200 ; slow wipe
G1 X-135 Y-65 Z0.5 F1200 ; lift
G92 A0 ; zero extruder
M73 P1 ;@body (notify GPX body has started)
; **** end of start.gcode ****
; process Process1
; layer 1, Z = 0.200
M135 T0
G1 E-1.9000 F1200
; feature inner perimeter
; tool H0.200 W0.400
G1 Z0.500 F1200
G1 X9.342 Y3.100 F9000
G1 Z0.200 F1200
G1 E1.9000 F1200
G1 X14.270 Y38.801 E1.1987 F1800
G1 X-14.272 Y38.801 E0.9493
G1 X-9.344 Y3.100 E1.1987
G1 X9.342 Y3.100 E0.6215
; feature outer perimeter
G1 X9.691 Y2.700 F9000
G1 X14.729 Y39.201 E1.2255 F1200
G1 X-14.731 Y39.201 E0.9799
G1 X-9.692 Y2.700 E1.2255
G1 X9.691 Y2.700 E0.6447
; feature solid layer
G1 X8.511 Y3.420 F9000
G1 X9.152 Y4.061 E0.0301 F2400
G1 X9.242 Y4.717 E0.0220
G1 X7.946 Y3.420 E0.0610
G1 X7.380 Y3.420 E0.0188
G1 X9.333 Y5.373 E0.0919
G1 X9.424 Y6.030 E0.0220
G1 X6.814 Y3.420 E0.1227
G1 X6.249 Y3.420 E0.0188
G1 X9.514 Y6.686 E0.1536
G1 X9.605 Y7.342 E0.0220
G1 X5.683 Y3.420 E0.1845
G1 X5.117 Y3.420 E0.0188
G1 X9.695 Y7.998 E0.2153
G1 X9.786 Y8.655 E0.0220
G1 X4.552 Y3.420 E0.2462
G1 X3.986 Y3.420 E0.0188
G1 X9.877 Y9.311 E0.2771
G1 X9.967 Y9.967 E0.0220
G1 X3.420 Y3.420 E0.3080
G1 X2.855 Y3.420 E0.0188
G1 X10.058 Y10.623 E0.3388
G1 X10.148 Y11.280 E0.0220
G1 X2.289 Y3.420 E0.3697
G1 X1.723 Y3.420 E0.0188
G1 X10.239 Y11.936 E0.4006
G1 X10.330 Y12.592 E0.0220
G1 X1.157 Y3.420 E0.4314
G1 X0.592 Y3.420 E0.0188
G1 X10.420 Y13.249 E0.4623
G1 X10.511 Y13.905 E0.0220
G1 X0.026 Y3.420 E0.4932
G1 X-0.540 Y3.420 E0.0188
G1 X10.601 Y14.561 E0.5240
G1 X10.692 Y15.217 E0.0220
G1 X-1.105 Y3.420 E0.5549
G1 X-1.671 Y3.420 E0.0188
G1 X10.783 Y15.874 E0.5858
G1 X10.873 Y16.530 E0.0220
G1 X-2.237 Y3.420 E0.6166
G1 X-2.802 Y3.420 E0.0188
G1 X10.964 Y17.186 E0.6475
G1 X11.054 Y17.843 E0.0220
G1 X-3.368 Y3.420 E0.6784
G1 X-3.934 Y3.420 E0.0188
G1 X11.145 Y18.499 E0.7093
G1 X11.236 Y19.155 E0.0220
G1 X-4.499 Y3.420 E0.7401
G1 X-5.065 Y3.420 E0.0188
G1 X11.326 Y19.811 E0.7710
G1 X11.417 Y20.468 E0.0220
G1 X-5.631 Y3.420 E0.8019
G1 X-6.196 Y3.420 E0.0188
G1 X11.507 Y21.124 E0.8327
G1 X11.598 Y21.780 E0.0220
G1 X-6.762 Y3.420 E0.8636
G1 X-7.328 Y3.420 E0.0188
G1 X11.688 Y22.436 E0.8945
G1 X11.779 Y23.093 E0.0220
G1 X-7.893 Y3.420 E0.9253
G1 X-8.459 Y3.420 E0.0188
G1 X11.870 Y23.749 E0.9562
G1 X11.960 Y24.405 E0.0220
G1 X-9.025 Y3.420 E0.9871
G1 X-9.065 Y3.420 E0.0013
G1 X-9.129 Y3.882 E0.0155
G1 X12.051 Y25.062 E0.9962
G1 X12.141 Y25.718 E0.0220
G1 X-9.197 Y4.379 E1.0037
G1 X-9.266 Y4.876 E0.0167
G1 X12.232 Y26.374 E1.0112
G1 X12.323 Y27.030 E0.0220
G1 X-9.335 Y5.373 E1.0187
G1 X-9.403 Y5.870 E0.0167
G1 X12.413 Y27.687 E1.0262
G1 X12.504 Y28.343 E0.0220
G1 X-9.472 Y6.367 E1.0337
G1 X-9.540 Y6.864 E0.0167
G1 X12.594 Y28.999 E1.0412
G1 X12.685 Y29.656 E0.0220
G1 X-9.609 Y7.361 E1.0486
G1 X-9.678 Y7.859 E0.0167
G1 X12.776 Y30.312 E1.0561
G1 X12.866 Y30.968 E0.0220
G1 X-9.746 Y8.356 E1.0636
G1 X-9.815 Y8.853 E0.0167
G1 X12.957 Y31.624 E1.0711
G1 X13.047 Y32.281 E0.0220
G1 X-9.884 Y9.350 E1.0786
G1 X-9.952 Y9.847 E0.0167
G1 X13.138 Y32.937 E1.0861
G1 X13.229 Y33.593 E0.0220
G1 X-10.021 Y10.344 E1.0936
G1 X-10.089 Y10.841 E0.0167
G1 X13.319 Y34.249 E1.1011
G1 X13.410 Y34.906 E0.0220
G1 X-10.158 Y11.338 E1.1086
G1 X-10.227 Y11.835 E0.0167
G1 X13.500 Y35.562 E1.1160
G1 X13.591 Y36.218 E0.0220
G1 X-10.295 Y12.332 E1.1235
G1 X-10.364 Y12.829 E0.0167
G1 X13.681 Y36.875 E1.1310
G1 X13.772 Y37.531 E0.0220
G1 X-10.432 Y13.326 E1.1385
G1 X-10.501 Y13.823 E0.0167
G1 X13.863 Y38.187 E1.1460
G1 X13.903 Y38.481 E0.0099
G1 X13.591 Y38.481 E0.0104
G1 X-10.570 Y14.320 E1.1364
G1 X-10.638 Y14.818 E0.0167
G1 X13.025 Y38.481 E1.1130
G1 X12.459 Y38.481 E0.0188
G1 X-10.707 Y15.315 E1.0897
G1 X-10.776 Y15.812 E0.0167
G1 X11.893 Y38.481 E1.0663
G1 X11.328 Y38.481 E0.0188
G1 X-10.844 Y16.309 E1.0429
G1 X-10.913 Y16.806 E0.0167
G1 X10.762 Y38.481 E1.0195
G1 X10.196 Y38.481 E0.0188
G1 X-10.981 Y17.303 E0.9961
G1 X-11.050 Y17.800 E0.0167
G1 X9.631 Y38.481 E0.9728
G1 X9.065 Y38.481 E0.0188
G1 X-11.119 Y18.297 E0.9494
G1 X-11.187 Y18.794 E0.0167
G1 X8.499 Y38.481 E0.9260
G1 X7.934 Y38.481 E0.0188
G1 X-11.256 Y19.291 E0.9026
G1 X-11.324 Y19.788 E0.0167
G1 X7.368 Y38.481 E0.8792
G1 X6.802 Y38.481 E0.0188
G1 X-11.393 Y20.285 E0.8559
G1 X-11.462 Y20.782 E0.0167
G1 X6.237 Y38.481 E0.8325
G1 X5.671 Y38.481 E0.0188
G1 X-11.530 Y21.279 E0.8091
G1 X-11.599 Y21.777 E0.0167
G1 X5.105 Y38.481 E0.7857
G1 X4.540 Y38.481 E0.0188
G1 X-11.667 Y22.274 E0.7623
G1 X-11.736 Y22.771 E0.0167
G1 X3.974 Y38.481 E0.7390
G1 X3.408 Y38.481 E0.0188
G1 X-11.805 Y23.268 E0.7156
G1 X-11.873 Y23.765 E0.0167
G1 X2.843 Y38.481 E0.6922
G1 X2.277 Y38.481 E0.0188
G1 X-11.942 Y24.262 E0.6688
G1 X-12.011 Y24.759 E0.0167
G1 X1.711 Y38.481 E0.6454
G1 X1.145 Y38.481 E0.0188
G1 X-12.079 Y25.256 E0.6220
G1 X-12.148 Y25.753 E0.0167
G1 X0.580 Y38.481 E0.5987
G1 X0.014 Y38.481 E0.0188
G1 X-12.216 Y26.250 E0.5753
G1 X-12.285 Y26.747 E0.0167
G1 X-0.552 Y38.481 E0.5519
G1 X-1.117 Y38.481 E0.0188
G1 X-12.354 Y27.244 E0.5285
G1 X-12.422 Y27.741 E0.0167
G1 X-1.683 Y38.481 E0.5051
G1 X-2.249 Y38.481 E0.0188
G1 X-12.491 Y28.238 E0.4818
G1 X-12.559 Y28.736 E0.0167
G1 X-2.814 Y38.481 E0.4584
G1 X-3.380 Y38.481 E0.0188
G1 X-12.628 Y29.233 E0.4350
G1 X-12.697 Y29.730 E0.0167
G1 X-3.946 Y38.481 E0.4116
G1 X-4.511 Y38.481 E0.0188
G1 X-12.765 Y30.227 E0.3882
G1 X-12.834 Y30.724 E0.0167
G1 X-5.077 Y38.481 E0.3649
G1 X-5.643 Y38.481 E0.0188
G1 X-12.903 Y31.221 E0.3415
G1 X-12.971 Y31.718 E0.0167
G1 X-6.208 Y38.481 E0.3181
G1 X-6.774 Y38.481 E0.0188
G1 X-13.040 Y32.215 E0.2947
G1 X-13.108 Y32.712 E0.0167
G1 X-7.340 Y38.481 E0.2713
G1 X-7.905 Y38.481 E0.0188
G1 X-13.177 Y33.209 E0.2480
G1 X-13.246 Y33.706 E0.0167
G1 X-8.471 Y38.481 E0.2246
G1 X-9.037 Y38.481 E0.0188
G1 X-13.314 Y34.203 E0.2012
G1 X-13.383 Y34.700 E0.0167
G1 X-9.603 Y38.481 E0.1778
G1 X-10.168 Y38.481 E0.0188
G1 X-13.451 Y35.197 E0.1544
G1 X-13.520 Y35.695 E0.0167
G1 X-10.734 Y38.481 E0.1311
G1 X-11.300 Y38.481 E0.0188
G1 X-13.589 Y36.192 E0.1077
G1 X-13.657 Y36.689 E0.0167
G1 X-11.865 Y38.481 E0.0843
G1 X-12.431 Y38.481 E0.0188
G1 X-13.726 Y37.186 E0.0609
G1 X-13.795 Y37.683 E0.0167
G1 X-12.997 Y38.481 E0.0375
G1 X-13.562 Y38.481 E0.0188
G1 X-13.863 Y38.180 E0.0141
; feature inner perimeter
G1 X-20.649 Y38.801 F9000
G1 X-49.191 Y38.801 E0.9493 F1800
G1 X-44.263 Y3.100 E1.1987
G1 X-25.577 Y3.100 E0.6215
G1 X-20.649 Y38.801 E1.1987
; feature outer perimeter
G1 X-20.190 Y39.201 F9000
G1 X-49.650 Y39.201 E0.9799 F1200
G1 X-44.612 Y2.700 E1.2255
G1 X-25.228 Y2.700 E0.6447
G1 X-20.190 Y39.201 E1.2255
G1 E-1.9000 F1200
; feature solid layer
G1 Z0.700 F1200
G1 X-48.635 Y38.481 F9000
G1 Z0.200 F1200
G1 E1.9000 F1200
G1 X-48.801 Y38.314 E0.0078 F2400
G1 X-48.732 Y37.817 E0.0167
G1 X-48.069 Y38.481 E0.0312
G1 X-47.503 Y38.481 E0.0188
G1 X-48.664 Y37.320 E0.0546
G1 X-48.595 Y36.823 E0.0167
G1 X-46.938 Y38.481 E0.0780
G1 X-46.372 Y38.481 E0.0188
G1 X-48.527 Y36.326 E0.1013
G1 X-48.458 Y35.829 E0.0167
G1 X-45.806 Y38.481 E0.1247
G1 X-45.241 Y38.481 E0.0188
G1 X-48.389 Y35.332 E0.1481
G1 X-48.321 Y34.835 E0.0167
G1 X-44.675 Y38.481 E0.1715
G1 X-44.109 Y38.481 E0.0188
G1 X-48.252 Y34.338 E0.1949
G1 X-48.184 Y33.841 E0.0167
G1 X-43.544 Y38.481 E0.2182
G1 X-42.978 Y38.481 E0.0188
G1 X-48.115 Y33.344 E0.2416
G1 X-48.046 Y32.847 E0.0167
G1 X-42.412 Y38.481 E0.2650
G1 X-41.847 Y38.481 E0.0188
G1 X-47.978 Y32.350 E0.2884
G1 X-47.909 Y31.853 E0.0167
G1 X-41.281 Y38.481 E0.3118
G1 X-40.715 Y38.481 E0.0188
G1 X-47.840 Y31.356 E0.3351
G1 X-47.772 Y30.858 E0.0167
G1 X-40.150 Y38.481 E0.3585
G1 X-39.584 Y38.481 E0.0188
G1 X-47.703 Y30.361 E0.3819
G1 X-47.635 Y29.864 E0.0167
G1 X-39.018 Y38.481 E0.4053
G1 X-38.452 Y38.481 E0.0188
G1 X-47.566 Y29.367 E0.4287
G1 X-47.497 Y28.870 E0.0167
G1 X-37.887 Y38.481 E0.4521
G1 X-37.321 Y38.481 E0.0188
G1 X-47.429 Y28.373 E0.4754
G1 X-47.360 Y27.876 E0.0167
G1 X-36.755 Y38.481 E0.4988
G1 X-36.190 Y38.481 E0.0188
G1 X-47.292 Y27.379 E0.5222
G1 X-47.223 Y26.882 E0.0167
G1 X-35.624 Y38.481 E0.5456
G1 X-35.058 Y38.481 E0.0188
G1 X-47.154 Y26.385 E0.5690
G1 X-47.086 Y25.888 E0.0167
G1 X-34.493 Y38.481 E0.5923
G1 X-33.927 Y38.481 E0.0188
G1 X-47.017 Y25.391 E0.6157
G1 X-46.948 Y24.894 E0.0167
G1 X-33.361 Y38.481 E0.6391
G1 X-32.796 Y38.481 E0.0188
G1 X-46.880 Y24.397 E0.6625
G1 X-46.811 Y23.899 E0.0167
G1 X-32.230 Y38.481 E0.6859
G1 X-31.664 Y38.481 E0.0188
G1 X-46.743 Y23.402 E0.7092
G1 X-46.674 Y22.905 E0.0167
G1 X-31.099 Y38.481 E0.7326
G1 X-30.533 Y38.481 E0.0188
G1 X-46.605 Y22.408 E0.7560
G1 X-46.537 Y21.911 E0.0167
G1 X-29.967 Y38.481 E0.7794
G1 X-29.402 Y38.481 E0.0188
G1 X-46.468 Y21.414 E0.8028
G1 X-46.400 Y20.917 E0.0167
G1 X-28.836 Y38.481 E0.8261
G1 X-28.270 Y38.481 E0.0188
G1 X-46.331 Y20.420 E0.8495
G1 X-46.262 Y19.923 E0.0167
G1 X-27.704 Y38.481 E0.8729
G1 X-27.139 Y38.481 E0.0188
