; G-Code generated by Simplify3D(R) Version 4.1.2
; May 5, 2020 at 10:23:26 AM
; Settings Summary
;   processName,Process1
;   applyToModels,GateCoverFront,GateCoverRear,GateCoverFront(2),GateCoverRear(2)
;   profileName,MakerBot Replicator 2 HBP (modified)
;   profileVersion,2020-04-21 14:45:34
;   baseProfile,MakerBot Replicator 2(2)
;   printMaterial,PLA
;   printQuality,Medium
;   printExtruders,
;   extruderName,Primary Extruder
;   extruderToolheadNumber,0
;   extruderDiameter,0.4
;   extruderAutoWidth,0
;   extruderWidth,0.4
;   extrusionMultiplier,1
;   extruderUseRetract,1
;   extruderRetractionDistance,1.9
;   extruderExtraRestartDistance,0
;   extruderRetractionZLift,0.5
;   extruderRetractionSpeed,1200
;   extruderUseCoasting,0
;   extruderCoastingDistance,0.2
;   extruderUseWipe,0
;   extruderWipeDistance,5
;   primaryExtruder,0
;   layerHeight,0.2
;   topSolidLayers,3
;   bottomSolidLayers,3
;   perimeterOutlines,2
;   printPerimetersInsideOut,1
;   startPointOption,3
;   startPointOriginX,140
;   startPointOriginY,0
;   sequentialIslands,0
;   spiralVaseMode,0
;   firstLayerHeightPercentage,100
;   firstLayerWidthPercentage,100
;   firstLayerUnderspeed,0.5
;   useRaft,0
;   raftExtruder,0
;   raftTopLayers,2
;   raftBaseLayers,1
;   raftOffset,1
;   raftSeparationDistance,0.14
;   raftTopInfill,90
;   aboveRaftSpeedMultiplier,0.3
;   useSkirt,0
;   skirtExtruder,0
;   skirtLayers,1
;   skirtOutlines,5
;   skirtOffset,0
;   usePrimePillar,0
;   primePillarExtruder,999
;   primePillarWidth,12
;   primePillarLocation,7
;   primePillarSpeedMultiplier,1
;   useOozeShield,0
;   oozeShieldExtruder,999
;   oozeShieldOffset,2
;   oozeShieldOutlines,1
;   oozeShieldSidewallShape,1
;   oozeShieldSidewallAngle,30
;   oozeShieldSpeedMultiplier,1
;   infillExtruder,0
;   internalInfillPattern,Rectilinear
;   externalInfillPattern,Rectilinear
;   infillPercentage,15
;   outlineOverlapPercentage,20
;   infillExtrusionWidthPercentage,100
;   minInfillLength,5
;   infillLayerInterval,1
;   internalInfillAngles,45,-45
;   overlapInternalInfillAngles,0
;   externalInfillAngles,45,-45
;   generateSupport,1
;   supportExtruder,0
;   supportInfillPercentage,30
;   supportExtraInflation,0.6
;   supportBaseLayers,0
;   denseSupportExtruder,0
;   denseSupportLayers,2
;   denseSupportInfillPercentage,70
;   supportLayerInterval,1
;   supportHorizontalPartOffset,0.3
;   supportUpperSeparationLayers,1
;   supportLowerSeparationLayers,1
;   supportType,0
;   supportGridSpacing,99
;   maxOverhangAngle,45
;   supportAngles,0
;   temperatureName,Primary Extruder,Heated Build Platform
;   temperatureNumber,0,0
;   temperatureSetpointCount,1,1
;   temperatureSetpointLayers,1,1
;   temperatureSetpointTemperatures,230,65
;   temperatureStabilizeAtStartup,1,1
;   temperatureHeatedBed,0,1
;   fanLayers,1,2
;   fanSpeeds,0,100
;   blipFanToFullPower,1
;   adjustSpeedForCooling,1
;   minSpeedLayerTime,15
;   minCoolingSpeedSlowdown,20
;   increaseFanForCooling,1
;   minFanLayerTime,45
;   maxCoolingFanSpeed,100
;   increaseFanForBridging,1
;   bridgingFanSpeed,100
;   use5D,1
;   relativeEdistances,1
;   allowEaxisZeroing,0
;   independentExtruderAxes,1
;   includeM10123,0
;   stickySupport,1
;   applyToolheadOffsets,0
;   gcodeXoffset,0
;   gcodeYoffset,0
;   gcodeZoffset,0
;   overrideMachineDefinition,1
;   machineTypeOverride,0
;   strokeXoverride,280
;   strokeYoverride,150
;   strokeZoverride,150
;   originOffsetXoverride,140
;   originOffsetYoverride,75
;   originOffsetZoverride,0
;   homeXdirOverride,1
;   homeYdirOverride,1
;   homeZdirOverride,-1
;   flipXoverride,1
;   flipYoverride,-1
;   flipZoverride,1
;   toolheadOffsets,0,0|0,0|0,0|0,0|0,0|0,0
;   overrideFirmwareConfiguration,1
;   firmwareTypeOverride,MakerBot/Sailfish Firmware
;   GPXconfigOverride,r2h
;   baudRateOverride,115200
;   overridePrinterModels,1
;   printerModelsOverride,MakerBot_Replicator2.stl
;   startingGcode,; **** Replicator 2 start.gcode ****,M73 P0 ; enable build progress,G162 X Y F3000 ; home XY maximum,G161 Z F1200 ; home Z minimum,G92 Z-5 ; set Z to -5,G1 Z0 ; move Z to 0,G28 ; better homing homie,M132 X Y Z A B ; recall home offsets,G1 X-145 Y-75 Z30 F9000 ; move to wait position off table,G130 X20 Y20 Z20 A20 B20 ; lower stepper Vrefs while heating,M126 S[fan_speed_pwm],M140 S[bed0_temperature] T0,M134 T0 ; stabilize bed temperature,M104 S[extruder0_temperature] T0,M133 T0 ; stabilize extruder temperature,G130 X127 Y127 Z40 A127 B127 ; default stepper Vrefs,G92 A0 ; zero extruder,G1 Z0.4 ; position nozzle,G1 E25 F300 ; purge nozzle,G1 X-140 Y-70 Z0.15 F1200 ; slow wipe,G1 X-135 Y-65 Z0.5 F1200 ; lift,G92 A0 ; zero extruder,M73 P1 ;@body (notify GPX body has started),; **** end of start.gcode ****
;   layerChangeGcode,
;   retractionGcode,
;   toolChangeGcode,
;   endingGcode,; **** Replicator 2 end.gcode ****,M73 P100 ; end build progress,G1 Z155 F1000 ; send Z axis to bottom of machine,M104 S0 T0 ; cool down extruder,M140 S0 T0 ; cool down HBP,M127 ; stop blower fan,G162 X Y F3000 ; home XY maximum,M18 ; disable stepper,M0 ; stop codes,M72 P1 ; play Ta-Da song,; **** end of end.gcode ****
;   exportFileFormat,gcode
;   celebration,0
;   celebrationSong,Random Song
;   postProcessing,
;   defaultSpeed,4800
;   outlineUnderspeed,0.5
;   solidInfillUnderspeed,1
;   supportUnderspeed,1
;   rapidXYspeed,9000
;   rapidZspeed,1200
;   minBridgingArea,50
;   bridgingExtraInflation,0
;   bridgingExtrusionMultiplier,1
;   bridgingSpeedMultiplier,0.8
;   useFixedBridgingAngle,0
;   fixedBridgingAngle,0
;   applyBridgingToPerimeters,0
;   filamentDiameters,1.75|1.75|1.75|1.75|1.75|1.75
;   filamentPricesPerKg,46|46|46|46|46|46
;   filamentDensities,1.25|1.25|1.25|1.25|1.25|1.25
;   useMinPrintHeight,0
;   minPrintHeight,0
;   useMaxPrintHeight,0
;   maxPrintHeight,4.84
;   useDiaphragm,0
;   diaphragmLayerInterval,20
;   robustSlicing,1
;   mergeAllIntoSolid,0
;   onlyRetractWhenCrossingOutline,0
;   retractBetweenLayers,0
;   useRetractionMinTravel,1
;   retractionMinTravel,7
;   retractWhileWiping,1
;   onlyWipeOutlines,1
;   avoidCrossingOutline,0
;   maxMovementDetourFactor,3
;   toolChangeRetractionDistance,12
;   toolChangeExtraRestartDistance,-0.5
;   toolChangeRetractionSpeed,600
;   externalThinWallType,0
;   internalThinWallType,0
;   thinWallAllowedOverlapPercentage,10
;   singleExtrusionMinLength,1
;   singleExtrusionMinPrintingWidthPercentage,50
;   singleExtrusionMaxPrintingWidthPercentage,200
;   singleExtrusionEndpointExtension,0.2
;   horizontalSizeCompensation,0
G90
M83
; **** Replicator 2 start.gcode ****
M73 P0 ; enable build progress
G162 X Y F3000 ; home XY maximum
G161 Z F1200 ; home Z minimum
G92 Z-5 ; set Z to -5
G1 Z0 ; move Z to 0
G28 ; better homing homie
M132 X Y Z A B ; recall home offsets
G1 X-145 Y-75 Z30 F9000 ; move to wait position off table
G130 X20 Y20 Z20 A20 B20 ; lower stepper Vrefs while heating
M127
M140 S65 T0
M134 T0 ; stabilize bed temperature
M104 S230 T0
M133 T0 ; stabilize extruder temperature
G130 X127 Y127 Z40 A127 B127 ; default stepper Vrefs
G92 A0 ; zero extruder
G1 Z0.4 ; position nozzle
G1 E25 F300 ; purge nozzle
G1 X-140 Y-70 Z0.15 F1200 ; slow wipe
G1 X-135 Y-65 Z0.5 F1200 ; lift
G92 A0 ; zero extruder
M73 P1 ;@body (notify GPX body has started)
; **** end of start.gcode ****
; process Process1
; layer 1, Z = 0.200
M135 T0
G1 E-1.9000 F1200
; feature inner perimeter
; tool H0.200 W0.400
G1 Z0.500 F1200
G1 X14.272 Y-3.100 F9000
G1 Z0.200 F1200
G1 E1.9000 F1200
G1 X-14.271 Y-3.100 E0.9493 F1800
G1 X-9.343 Y-38.801 E1.1987
G1 X9.343 Y-38.801 E0.6215
G1 X14.272 Y-3.100 E1.1987
; feature outer perimeter
G1 X14.731 Y-2.700 F9000
G1 X-14.730 Y-2.700 E0.9799 F1200
G1 X-9.692 Y-39.201 E1.2255
G1 X9.692 Y-39.201 E0.6447
G1 X14.731 Y-2.700 E1.2255
G1 E-1.9000 F1200
; feature solid layer
G1 Z0.700 F1200
G1 X-13.602 Y-3.420 F9000
G1 Z0.200 F1200
G1 E1.9000 F1200
G1 X-13.867 Y-3.685 E0.0125 F2400
G1 X-13.799 Y-4.182 E0.0167
G1 X-13.036 Y-3.420 E0.0359
G1 X-12.471 Y-3.420 E0.0188
G1 X-13.730 Y-4.679 E0.0592
G1 X-13.661 Y-5.176 E0.0167
G1 X-11.905 Y-3.420 E0.0826
G1 X-11.339 Y-3.420 E0.0188
G1 X-13.593 Y-5.673 E0.1060
G1 X-13.524 Y-6.170 E0.0167
G1 X-10.774 Y-3.420 E0.1294
G1 X-10.208 Y-3.420 E0.0188
G1 X-13.456 Y-6.667 E0.1528
G1 X-13.387 Y-7.164 E0.0167
G1 X-9.642 Y-3.420 E0.1761
G1 X-9.077 Y-3.420 E0.0188
G1 X-13.318 Y-7.662 E0.1995
G1 X-13.250 Y-8.159 E0.0167
G1 X-8.511 Y-3.420 E0.2229
G1 X-7.945 Y-3.420 E0.0188
G1 X-13.181 Y-8.656 E0.2463
G1 X-13.113 Y-9.153 E0.0167
G1 X-7.380 Y-3.420 E0.2697
G1 X-6.814 Y-3.420 E0.0188
G1 X-13.044 Y-9.650 E0.2930
G1 X-12.975 Y-10.147 E0.0167
G1 X-6.248 Y-3.420 E0.3164
G1 X-5.683 Y-3.420 E0.0188
G1 X-12.907 Y-10.644 E0.3398
G1 X-12.838 Y-11.141 E0.0167
G1 X-5.117 Y-3.420 E0.3632
G1 X-4.551 Y-3.420 E0.0188
G1 X-12.769 Y-11.638 E0.3866
G1 X-12.701 Y-12.135 E0.0167
G1 X-3.985 Y-3.420 E0.4099
G1 X-3.420 Y-3.420 E0.0188
G1 X-12.632 Y-12.632 E0.4333
G1 X-12.564 Y-13.129 E0.0167
G1 X-2.854 Y-3.420 E0.4567
G1 X-2.288 Y-3.420 E0.0188
G1 X-12.495 Y-13.626 E0.4801
G1 X-12.426 Y-14.123 E0.0167
G1 X-1.723 Y-3.420 E0.5035
G1 X-1.157 Y-3.420 E0.0188
G1 X-12.358 Y-14.621 E0.5268
G1 X-12.289 Y-15.118 E0.0167
G1 X-0.591 Y-3.420 E0.5502
G1 X-0.026 Y-3.420 E0.0188
G1 X-12.221 Y-15.615 E0.5736
G1 X-12.152 Y-16.112 E0.0167
G1 X0.540 Y-3.420 E0.5970
G1 X1.106 Y-3.420 E0.0188
G1 X-12.083 Y-16.609 E0.6204
G1 X-12.015 Y-17.106 E0.0167
G1 X1.671 Y-3.420 E0.6438
G1 X2.237 Y-3.420 E0.0188
G1 X-11.946 Y-17.603 E0.6671
G1 X-11.877 Y-18.100 E0.0167
G1 X2.803 Y-3.420 E0.6905
G1 X3.368 Y-3.420 E0.0188
G1 X-11.809 Y-18.597 E0.7139
G1 X-11.740 Y-19.094 E0.0167
G1 X3.934 Y-3.420 E0.7373
G1 X4.500 Y-3.420 E0.0188
G1 X-11.672 Y-19.591 E0.7607
G1 X-11.603 Y-20.088 E0.0167
G1 X5.066 Y-3.420 E0.7840
G1 X5.631 Y-3.420 E0.0188
G1 X-11.534 Y-20.585 E0.8074
G1 X-11.466 Y-21.082 E0.0167
G1 X6.197 Y-3.420 E0.8308
G1 X6.763 Y-3.420 E0.0188
G1 X-11.397 Y-21.580 E0.8542
G1 X-11.329 Y-22.077 E0.0167
G1 X7.328 Y-3.420 E0.8776
G1 X7.894 Y-3.420 E0.0188
G1 X-11.260 Y-22.574 E0.9009
G1 X-11.191 Y-23.071 E0.0167
G1 X8.460 Y-3.420 E0.9243
G1 X9.025 Y-3.420 E0.0188
G1 X-11.123 Y-23.568 E0.9477
G1 X-11.054 Y-24.065 E0.0167
G1 X9.591 Y-3.420 E0.9711
G1 X10.157 Y-3.420 E0.0188
G1 X-10.985 Y-24.562 E0.9945
G1 X-10.917 Y-25.059 E0.0167
G1 X10.722 Y-3.420 E1.0178
G1 X11.288 Y-3.420 E0.0188
G1 X-10.848 Y-25.556 E1.0412
G1 X-10.780 Y-26.053 E0.0167
G1 X11.854 Y-3.420 E1.0646
G1 X12.419 Y-3.420 E0.0188
G1 X-10.711 Y-26.550 E1.0880
G1 X-10.642 Y-27.047 E0.0167
G1 X12.985 Y-3.420 E1.1114
G1 X13.551 Y-3.420 E0.0188
G1 X-10.574 Y-27.544 E1.1347
G1 X-10.505 Y-28.041 E0.0167
G1 X13.870 Y-3.666 E1.1465
G1 X13.780 Y-4.322 E0.0220
G1 X-10.437 Y-28.539 E1.1391
G1 X-10.368 Y-29.036 E0.0167
G1 X13.689 Y-4.978 E1.1316
G1 X13.599 Y-5.635 E0.0220
G1 X-10.299 Y-29.533 E1.1241
G1 X-10.231 Y-30.030 E0.0167
G1 X13.508 Y-6.291 E1.1166
G1 X13.417 Y-6.947 E0.0220
G1 X-10.162 Y-30.527 E1.1091
G1 X-10.094 Y-31.024 E0.0167
G1 X13.327 Y-7.604 E1.1016
G1 X13.236 Y-8.260 E0.0220
G1 X-10.025 Y-31.521 E1.0941
G1 X-9.956 Y-32.018 E0.0167
G1 X13.146 Y-8.916 E1.0866
G1 X13.055 Y-9.572 E0.0220
G1 X-9.888 Y-32.515 E1.0792
G1 X-9.819 Y-33.012 E0.0167
G1 X12.964 Y-10.229 E1.0717
G1 X12.874 Y-10.885 E0.0220
G1 X-9.750 Y-33.509 E1.0642
G1 X-9.682 Y-34.006 E0.0167
G1 X12.783 Y-11.541 E1.0567
G1 X12.693 Y-12.198 E0.0220
G1 X-9.613 Y-34.503 E1.0492
G1 X-9.545 Y-35.000 E0.0167
G1 X12.602 Y-12.854 E1.0417
G1 X12.511 Y-13.510 E0.0220
G1 X-9.476 Y-35.498 E1.0342
G1 X-9.407 Y-35.995 E0.0167
G1 X12.421 Y-14.166 E1.0267
G1 X12.330 Y-14.823 E0.0220
G1 X-9.339 Y-36.492 E1.0192
G1 X-9.270 Y-36.989 E0.0167
G1 X12.240 Y-15.479 E1.0118
G1 X12.149 Y-16.135 E0.0220
G1 X-9.202 Y-37.486 E1.0043
G1 X-9.133 Y-37.983 E0.0167
G1 X12.058 Y-16.791 E0.9968
G1 X11.968 Y-17.448 E0.0220
G1 X-9.064 Y-38.480 E0.9893
G1 X-8.499 Y-38.481 E0.0188
G1 X11.877 Y-18.104 E0.9585
G1 X11.787 Y-18.760 E0.0220
G1 X-7.934 Y-38.481 E0.9276
G1 X-7.368 Y-38.481 E0.0188
G1 X11.696 Y-19.417 E0.8967
G1 X11.606 Y-20.073 E0.0220
G1 X-6.802 Y-38.481 E0.8658
G1 X-6.237 Y-38.481 E0.0188
G1 X11.515 Y-20.729 E0.8350
G1 X11.424 Y-21.385 E0.0220
G1 X-5.671 Y-38.481 E0.8041
G1 X-5.105 Y-38.481 E0.0188
G1 X11.334 Y-22.042 E0.7732
G1 X11.243 Y-22.698 E0.0220
G1 X-4.540 Y-38.481 E0.7424
G1 X-3.974 Y-38.481 E0.0188
G1 X11.153 Y-23.354 E0.7115
G1 X11.062 Y-24.011 E0.0220
G1 X-3.408 Y-38.481 E0.6806
G1 X-2.843 Y-38.481 E0.0188
G1 X10.971 Y-24.667 E0.6498
G1 X10.881 Y-25.323 E0.0220
G1 X-2.277 Y-38.481 E0.6189
G1 X-1.711 Y-38.481 E0.0188
G1 X10.790 Y-25.979 E0.5880
G1 X10.700 Y-26.636 E0.0220
G1 X-1.145 Y-38.481 E0.5572
G1 X-0.580 Y-38.481 E0.0188
G1 X10.609 Y-27.292 E0.5263
G1 X10.518 Y-27.948 E0.0220
G1 X-0.014 Y-38.481 E0.4954
G1 X0.552 Y-38.481 E0.0188
G1 X10.428 Y-28.604 E0.4645
G1 X10.337 Y-29.261 E0.0220
G1 X1.117 Y-38.481 E0.4337
G1 X1.683 Y-38.481 E0.0188
G1 X10.247 Y-29.917 E0.4028
G1 X10.156 Y-30.573 E0.0220
G1 X2.249 Y-38.481 E0.3719
G1 X2.814 Y-38.481 E0.0188
G1 X10.065 Y-31.230 E0.3411
G1 X9.975 Y-31.886 E0.0220
G1 X3.380 Y-38.481 E0.3102
G1 X3.946 Y-38.481 E0.0188
G1 X9.884 Y-32.542 E0.2793
G1 X9.794 Y-33.198 E0.0220
G1 X4.511 Y-38.481 E0.2485
G1 X5.077 Y-38.481 E0.0188
G1 X9.703 Y-33.855 E0.2176
G1 X9.613 Y-34.511 E0.0220
G1 X5.643 Y-38.481 E0.1867
G1 X6.208 Y-38.481 E0.0188
G1 X9.522 Y-35.167 E0.1559
G1 X9.431 Y-35.823 E0.0220
G1 X6.774 Y-38.481 E0.1250
G1 X7.340 Y-38.481 E0.0188
G1 X9.341 Y-36.480 E0.0941
G1 X9.250 Y-37.136 E0.0220
G1 X7.905 Y-38.481 E0.0632
G1 X8.471 Y-38.481 E0.0188
G1 X9.160 Y-37.792 E0.0324
G1 X9.069 Y-38.449 E0.0220
G1 X9.037 Y-38.481 E0.0015
G1 E-1.9000 F1200
; feature inner perimeter
G1 Z0.700 F1200
G1 X49.191 Y-3.100 F9000
G1 Z0.200 F1200
G1 E1.9000 F1200
G1 X20.649 Y-3.100 E0.9493 F1800
G1 X25.577 Y-38.801 E1.1987
G1 X44.263 Y-38.801 E0.6215
G1 X49.191 Y-3.100 E1.1987
; feature outer perimeter
G1 X49.650 Y-2.700 F9000
G1 X20.190 Y-2.700 E0.9799 F1200
G1 X25.228 Y-39.201 E1.2255
G1 X44.611 Y-39.201 E0.6447
G1 X49.650 Y-2.700 E1.2255
G1 E-1.9000 F1200
; feature solid layer
G1 Z0.700 F1200
G1 X21.071 Y-3.819 F9000
G1 Z0.200 F1200
G1 E1.9000 F1200
G1 X21.470 Y-3.420 E0.0188 F2400
G1 X22.036 Y-3.420 E0.0188
G1 X21.139 Y-4.316 E0.0422
G1 X21.208 Y-4.813 E0.0167
G1 X22.601 Y-3.420 E0.0655
G1 X23.167 Y-3.420 E0.0188
G1 X21.277 Y-5.311 E0.0889
G1 X21.345 Y-5.808 E0.0167
G1 X23.733 Y-3.420 E0.1123
G1 X24.298 Y-3.420 E0.0188
G1 X21.414 Y-6.305 E0.1357
G1 X21.483 Y-6.802 E0.0167
G1 X24.864 Y-3.420 E0.1591
G1 X25.430 Y-3.420 E0.0188
G1 X21.551 Y-7.299 E0.1824
G1 X21.620 Y-7.796 E0.0167
G1 X25.995 Y-3.420 E0.2058
G1 X26.561 Y-3.420 E0.0188
G1 X21.688 Y-8.293 E0.2292
G1 X21.757 Y-8.790 E0.0167
G1 X27.127 Y-3.420 E0.2526
G1 X27.692 Y-3.420 E0.0188
G1 X21.826 Y-9.287 E0.2760
G1 X21.894 Y-9.784 E0.0167
G1 X28.258 Y-3.420 E0.2993
G1 X28.824 Y-3.420 E0.0188
G1 X21.963 Y-10.281 E0.3227
G1 X22.031 Y-10.778 E0.0167
G1 X29.390 Y-3.420 E0.3461
G1 X29.955 Y-3.420 E0.0188
G1 X22.100 Y-11.275 E0.3695
G1 X22.169 Y-11.772 E0.0167
G1 X30.521 Y-3.420 E0.3929
G1 X31.087 Y-3.420 E0.0188
G1 X22.237 Y-12.270 E0.4162
G1 X22.306 Y-12.767 E0.0167
G1 X31.652 Y-3.420 E0.4396
G1 X32.218 Y-3.420 E0.0188
G1 X22.375 Y-13.264 E0.4630
G1 X22.443 Y-13.761 E0.0167
G1 X32.784 Y-3.420 E0.4864
G1 X33.349 Y-3.420 E0.0188
G1 X22.512 Y-14.258 E0.5098
G1 X22.580 Y-14.755 E0.0167
G1 X33.915 Y-3.420 E0.5331
G1 X34.481 Y-3.420 E0.0188
G1 X22.649 Y-15.252 E0.5565
G1 X22.718 Y-15.749 E0.0167
G1 X35.046 Y-3.420 E0.5799
G1 X35.612 Y-3.420 E0.0188
G1 X22.786 Y-16.246 E0.6033
G1 X22.855 Y-16.743 E0.0167
G1 X36.178 Y-3.420 E0.6267
G1 X36.743 Y-3.420 E0.0188
G1 X22.923 Y-17.240 E0.6501
G1 X22.992 Y-17.737 E0.0167
G1 X37.309 Y-3.420 E0.6734
G1 X37.875 Y-3.420 E0.0188
G1 X23.061 Y-18.234 E0.6968
G1 X23.129 Y-18.731 E0.0167
G1 X38.441 Y-3.420 E0.7202
G1 X39.006 Y-3.420 E0.0188
G1 X23.198 Y-19.229 E0.7436
G1 X23.267 Y-19.726 E0.0167
G1 X39.572 Y-3.420 E0.7670
G1 X40.138 Y-3.420 E0.0188
G1 X23.335 Y-20.223 E0.7903
G1 X23.404 Y-20.720 E0.0167
