; G-Code generated by Simplify3D(R) Version 4.1.2
; Jun 25, 2020 at 11:18:31 AM
; Settings Summary
;   processName,Process1
;   applyToModels,MasherSmall,MasherSmall(2),MasherSmall(3),MasherSmall(4),MasherSmall(5),MasherSmall(6),MasherSmall(7),MasherSmall(2)(2),MasherSmall(3)(2),MasherSmall(4)(2),MasherSmall(5)(2),MasherSmall(6)(2)
;   profileName,MakerBot Replicator 2 HBP (modified)
;   profileVersion,2020-04-21 14:45:34
;   baseProfile,MakerBot Replicator 2(2)
;   printMaterial,PLA
;   printQuality,Medium
;   printExtruders,
;   extruderName,Primary Extruder
;   extruderToolheadNumber,0
;   extruderDiameter,0.4
;   extruderAutoWidth,0
;   extruderWidth,0.4
;   extrusionMultiplier,1
;   extruderUseRetract,1
;   extruderRetractionDistance,1.9
;   extruderExtraRestartDistance,0
;   extruderRetractionZLift,0.5
;   extruderRetractionSpeed,1200
;   extruderUseCoasting,0
;   extruderCoastingDistance,0.2
;   extruderUseWipe,0
;   extruderWipeDistance,5
;   primaryExtruder,0
;   layerHeight,0.2
;   topSolidLayers,4
;   bottomSolidLayers,3
;   perimeterOutlines,2
;   printPerimetersInsideOut,1
;   startPointOption,3
;   startPointOriginX,140
;   startPointOriginY,0
;   sequentialIslands,0
;   spiralVaseMode,0
;   firstLayerHeightPercentage,100
;   firstLayerWidthPercentage,100
;   firstLayerUnderspeed,0.5
;   useRaft,0
;   raftExtruder,0
;   raftTopLayers,2
;   raftBaseLayers,1
;   raftOffset,1
;   raftSeparationDistance,0.14
;   raftTopInfill,90
;   aboveRaftSpeedMultiplier,0.3
;   useSkirt,0
;   skirtExtruder,0
;   skirtLayers,1
;   skirtOutlines,5
;   skirtOffset,0
;   usePrimePillar,0
;   primePillarExtruder,999
;   primePillarWidth,12
;   primePillarLocation,7
;   primePillarSpeedMultiplier,1
;   useOozeShield,0
;   oozeShieldExtruder,999
;   oozeShieldOffset,2
;   oozeShieldOutlines,1
;   oozeShieldSidewallShape,1
;   oozeShieldSidewallAngle,30
;   oozeShieldSpeedMultiplier,1
;   infillExtruder,0
;   internalInfillPattern,Rectilinear
;   externalInfillPattern,Rectilinear
;   infillPercentage,15
;   outlineOverlapPercentage,20
;   infillExtrusionWidthPercentage,100
;   minInfillLength,5
;   infillLayerInterval,1
;   internalInfillAngles,45,-45
;   overlapInternalInfillAngles,0
;   externalInfillAngles,45,-45
;   generateSupport,1
;   supportExtruder,0
;   supportInfillPercentage,30
;   supportExtraInflation,0.6
;   supportBaseLayers,0
;   denseSupportExtruder,0
;   denseSupportLayers,2
;   denseSupportInfillPercentage,70
;   supportLayerInterval,1
;   supportHorizontalPartOffset,0.3
;   supportUpperSeparationLayers,1
;   supportLowerSeparationLayers,1
;   supportType,0
;   supportGridSpacing,99
;   maxOverhangAngle,45
;   supportAngles,0
;   temperatureName,Primary Extruder,Heated Build Platform
;   temperatureNumber,0,0
;   temperatureSetpointCount,1,1
;   temperatureSetpointLayers,1,1
;   temperatureSetpointTemperatures,210,65
;   temperatureStabilizeAtStartup,1,1
;   temperatureHeatedBed,0,1
;   fanLayers,1,2
;   fanSpeeds,0,100
;   blipFanToFullPower,1
;   adjustSpeedForCooling,1
;   minSpeedLayerTime,15
;   minCoolingSpeedSlowdown,20
;   increaseFanForCooling,1
;   minFanLayerTime,45
;   maxCoolingFanSpeed,100
;   increaseFanForBridging,1
;   bridgingFanSpeed,100
;   use5D,1
;   relativeEdistances,1
;   allowEaxisZeroing,0
;   independentExtruderAxes,1
;   includeM10123,0
;   stickySupport,1
;   applyToolheadOffsets,0
;   gcodeXoffset,0
;   gcodeYoffset,0
;   gcodeZoffset,0
;   overrideMachineDefinition,1
;   machineTypeOverride,0
;   strokeXoverride,280
;   strokeYoverride,150
;   strokeZoverride,150
;   originOffsetXoverride,140
;   originOffsetYoverride,75
;   originOffsetZoverride,0
;   homeXdirOverride,1
;   homeYdirOverride,1
;   homeZdirOverride,-1
;   flipXoverride,1
;   flipYoverride,-1
;   flipZoverride,1
;   toolheadOffsets,0,0|0,0|0,0|0,0|0,0|0,0
;   overrideFirmwareConfiguration,1
;   firmwareTypeOverride,MakerBot/Sailfish Firmware
;   GPXconfigOverride,r2h
;   baudRateOverride,115200
;   overridePrinterModels,1
;   printerModelsOverride,MakerBot_Replicator2.stl
;   startingGcode,; **** Replicator 2 start.gcode ****,M73 P0 ; enable build progress,G162 X Y F3000 ; home XY maximum,G161 Z F1200 ; home Z minimum,G92 Z-5 ; set Z to -5,G1 Z0 ; move Z to 0,G28 ; better homing homie,M132 X Y Z A B ; recall home offsets,G1 X-145 Y-75 Z30 F9000 ; move to wait position off table,G130 X20 Y20 Z20 A20 B20 ; lower stepper Vrefs while heating,M126 S[fan_speed_pwm],M140 S[bed0_temperature] T0,M134 T0 ; stabilize bed temperature,M104 S[extruder0_temperature] T0,M133 T0 ; stabilize extruder temperature,G130 X127 Y127 Z40 A127 B127 ; default stepper Vrefs,G92 A0 ; zero extruder,G1 Z0.4 ; position nozzle,G1 E25 F300 ; purge nozzle,G1 X-140 Y-70 Z0.15 F1200 ; slow wipe,G1 X-135 Y-65 Z0.5 F1200 ; lift,G92 A0 ; zero extruder,M73 P1 ;@body (notify GPX body has started),; **** end of start.gcode ****
;   layerChangeGcode,
;   retractionGcode,
;   toolChangeGcode,
;   endingGcode,; **** Replicator 2 end.gcode ****,M73 P100 ; end build progress,G1 Z155 F1000 ; send Z axis to bottom of machine,M104 S0 T0 ; cool down extruder,M140 S0 T0 ; cool down HBP,M127 ; stop blower fan,G162 X Y F3000 ; home XY maximum,M18 ; disable stepper,M0 ; stop codes,M72 P1 ; play Ta-Da song,; **** end of end.gcode ****
;   exportFileFormat,gcode
;   celebration,0
;   celebrationSong,Random Song
;   postProcessing,
;   defaultSpeed,4800
;   outlineUnderspeed,0.5
;   solidInfillUnderspeed,1
;   supportUnderspeed,1
;   rapidXYspeed,9000
;   rapidZspeed,1200
;   minBridgingArea,50
;   bridgingExtraInflation,0
;   bridgingExtrusionMultiplier,1
;   bridgingSpeedMultiplier,0.8
;   useFixedBridgingAngle,0
;   fixedBridgingAngle,0
;   applyBridgingToPerimeters,0
;   filamentDiameters,1.75|1.75|1.75|1.75|1.75|1.75
;   filamentPricesPerKg,46|46|46|46|46|46
;   filamentDensities,1.25|1.25|1.25|1.25|1.25|1.25
;   useMinPrintHeight,0
;   minPrintHeight,0
;   useMaxPrintHeight,0
;   maxPrintHeight,4.84
;   useDiaphragm,0
;   diaphragmLayerInterval,20
;   robustSlicing,1
;   mergeAllIntoSolid,0
;   onlyRetractWhenCrossingOutline,0
;   retractBetweenLayers,0
;   useRetractionMinTravel,1
;   retractionMinTravel,7
;   retractWhileWiping,1
;   onlyWipeOutlines,1
;   avoidCrossingOutline,0
;   maxMovementDetourFactor,3
;   toolChangeRetractionDistance,12
;   toolChangeExtraRestartDistance,-0.5
;   toolChangeRetractionSpeed,600
;   externalThinWallType,0
;   internalThinWallType,0
;   thinWallAllowedOverlapPercentage,10
;   singleExtrusionMinLength,1
;   singleExtrusionMinPrintingWidthPercentage,50
;   singleExtrusionMaxPrintingWidthPercentage,200
;   singleExtrusionEndpointExtension,0.2
;   horizontalSizeCompensation,0
G90
M83
; **** Replicator 2 start.gcode ****
M73 P0 ; enable build progress
G162 X Y F3000 ; home XY maximum
G161 Z F1200 ; home Z minimum
G92 Z-5 ; set Z to -5
G1 Z0 ; move Z to 0
G28 ; better homing homie
M132 X Y Z A B ; recall home offsets
G1 X-145 Y-75 Z30 F9000 ; move to wait position off table
G130 X20 Y20 Z20 A20 B20 ; lower stepper Vrefs while heating
M127
M140 S65 T0
M134 T0 ; stabilize bed temperature
M104 S210 T0
M133 T0 ; stabilize extruder temperature
G130 X127 Y127 Z40 A127 B127 ; default stepper Vrefs
G92 A0 ; zero extruder
G1 Z0.4 ; position nozzle
G1 E25 F300 ; purge nozzle
G1 X-140 Y-70 Z0.15 F1200 ; slow wipe
G1 X-135 Y-65 Z0.5 F1200 ; lift
G92 A0 ; zero extruder
M73 P1 ;@body (notify GPX body has started)
; **** end of start.gcode ****
; process Process1
; layer 1, Z = 0.200
M135 T0
G1 E-1.9000 F1200
; feature inner perimeter
; tool H0.200 W0.400
G1 Z0.500 F1200
G1 X10.500 Y-0.000 F9000
G1 Z0.200 F1200
G1 E1.9000 F1200
G1 X10.487 Y0.515 E0.0171 F1800
G1 X10.449 Y1.029 E0.0171
G1 X10.386 Y1.541 E0.0171
G1 X10.298 Y2.049 E0.0171
G1 X10.185 Y2.551 E0.0171
G1 X10.048 Y3.048 E0.0171
G1 X9.886 Y3.537 E0.0171
G1 X9.701 Y4.018 E0.0171
G1 X9.492 Y4.489 E0.0171
G1 X9.260 Y4.950 E0.0171
G1 X9.006 Y5.398 E0.0171
G1 X8.730 Y5.833 E0.0171
G1 X8.433 Y6.255 E0.0171
G1 X8.117 Y6.661 E0.0171
G1 X7.780 Y7.051 E0.0171
G1 X7.424 Y7.425 E0.0171
G1 X7.051 Y7.780 E0.0171
G1 X6.661 Y8.116 E0.0171
G1 X6.255 Y8.434 E0.0171
G1 X5.833 Y8.730 E0.0171
G1 X5.398 Y9.006 E0.0171
G1 X4.950 Y9.260 E0.0171
G1 X4.489 Y9.492 E0.0171
G1 X4.018 Y9.701 E0.0171
G1 X3.537 Y9.886 E0.0171
G1 X3.048 Y10.048 E0.0171
G1 X2.551 Y10.185 E0.0172
G1 X2.049 Y10.298 E0.0171
G1 X1.541 Y10.386 E0.0171
G1 X1.029 Y10.449 E0.0171
G1 X0.515 Y10.487 E0.0171
G1 X0.000 Y10.500 E0.0171
G1 X-0.515 Y10.487 E0.0171
G1 X-1.029 Y10.449 E0.0171
G1 X-1.541 Y10.386 E0.0171
G1 X-2.049 Y10.298 E0.0171
G1 X-2.551 Y10.185 E0.0171
G1 X-3.048 Y10.048 E0.0171
G1 X-3.537 Y9.886 E0.0171
G1 X-4.018 Y9.701 E0.0171
G1 X-4.489 Y9.492 E0.0171
G1 X-4.950 Y9.260 E0.0171
G1 X-5.398 Y9.006 E0.0171
G1 X-5.833 Y8.730 E0.0171
G1 X-6.255 Y8.434 E0.0171
G1 X-6.661 Y8.116 E0.0171
G1 X-7.051 Y7.780 E0.0171
G1 X-7.425 Y7.424 E0.0172
G1 X-7.780 Y7.051 E0.0171
G1 X-8.116 Y6.661 E0.0171
G1 X-8.434 Y6.255 E0.0171
G1 X-8.730 Y5.833 E0.0171
G1 X-9.006 Y5.398 E0.0171
G1 X-9.260 Y4.949 E0.0171
G1 X-9.492 Y4.489 E0.0171
G1 X-9.700 Y4.018 E0.0171
G1 X-9.886 Y3.537 E0.0171
G1 X-10.048 Y3.048 E0.0171
G1 X-10.185 Y2.551 E0.0171
G1 X-10.298 Y2.049 E0.0171
G1 X-10.386 Y1.541 E0.0171
G1 X-10.449 Y1.029 E0.0171
G1 X-10.487 Y0.515 E0.0171
G1 X-10.500 Y-0.000 E0.0171
G1 X-10.487 Y-0.515 E0.0171
G1 X-10.449 Y-1.029 E0.0171
G1 X-10.386 Y-1.541 E0.0171
G1 X-10.298 Y-2.049 E0.0171
G1 X-10.185 Y-2.551 E0.0171
G1 X-10.048 Y-3.048 E0.0171
G1 X-9.886 Y-3.537 E0.0171
G1 X-9.701 Y-4.018 E0.0171
G1 X-9.492 Y-4.489 E0.0171
G1 X-9.260 Y-4.949 E0.0171
G1 X-9.006 Y-5.398 E0.0171
G1 X-8.730 Y-5.833 E0.0171
G1 X-8.434 Y-6.255 E0.0171
G1 X-8.116 Y-6.661 E0.0171
G1 X-7.780 Y-7.051 E0.0171
G1 X-7.424 Y-7.425 E0.0171
G1 X-7.051 Y-7.780 E0.0171
G1 X-6.681 Y-8.099 E0.0163
G1 X-6.254 Y-8.434 E0.0180
G1 X-5.833 Y-8.730 E0.0171
G1 X-5.398 Y-9.006 E0.0171
G1 X-4.950 Y-9.260 E0.0171
G1 X-4.489 Y-9.492 E0.0171
G1 X-4.018 Y-9.701 E0.0171
G1 X-3.537 Y-9.886 E0.0171
G1 X-3.048 Y-10.048 E0.0171
G1 X-2.551 Y-10.185 E0.0171
G1 X-2.048 Y-10.298 E0.0171
G1 X-1.541 Y-10.386 E0.0171
G1 X-1.029 Y-10.449 E0.0171
G1 X-0.515 Y-10.487 E0.0171
G1 X0.000 Y-10.500 E0.0171
G1 X0.515 Y-10.487 E0.0171
G1 X1.029 Y-10.449 E0.0171
G1 X1.541 Y-10.386 E0.0171
G1 X2.049 Y-10.298 E0.0171
G1 X2.551 Y-10.185 E0.0171
G1 X3.048 Y-10.048 E0.0171
G1 X3.537 Y-9.886 E0.0171
G1 X4.018 Y-9.701 E0.0171
G1 X4.489 Y-9.492 E0.0171
G1 X4.950 Y-9.260 E0.0171
G1 X5.398 Y-9.006 E0.0171
G1 X5.833 Y-8.730 E0.0171
G1 X6.255 Y-8.434 E0.0171
G1 X6.661 Y-8.116 E0.0171
G1 X7.051 Y-7.780 E0.0171
G1 X7.424 Y-7.424 E0.0171
G1 X7.780 Y-7.051 E0.0171
G1 X8.116 Y-6.661 E0.0171
G1 X8.434 Y-6.255 E0.0172
G1 X8.730 Y-5.833 E0.0171
G1 X9.006 Y-5.398 E0.0171
G1 X9.260 Y-4.949 E0.0171
G1 X9.492 Y-4.489 E0.0171
G1 X9.700 Y-4.018 E0.0171
G1 X9.886 Y-3.537 E0.0171
G1 X10.048 Y-3.048 E0.0171
G1 X10.185 Y-2.551 E0.0171
G1 X10.298 Y-2.049 E0.0171
G1 X10.386 Y-1.541 E0.0171
G1 X10.449 Y-1.029 E0.0171
G1 X10.487 Y-0.515 E0.0171
G1 X10.500 Y-0.000 E0.0171
; feature outer perimeter
G1 X10.900 Y-0.000 F9000
G1 X10.887 Y0.535 E0.0178 F1200
G1 X10.847 Y1.068 E0.0178
G1 X10.782 Y1.599 E0.0178
G1 X10.690 Y2.127 E0.0178
G1 X10.573 Y2.648 E0.0178
G1 X10.431 Y3.164 E0.0178
G1 X10.263 Y3.672 E0.0178
G1 X10.070 Y4.171 E0.0178
G1 X9.853 Y4.660 E0.0178
G1 X9.613 Y5.138 E0.0178
G1 X9.349 Y5.604 E0.0178
G1 X9.063 Y6.056 E0.0178
G1 X8.755 Y6.493 E0.0178
G1 X8.426 Y6.915 E0.0178
G1 X8.076 Y7.320 E0.0178
G1 X7.707 Y7.708 E0.0178
G1 X7.320 Y8.076 E0.0178
G1 X6.915 Y8.426 E0.0178
G1 X6.493 Y8.755 E0.0178
G1 X6.056 Y9.063 E0.0178
G1 X5.604 Y9.349 E0.0178
G1 X5.138 Y9.613 E0.0178
G1 X4.660 Y9.853 E0.0178
G1 X4.171 Y10.070 E0.0178
G1 X3.672 Y10.263 E0.0178
G1 X3.164 Y10.431 E0.0178
G1 X2.648 Y10.573 E0.0178
G1 X2.127 Y10.690 E0.0178
G1 X1.599 Y10.782 E0.0178
G1 X1.068 Y10.847 E0.0178
G1 X0.535 Y10.887 E0.0178
G1 X0.000 Y10.900 E0.0178
G1 X-0.535 Y10.887 E0.0178
G1 X-1.068 Y10.847 E0.0178
G1 X-1.599 Y10.782 E0.0178
G1 X-2.127 Y10.690 E0.0178
G1 X-2.648 Y10.573 E0.0178
G1 X-3.164 Y10.431 E0.0178
G1 X-3.672 Y10.263 E0.0178
G1 X-4.171 Y10.070 E0.0178
G1 X-4.660 Y9.853 E0.0178
G1 X-5.138 Y9.613 E0.0178
G1 X-5.604 Y9.349 E0.0178
G1 X-6.056 Y9.063 E0.0178
G1 X-6.493 Y8.755 E0.0178
G1 X-6.915 Y8.426 E0.0178
G1 X-7.320 Y8.076 E0.0178
G1 X-7.707 Y7.707 E0.0178
G1 X-8.076 Y7.320 E0.0178
G1 X-8.426 Y6.915 E0.0178
G1 X-8.755 Y6.493 E0.0178
G1 X-9.063 Y6.056 E0.0178
G1 X-9.349 Y5.604 E0.0178
G1 X-9.613 Y5.138 E0.0178
G1 X-9.853 Y4.660 E0.0178
G1 X-10.070 Y4.171 E0.0178
G1 X-10.263 Y3.672 E0.0178
G1 X-10.431 Y3.164 E0.0178
G1 X-10.573 Y2.648 E0.0178
G1 X-10.690 Y2.127 E0.0178
G1 X-10.782 Y1.599 E0.0178
G1 X-10.847 Y1.068 E0.0178
G1 X-10.887 Y0.535 E0.0178
G1 X-10.900 Y-0.000 E0.0178
G1 X-10.887 Y-0.535 E0.0178
G1 X-10.847 Y-1.068 E0.0178
G1 X-10.782 Y-1.599 E0.0178
G1 X-10.690 Y-2.127 E0.0178
G1 X-10.573 Y-2.648 E0.0178
G1 X-10.431 Y-3.164 E0.0178
G1 X-10.263 Y-3.672 E0.0178
G1 X-10.070 Y-4.171 E0.0178
G1 X-9.853 Y-4.660 E0.0178
G1 X-9.613 Y-5.138 E0.0178
G1 X-9.349 Y-5.604 E0.0178
G1 X-9.063 Y-6.056 E0.0178
G1 X-8.755 Y-6.493 E0.0178
G1 X-8.426 Y-6.915 E0.0178
G1 X-8.076 Y-7.320 E0.0178
G1 X-7.707 Y-7.708 E0.0178
G1 X-7.320 Y-8.076 E0.0178
G1 X-6.935 Y-8.408 E0.0169
G1 X-6.493 Y-8.755 E0.0187
G1 X-6.056 Y-9.063 E0.0178
G1 X-5.604 Y-9.349 E0.0178
G1 X-5.138 Y-9.613 E0.0178
G1 X-4.660 Y-9.853 E0.0178
G1 X-4.171 Y-10.070 E0.0178
G1 X-3.672 Y-10.263 E0.0178
G1 X-3.164 Y-10.431 E0.0178
G1 X-2.648 Y-10.573 E0.0178
G1 X-2.127 Y-10.690 E0.0178
G1 X-1.599 Y-10.782 E0.0178
G1 X-1.068 Y-10.847 E0.0178
G1 X-0.535 Y-10.887 E0.0178
G1 X0.000 Y-10.900 E0.0178
G1 X0.535 Y-10.887 E0.0178
G1 X1.068 Y-10.847 E0.0178
G1 X1.599 Y-10.782 E0.0178
G1 X2.127 Y-10.690 E0.0178
G1 X2.648 Y-10.573 E0.0178
G1 X3.164 Y-10.431 E0.0178
G1 X3.672 Y-10.263 E0.0178
G1 X4.171 Y-10.070 E0.0178
G1 X4.660 Y-9.853 E0.0178
G1 X5.138 Y-9.613 E0.0178
G1 X5.604 Y-9.349 E0.0178
G1 X6.056 Y-9.063 E0.0178
G1 X6.493 Y-8.755 E0.0178
G1 X6.915 Y-8.426 E0.0178
G1 X7.320 Y-8.076 E0.0178
G1 X7.707 Y-7.707 E0.0178
G1 X8.076 Y-7.320 E0.0178
G1 X8.426 Y-6.915 E0.0178
G1 X8.755 Y-6.493 E0.0178
G1 X9.063 Y-6.056 E0.0178
G1 X9.349 Y-5.604 E0.0178
G1 X9.613 Y-5.138 E0.0178
G1 X9.853 Y-4.660 E0.0178
G1 X10.070 Y-4.171 E0.0178
G1 X10.263 Y-3.672 E0.0178
G1 X10.431 Y-3.164 E0.0178
G1 X10.573 Y-2.648 E0.0178
G1 X10.690 Y-2.127 E0.0178
G1 X10.782 Y-1.599 E0.0178
G1 X10.847 Y-1.068 E0.0178
G1 X10.887 Y-0.535 E0.0178
G1 X10.900 Y-0.000 E0.0178
G1 E-1.9000 F1200
; feature inner perimeter
G1 Z0.700 F1200
G1 X3.097 Y-0.152 F9000
G1 Z0.200 F1200
G1 E1.9000 F1200
G1 X3.067 Y-0.455 E0.0101 F1800
G1 X3.008 Y-0.753 E0.0101
G1 X2.919 Y-1.045 E0.0101
G1 X2.803 Y-1.326 E0.0101
G1 X2.660 Y-1.594 E0.0101
G1 X2.491 Y-1.847 E0.0101
G1 X2.297 Y-2.082 E0.0101
G1 X2.082 Y-2.297 E0.0101
G1 X1.847 Y-2.491 E0.0101
G1 X1.594 Y-2.660 E0.0101
G1 X1.326 Y-2.803 E0.0101
G1 X1.045 Y-2.919 E0.0101
G1 X0.753 Y-3.008 E0.0101
G1 X0.455 Y-3.067 E0.0101
G1 X0.152 Y-3.097 E0.0101
G1 X-0.160 Y-3.097 E0.0104
G1 X-0.598 Y-3.043 E0.0147
G1 X-0.900 Y-2.967 E0.0104
G1 X-1.187 Y-2.865 E0.0101
G1 X-1.462 Y-2.735 E0.0101
G1 X-1.723 Y-2.578 E0.0101
G1 X-1.967 Y-2.397 E0.0101
G1 X-2.193 Y-2.193 E0.0101
G1 X-2.397 Y-1.967 E0.0101
G1 X-2.578 Y-1.723 E0.0101
G1 X-2.735 Y-1.462 E0.0101
G1 X-2.865 Y-1.187 E0.0101
G1 X-2.967 Y-0.900 E0.0101
G1 X-3.041 Y-0.605 E0.0101
G1 X-3.086 Y-0.304 E0.0101
G1 X-3.101 Y0.007 E0.0104
G1 X-3.069 Y0.448 E0.0147
G1 X-3.008 Y0.753 E0.0104
G1 X-2.919 Y1.045 E0.0101
G1 X-2.803 Y1.326 E0.0101
G1 X-2.660 Y1.594 E0.0101
G1 X-2.490 Y1.847 E0.0101
G1 X-2.297 Y2.082 E0.0101
G1 X-2.082 Y2.297 E0.0101
G1 X-1.847 Y2.491 E0.0101
G1 X-1.594 Y2.660 E0.0101
G1 X-1.326 Y2.803 E0.0101
G1 X-1.045 Y2.919 E0.0101
G1 X-0.753 Y3.008 E0.0101
G1 X-0.455 Y3.067 E0.0101
G1 X-0.152 Y3.097 E0.0101
G1 X0.152 Y3.097 E0.0101
G1 X0.455 Y3.067 E0.0101
G1 X0.753 Y3.008 E0.0101
G1 X1.045 Y2.919 E0.0101
G1 X1.326 Y2.803 E0.0101
G1 X1.594 Y2.660 E0.0101
G1 X1.847 Y2.491 E0.0101
