; G-Code generated by Simplify3D(R) Version 4.1.2
; Jun 25, 2020 at 11:19:28 AM
; Settings Summary
;   processName,Process1
;   applyToModels,MasherBig,MasherBig(2),MasherBig(3),MasherBig(4),MasherBig(5),MasherBig(6),MasherBig(7),MasherBig(2)(2),MasherBig(3)(2),MasherBig(4)(2),MasherBig(5)(2),MasherBig(6)(2),MasherBig(8),MasherBig(2)(3),MasherBig(3)(3),MasherBig(4)(3),MasherBig(5)(3),MasherBig(6)(3),MasherBig(7)(2),MasherBig(2)(2)(2),MasherBig(3)(2)(2),MasherBig(4)(2)(2),MasherBig(5)(2)(2),MasherBig(6)(2)(2)
;   profileName,MakerBot Replicator 2 HBP (modified)
;   profileVersion,2020-04-21 14:45:34
;   baseProfile,MakerBot Replicator 2(2)
;   printMaterial,PLA
;   printQuality,Medium
;   printExtruders,
;   extruderName,Primary Extruder
;   extruderToolheadNumber,0
;   extruderDiameter,0.4
;   extruderAutoWidth,0
;   extruderWidth,0.4
;   extrusionMultiplier,1
;   extruderUseRetract,1
;   extruderRetractionDistance,1.9
;   extruderExtraRestartDistance,0
;   extruderRetractionZLift,0.5
;   extruderRetractionSpeed,1200
;   extruderUseCoasting,0
;   extruderCoastingDistance,0.2
;   extruderUseWipe,0
;   extruderWipeDistance,5
;   primaryExtruder,0
;   layerHeight,0.2
;   topSolidLayers,4
;   bottomSolidLayers,3
;   perimeterOutlines,2
;   printPerimetersInsideOut,1
;   startPointOption,3
;   startPointOriginX,140
;   startPointOriginY,0
;   sequentialIslands,0
;   spiralVaseMode,0
;   firstLayerHeightPercentage,100
;   firstLayerWidthPercentage,100
;   firstLayerUnderspeed,0.5
;   useRaft,0
;   raftExtruder,0
;   raftTopLayers,2
;   raftBaseLayers,1
;   raftOffset,1
;   raftSeparationDistance,0.14
;   raftTopInfill,90
;   aboveRaftSpeedMultiplier,0.3
;   useSkirt,0
;   skirtExtruder,0
;   skirtLayers,1
;   skirtOutlines,5
;   skirtOffset,0
;   usePrimePillar,0
;   primePillarExtruder,999
;   primePillarWidth,12
;   primePillarLocation,7
;   primePillarSpeedMultiplier,1
;   useOozeShield,0
;   oozeShieldExtruder,999
;   oozeShieldOffset,2
;   oozeShieldOutlines,1
;   oozeShieldSidewallShape,1
;   oozeShieldSidewallAngle,30
;   oozeShieldSpeedMultiplier,1
;   infillExtruder,0
;   internalInfillPattern,Rectilinear
;   externalInfillPattern,Rectilinear
;   infillPercentage,15
;   outlineOverlapPercentage,20
;   infillExtrusionWidthPercentage,100
;   minInfillLength,5
;   infillLayerInterval,1
;   internalInfillAngles,45,-45
;   overlapInternalInfillAngles,0
;   externalInfillAngles,45,-45
;   generateSupport,1
;   supportExtruder,0
;   supportInfillPercentage,30
;   supportExtraInflation,0.6
;   supportBaseLayers,0
;   denseSupportExtruder,0
;   denseSupportLayers,2
;   denseSupportInfillPercentage,70
;   supportLayerInterval,1
;   supportHorizontalPartOffset,0.3
;   supportUpperSeparationLayers,1
;   supportLowerSeparationLayers,1
;   supportType,0
;   supportGridSpacing,99
;   maxOverhangAngle,45
;   supportAngles,0
;   temperatureName,Primary Extruder,Heated Build Platform
;   temperatureNumber,0,0
;   temperatureSetpointCount,1,1
;   temperatureSetpointLayers,1,1
;   temperatureSetpointTemperatures,210,65
;   temperatureStabilizeAtStartup,1,1
;   temperatureHeatedBed,0,1
;   fanLayers,1,2
;   fanSpeeds,0,100
;   blipFanToFullPower,1
;   adjustSpeedForCooling,1
;   minSpeedLayerTime,15
;   minCoolingSpeedSlowdown,20
;   increaseFanForCooling,1
;   minFanLayerTime,45
;   maxCoolingFanSpeed,100
;   increaseFanForBridging,1
;   bridgingFanSpeed,100
;   use5D,1
;   relativeEdistances,1
;   allowEaxisZeroing,0
;   independentExtruderAxes,1
;   includeM10123,0
;   stickySupport,1
;   applyToolheadOffsets,0
;   gcodeXoffset,0
;   gcodeYoffset,0
;   gcodeZoffset,0
;   overrideMachineDefinition,1
;   machineTypeOverride,0
;   strokeXoverride,280
;   strokeYoverride,150
;   strokeZoverride,150
;   originOffsetXoverride,140
;   originOffsetYoverride,75
;   originOffsetZoverride,0
;   homeXdirOverride,1
;   homeYdirOverride,1
;   homeZdirOverride,-1
;   flipXoverride,1
;   flipYoverride,-1
;   flipZoverride,1
;   toolheadOffsets,0,0|0,0|0,0|0,0|0,0|0,0
;   overrideFirmwareConfiguration,1
;   firmwareTypeOverride,MakerBot/Sailfish Firmware
;   GPXconfigOverride,r2h
;   baudRateOverride,115200
;   overridePrinterModels,1
;   printerModelsOverride,MakerBot_Replicator2.stl
;   startingGcode,; **** Replicator 2 start.gcode ****,M73 P0 ; enable build progress,G162 X Y F3000 ; home XY maximum,G161 Z F1200 ; home Z minimum,G92 Z-5 ; set Z to -5,G1 Z0 ; move Z to 0,G28 ; better homing homie,M132 X Y Z A B ; recall home offsets,G1 X-145 Y-75 Z30 F9000 ; move to wait position off table,G130 X20 Y20 Z20 A20 B20 ; lower stepper Vrefs while heating,M126 S[fan_speed_pwm],M140 S[bed0_temperature] T0,M134 T0 ; stabilize bed temperature,M104 S[extruder0_temperature] T0,M133 T0 ; stabilize extruder temperature,G130 X127 Y127 Z40 A127 B127 ; default stepper Vrefs,G92 A0 ; zero extruder,G1 Z0.4 ; position nozzle,G1 E25 F300 ; purge nozzle,G1 X-140 Y-70 Z0.15 F1200 ; slow wipe,G1 X-135 Y-65 Z0.5 F1200 ; lift,G92 A0 ; zero extruder,M73 P1 ;@body (notify GPX body has started),; **** end of start.gcode ****
;   layerChangeGcode,
;   retractionGcode,
;   toolChangeGcode,
;   endingGcode,; **** Replicator 2 end.gcode ****,M73 P100 ; end build progress,G1 Z155 F1000 ; send Z axis to bottom of machine,M104 S0 T0 ; cool down extruder,M140 S0 T0 ; cool down HBP,M127 ; stop blower fan,G162 X Y F3000 ; home XY maximum,M18 ; disable stepper,M0 ; stop codes,M72 P1 ; play Ta-Da song,; **** end of end.gcode ****
;   exportFileFormat,gcode
;   celebration,0
;   celebrationSong,Random Song
;   postProcessing,
;   defaultSpeed,4800
;   outlineUnderspeed,0.5
;   solidInfillUnderspeed,1
;   supportUnderspeed,1
;   rapidXYspeed,9000
;   rapidZspeed,1200
;   minBridgingArea,50
;   bridgingExtraInflation,0
;   bridgingExtrusionMultiplier,1
;   bridgingSpeedMultiplier,0.8
;   useFixedBridgingAngle,0
;   fixedBridgingAngle,0
;   applyBridgingToPerimeters,0
;   filamentDiameters,1.75|1.75|1.75|1.75|1.75|1.75
;   filamentPricesPerKg,46|46|46|46|46|46
;   filamentDensities,1.25|1.25|1.25|1.25|1.25|1.25
;   useMinPrintHeight,0
;   minPrintHeight,0
;   useMaxPrintHeight,0
;   maxPrintHeight,4.84
;   useDiaphragm,0
;   diaphragmLayerInterval,20
;   robustSlicing,1
;   mergeAllIntoSolid,0
;   onlyRetractWhenCrossingOutline,0
;   retractBetweenLayers,0
;   useRetractionMinTravel,1
;   retractionMinTravel,7
;   retractWhileWiping,1
;   onlyWipeOutlines,1
;   avoidCrossingOutline,0
;   maxMovementDetourFactor,3
;   toolChangeRetractionDistance,12
;   toolChangeExtraRestartDistance,-0.5
;   toolChangeRetractionSpeed,600
;   externalThinWallType,0
;   internalThinWallType,0
;   thinWallAllowedOverlapPercentage,10
;   singleExtrusionMinLength,1
;   singleExtrusionMinPrintingWidthPercentage,50
;   singleExtrusionMaxPrintingWidthPercentage,200
;   singleExtrusionEndpointExtension,0.2
;   horizontalSizeCompensation,0
G90
M83
; **** Replicator 2 start.gcode ****
M73 P0 ; enable build progress
G162 X Y F3000 ; home XY maximum
G161 Z F1200 ; home Z minimum
G92 Z-5 ; set Z to -5
G1 Z0 ; move Z to 0
G28 ; better homing homie
M132 X Y Z A B ; recall home offsets
G1 X-145 Y-75 Z30 F9000 ; move to wait position off table
G130 X20 Y20 Z20 A20 B20 ; lower stepper Vrefs while heating
M127
M140 S65 T0
M134 T0 ; stabilize bed temperature
M104 S210 T0
M133 T0 ; stabilize extruder temperature
G130 X127 Y127 Z40 A127 B127 ; default stepper Vrefs
G92 A0 ; zero extruder
G1 Z0.4 ; position nozzle
G1 E25 F300 ; purge nozzle
G1 X-140 Y-70 Z0.15 F1200 ; slow wipe
G1 X-135 Y-65 Z0.5 F1200 ; lift
G92 A0 ; zero extruder
M73 P1 ;@body (notify GPX body has started)
; **** end of start.gcode ****
; process Process1
; layer 1, Z = 0.200
M135 T0
G1 E-1.9000 F1200
; feature inner perimeter
; tool H0.200 W0.400
G1 Z0.500 F1200
G1 X27.300 Y-0.000 F9000
G1 Z0.200 F1200
G1 E1.9000 F1200
G1 X27.285 Y0.594 E0.0198 F1800
G1 X27.242 Y1.186 E0.0198
G1 X27.169 Y1.775 E0.0197
G1 X27.067 Y2.361 E0.0198
G1 X26.937 Y2.940 E0.0197
G1 X26.779 Y3.512 E0.0198
G1 X26.593 Y4.076 E0.0198
G1 X26.379 Y4.630 E0.0198
G1 X26.138 Y5.173 E0.0198
G1 X25.871 Y5.704 E0.0198
G1 X25.578 Y6.221 E0.0198
G1 X25.261 Y6.722 E0.0198
G1 X24.919 Y7.208 E0.0198
G1 X24.553 Y7.676 E0.0198
G1 X24.166 Y8.126 E0.0197
G1 X23.756 Y8.556 E0.0198
G1 X23.326 Y8.965 E0.0198
G1 X22.876 Y9.353 E0.0197
G1 X22.408 Y9.719 E0.0198
G1 X21.922 Y10.061 E0.0197
G1 X21.421 Y10.378 E0.0197
G1 X20.904 Y10.671 E0.0198
G1 X20.373 Y10.938 E0.0197
G1 X19.831 Y11.179 E0.0197
G1 X19.276 Y11.392 E0.0198
G1 X18.712 Y11.579 E0.0198
G1 X18.140 Y11.737 E0.0198
G1 X17.561 Y11.867 E0.0197
G1 X16.975 Y11.969 E0.0198
G1 X16.386 Y12.042 E0.0198
G1 X15.794 Y12.085 E0.0198
G1 X15.200 Y12.100 E0.0197
G1 X14.606 Y12.085 E0.0197
G1 X14.014 Y12.042 E0.0198
G1 X13.425 Y11.969 E0.0197
G1 X12.839 Y11.867 E0.0198
G1 X12.260 Y11.737 E0.0197
G1 X11.688 Y11.579 E0.0198
G1 X11.124 Y11.393 E0.0198
G1 X10.569 Y11.179 E0.0198
G1 X10.027 Y10.938 E0.0197
G1 X9.496 Y10.671 E0.0198
G1 X8.979 Y10.378 E0.0198
G1 X8.478 Y10.061 E0.0197
G1 X7.992 Y9.719 E0.0198
G1 X7.524 Y9.353 E0.0197
G1 X7.074 Y8.965 E0.0198
G1 X6.644 Y8.556 E0.0198
G1 X6.235 Y8.126 E0.0198
G1 X5.847 Y7.676 E0.0197
G1 X5.481 Y7.208 E0.0198
G1 X5.139 Y6.722 E0.0198
G1 X4.822 Y6.221 E0.0198
G1 X4.529 Y5.704 E0.0198
G1 X4.262 Y5.173 E0.0198
G1 X4.021 Y4.630 E0.0198
G1 X3.807 Y4.076 E0.0198
G1 X3.621 Y3.512 E0.0198
G1 X3.463 Y2.940 E0.0198
G1 X3.333 Y2.361 E0.0197
G1 X3.231 Y1.775 E0.0198
G1 X3.158 Y1.186 E0.0197
G1 X3.115 Y0.594 E0.0198
G1 X3.100 Y-0.000 E0.0197
G1 X3.115 Y-0.594 E0.0197
G1 X3.158 Y-1.186 E0.0198
G1 X3.231 Y-1.775 E0.0198
G1 X3.333 Y-2.361 E0.0198
G1 X3.463 Y-2.940 E0.0198
G1 X3.621 Y-3.512 E0.0197
G1 X3.807 Y-4.076 E0.0198
G1 X4.021 Y-4.631 E0.0198
G1 X4.262 Y-5.173 E0.0197
G1 X4.529 Y-5.704 E0.0197
G1 X4.822 Y-6.221 E0.0198
G1 X5.139 Y-6.722 E0.0197
G1 X5.481 Y-7.208 E0.0197
G1 X5.847 Y-7.676 E0.0198
G1 X6.235 Y-8.126 E0.0197
G1 X6.644 Y-8.556 E0.0198
G1 X7.074 Y-8.965 E0.0198
G1 X7.501 Y-9.333 E0.0187
G1 X7.993 Y-9.719 E0.0208
G1 X8.478 Y-10.061 E0.0197
G1 X8.979 Y-10.378 E0.0197
G1 X9.496 Y-10.671 E0.0198
G1 X10.027 Y-10.938 E0.0198
G1 X10.569 Y-11.179 E0.0197
G1 X11.124 Y-11.393 E0.0198
G1 X11.688 Y-11.579 E0.0198
G1 X12.260 Y-11.737 E0.0198
G1 X12.839 Y-11.867 E0.0197
G1 X13.425 Y-11.969 E0.0198
G1 X14.014 Y-12.042 E0.0197
G1 X14.606 Y-12.085 E0.0198
G1 X15.200 Y-12.100 E0.0197
G1 X15.794 Y-12.085 E0.0197
G1 X16.386 Y-12.042 E0.0198
G1 X16.975 Y-11.969 E0.0197
G1 X17.561 Y-11.867 E0.0198
G1 X18.140 Y-11.737 E0.0198
G1 X18.712 Y-11.579 E0.0197
G1 X19.276 Y-11.393 E0.0198
G1 X19.831 Y-11.179 E0.0198
G1 X20.373 Y-10.938 E0.0198
G1 X20.904 Y-10.671 E0.0197
G1 X21.421 Y-10.378 E0.0198
G1 X21.922 Y-10.061 E0.0197
G1 X22.408 Y-9.719 E0.0198
G1 X22.876 Y-9.353 E0.0197
G1 X23.326 Y-8.965 E0.0198
G1 X23.756 Y-8.556 E0.0198
G1 X24.166 Y-8.126 E0.0198
G1 X24.553 Y-7.676 E0.0197
G1 X24.919 Y-7.208 E0.0198
G1 X25.261 Y-6.722 E0.0198
G1 X25.578 Y-6.220 E0.0198
G1 X25.871 Y-5.704 E0.0197
G1 X26.138 Y-5.173 E0.0198
G1 X26.379 Y-4.631 E0.0197
G1 X26.593 Y-4.076 E0.0198
G1 X26.779 Y-3.512 E0.0197
G1 X26.937 Y-2.940 E0.0197
G1 X27.067 Y-2.361 E0.0198
G1 X27.169 Y-1.775 E0.0198
G1 X27.242 Y-1.186 E0.0198
G1 X27.285 Y-0.594 E0.0198
G1 X27.300 Y-0.000 E0.0197
; feature outer perimeter
G1 X27.700 Y-0.000 F9000
G1 X27.685 Y0.613 E0.0204 F1200
G1 X27.640 Y1.225 E0.0204
G1 X27.565 Y1.834 E0.0204
G1 X27.460 Y2.439 E0.0204
G1 X27.325 Y3.037 E0.0204
G1 X27.162 Y3.629 E0.0204
G1 X26.969 Y4.211 E0.0204
G1 X26.748 Y4.784 E0.0204
G1 X26.500 Y5.344 E0.0204
G1 X26.224 Y5.892 E0.0204
G1 X25.922 Y6.426 E0.0204
G1 X25.593 Y6.945 E0.0204
G1 X25.240 Y7.446 E0.0204
G1 X24.862 Y7.930 E0.0204
G1 X24.462 Y8.394 E0.0204
G1 X24.039 Y8.839 E0.0204
G1 X23.594 Y9.262 E0.0204
G1 X23.130 Y9.663 E0.0204
G1 X22.646 Y10.040 E0.0204
G1 X22.145 Y10.393 E0.0204
G1 X21.626 Y10.722 E0.0204
G1 X21.092 Y11.024 E0.0204
G1 X20.544 Y11.300 E0.0204
G1 X19.984 Y11.548 E0.0204
G1 X19.411 Y11.769 E0.0204
G1 X18.828 Y11.962 E0.0204
G1 X18.237 Y12.125 E0.0204
G1 X17.639 Y12.260 E0.0204
G1 X17.034 Y12.365 E0.0204
G1 X16.425 Y12.440 E0.0204
G1 X15.813 Y12.485 E0.0204
G1 X15.200 Y12.500 E0.0204
G1 X14.587 Y12.485 E0.0204
G1 X13.975 Y12.440 E0.0204
G1 X13.366 Y12.365 E0.0204
G1 X12.761 Y12.260 E0.0204
G1 X12.163 Y12.125 E0.0204
G1 X11.571 Y11.962 E0.0204
G1 X10.989 Y11.769 E0.0204
G1 X10.416 Y11.548 E0.0204
G1 X9.856 Y11.300 E0.0204
G1 X9.308 Y11.024 E0.0204
G1 X8.774 Y10.722 E0.0204
G1 X8.255 Y10.393 E0.0204
G1 X7.754 Y10.040 E0.0204
G1 X7.270 Y9.663 E0.0204
G1 X6.806 Y9.262 E0.0204
G1 X6.361 Y8.839 E0.0204
G1 X5.938 Y8.394 E0.0204
G1 X5.537 Y7.930 E0.0204
G1 X5.160 Y7.446 E0.0204
G1 X4.807 Y6.945 E0.0204
G1 X4.478 Y6.426 E0.0204
G1 X4.176 Y5.892 E0.0204
G1 X3.900 Y5.344 E0.0204
G1 X3.652 Y4.784 E0.0204
G1 X3.431 Y4.211 E0.0204
G1 X3.238 Y3.628 E0.0204
G1 X3.075 Y3.037 E0.0204
G1 X2.940 Y2.439 E0.0204
G1 X2.835 Y1.834 E0.0204
G1 X2.760 Y1.225 E0.0204
G1 X2.715 Y0.613 E0.0204
G1 X2.700 Y-0.000 E0.0204
G1 X2.715 Y-0.613 E0.0204
G1 X2.760 Y-1.225 E0.0204
G1 X2.835 Y-1.834 E0.0204
G1 X2.940 Y-2.439 E0.0204
G1 X3.075 Y-3.037 E0.0204
G1 X3.238 Y-3.628 E0.0204
G1 X3.431 Y-4.211 E0.0204
G1 X3.652 Y-4.784 E0.0204
G1 X3.900 Y-5.344 E0.0204
G1 X4.176 Y-5.892 E0.0204
G1 X4.478 Y-6.426 E0.0204
G1 X4.807 Y-6.945 E0.0204
G1 X5.160 Y-7.446 E0.0204
G1 X5.538 Y-7.930 E0.0204
G1 X5.938 Y-8.394 E0.0204
G1 X6.361 Y-8.839 E0.0204
G1 X6.806 Y-9.262 E0.0204
G1 X7.247 Y-9.642 E0.0194
G1 X7.754 Y-10.040 E0.0215
G1 X8.255 Y-10.393 E0.0204
G1 X8.774 Y-10.722 E0.0204
G1 X9.308 Y-11.024 E0.0204
G1 X9.856 Y-11.300 E0.0204
G1 X10.416 Y-11.548 E0.0204
G1 X10.989 Y-11.769 E0.0204
G1 X11.572 Y-11.962 E0.0204
G1 X12.163 Y-12.125 E0.0204
G1 X12.761 Y-12.260 E0.0204
G1 X13.366 Y-12.365 E0.0204
G1 X13.975 Y-12.440 E0.0204
G1 X14.587 Y-12.485 E0.0204
G1 X15.200 Y-12.500 E0.0204
G1 X15.813 Y-12.485 E0.0204
G1 X16.425 Y-12.440 E0.0204
G1 X17.034 Y-12.365 E0.0204
G1 X17.639 Y-12.260 E0.0204
G1 X18.237 Y-12.125 E0.0204
G1 X18.828 Y-11.962 E0.0204
G1 X19.411 Y-11.769 E0.0204
G1 X19.984 Y-11.548 E0.0204
G1 X20.544 Y-11.300 E0.0204
G1 X21.092 Y-11.024 E0.0204
G1 X21.626 Y-10.722 E0.0204
G1 X22.145 Y-10.393 E0.0204
G1 X22.646 Y-10.040 E0.0204
G1 X23.130 Y-9.663 E0.0204
G1 X23.594 Y-9.262 E0.0204
G1 X24.039 Y-8.839 E0.0204
G1 X24.462 Y-8.394 E0.0204
G1 X24.862 Y-7.930 E0.0204
G1 X25.240 Y-7.446 E0.0204
G1 X25.593 Y-6.945 E0.0204
G1 X25.922 Y-6.426 E0.0204
G1 X26.224 Y-5.892 E0.0204
G1 X26.500 Y-5.344 E0.0204
G1 X26.748 Y-4.784 E0.0204
G1 X26.969 Y-4.211 E0.0204
G1 X27.162 Y-3.628 E0.0204
G1 X27.325 Y-3.037 E0.0204
G1 X27.460 Y-2.439 E0.0204
G1 X27.565 Y-1.834 E0.0204
G1 X27.640 Y-1.225 E0.0204
G1 X27.685 Y-0.613 E0.0204
G1 X27.700 Y-0.000 E0.0204
G1 E-1.9000 F1200
; feature inner perimeter
G1 Z0.700 F1200
G1 X18.301 Y0.000 F9000
G1 Z0.200 F1200
G1 E1.9000 F1200
G1 X18.286 Y-0.304 E0.0101 F1800
G1 X18.241 Y-0.605 E0.0101
G1 X18.167 Y-0.900 E0.0101
G1 X18.065 Y-1.187 E0.0101
G1 X17.935 Y-1.462 E0.0101
G1 X17.778 Y-1.723 E0.0101
G1 X17.597 Y-1.967 E0.0101
G1 X17.393 Y-2.193 E0.0101
G1 X17.167 Y-2.397 E0.0101
G1 X16.923 Y-2.578 E0.0101
G1 X16.662 Y-2.735 E0.0101
G1 X16.387 Y-2.865 E0.0101
G1 X16.100 Y-2.967 E0.0101
G1 X15.805 Y-3.041 E0.0101
G1 X15.504 Y-3.086 E0.0101
G1 X15.200 Y-3.101 E0.0101
G1 X14.896 Y-3.086 E0.0101
G1 X14.595 Y-3.041 E0.0101
G1 X14.300 Y-2.967 E0.0101
G1 X14.013 Y-2.865 E0.0101
G1 X13.738 Y-2.735 E0.0101
G1 X13.477 Y-2.578 E0.0101
G1 X13.233 Y-2.397 E0.0101
G1 X13.007 Y-2.193 E0.0101
G1 X12.803 Y-1.967 E0.0101
G1 X12.622 Y-1.723 E0.0101
G1 X12.465 Y-1.462 E0.0101
G1 X12.335 Y-1.187 E0.0101
G1 X12.233 Y-0.900 E0.0101
G1 X12.159 Y-0.605 E0.0101
G1 X12.114 Y-0.304 E0.0101
G1 X12.099 Y0.015 E0.0106
G1 X12.155 Y0.591 E0.0192
G1 X12.233 Y0.900 E0.0106
G1 X12.335 Y1.187 E0.0101
G1 X12.465 Y1.462 E0.0101
G1 X12.622 Y1.723 E0.0101
G1 X12.803 Y1.967 E0.0101
G1 X13.007 Y2.193 E0.0101
G1 X13.233 Y2.397 E0.0101
G1 X13.477 Y2.578 E0.0101
G1 X13.738 Y2.735 E0.0101
G1 X14.013 Y2.865 E0.0101
G1 X14.300 Y2.967 E0.0101
