; G-Code generated by Simplify3D(R) Version 4.1.2
; Jun 25, 2020 at 11:18:42 AM
; Settings Summary
;   processName,Process1
;   applyToModels,MasherSmall,MasherSmall(2),MasherSmall(3),MasherSmall(4),MasherSmall(5),MasherSmall(6),MasherSmall(7),MasherSmall(2)(2),MasherSmall(3)(2),MasherSmall(4)(2),MasherSmall(5)(2),MasherSmall(6)(2),MasherSmall(8),MasherSmall(2)(3),MasherSmall(3)(3),MasherSmall(4)(3),MasherSmall(5)(3),MasherSmall(6)(3),MasherSmall(7)(2),MasherSmall(2)(2)(2),MasherSmall(3)(2)(2),MasherSmall(4)(2)(2),MasherSmall(5)(2)(2),MasherSmall(6)(2)(2)
;   profileName,MakerBot Replicator 2 HBP (modified)
;   profileVersion,2020-04-21 14:45:34
;   baseProfile,MakerBot Replicator 2(2)
;   printMaterial,PLA
;   printQuality,Medium
;   printExtruders,
;   extruderName,Primary Extruder
;   extruderToolheadNumber,0
;   extruderDiameter,0.4
;   extruderAutoWidth,0
;   extruderWidth,0.4
;   extrusionMultiplier,1
;   extruderUseRetract,1
;   extruderRetractionDistance,1.9
;   extruderExtraRestartDistance,0
;   extruderRetractionZLift,0.5
;   extruderRetractionSpeed,1200
;   extruderUseCoasting,0
;   extruderCoastingDistance,0.2
;   extruderUseWipe,0
;   extruderWipeDistance,5
;   primaryExtruder,0
;   layerHeight,0.2
;   topSolidLayers,4
;   bottomSolidLayers,3
;   perimeterOutlines,2
;   printPerimetersInsideOut,1
;   startPointOption,3
;   startPointOriginX,140
;   startPointOriginY,0
;   sequentialIslands,0
;   spiralVaseMode,0
;   firstLayerHeightPercentage,100
;   firstLayerWidthPercentage,100
;   firstLayerUnderspeed,0.5
;   useRaft,0
;   raftExtruder,0
;   raftTopLayers,2
;   raftBaseLayers,1
;   raftOffset,1
;   raftSeparationDistance,0.14
;   raftTopInfill,90
;   aboveRaftSpeedMultiplier,0.3
;   useSkirt,0
;   skirtExtruder,0
;   skirtLayers,1
;   skirtOutlines,5
;   skirtOffset,0
;   usePrimePillar,0
;   primePillarExtruder,999
;   primePillarWidth,12
;   primePillarLocation,7
;   primePillarSpeedMultiplier,1
;   useOozeShield,0
;   oozeShieldExtruder,999
;   oozeShieldOffset,2
;   oozeShieldOutlines,1
;   oozeShieldSidewallShape,1
;   oozeShieldSidewallAngle,30
;   oozeShieldSpeedMultiplier,1
;   infillExtruder,0
;   internalInfillPattern,Rectilinear
;   externalInfillPattern,Rectilinear
;   infillPercentage,15
;   outlineOverlapPercentage,20
;   infillExtrusionWidthPercentage,100
;   minInfillLength,5
;   infillLayerInterval,1
;   internalInfillAngles,45,-45
;   overlapInternalInfillAngles,0
;   externalInfillAngles,45,-45
;   generateSupport,1
;   supportExtruder,0
;   supportInfillPercentage,30
;   supportExtraInflation,0.6
;   supportBaseLayers,0
;   denseSupportExtruder,0
;   denseSupportLayers,2
;   denseSupportInfillPercentage,70
;   supportLayerInterval,1
;   supportHorizontalPartOffset,0.3
;   supportUpperSeparationLayers,1
;   supportLowerSeparationLayers,1
;   supportType,0
;   supportGridSpacing,99
;   maxOverhangAngle,45
;   supportAngles,0
;   temperatureName,Primary Extruder,Heated Build Platform
;   temperatureNumber,0,0
;   temperatureSetpointCount,1,1
;   temperatureSetpointLayers,1,1
;   temperatureSetpointTemperatures,210,65
;   temperatureStabilizeAtStartup,1,1
;   temperatureHeatedBed,0,1
;   fanLayers,1,2
;   fanSpeeds,0,100
;   blipFanToFullPower,1
;   adjustSpeedForCooling,1
;   minSpeedLayerTime,15
;   minCoolingSpeedSlowdown,20
;   increaseFanForCooling,1
;   minFanLayerTime,45
;   maxCoolingFanSpeed,100
;   increaseFanForBridging,1
;   bridgingFanSpeed,100
;   use5D,1
;   relativeEdistances,1
;   allowEaxisZeroing,0
;   independentExtruderAxes,1
;   includeM10123,0
;   stickySupport,1
;   applyToolheadOffsets,0
;   gcodeXoffset,0
;   gcodeYoffset,0
;   gcodeZoffset,0
;   overrideMachineDefinition,1
;   machineTypeOverride,0
;   strokeXoverride,280
;   strokeYoverride,150
;   strokeZoverride,150
;   originOffsetXoverride,140
;   originOffsetYoverride,75
;   originOffsetZoverride,0
;   homeXdirOverride,1
;   homeYdirOverride,1
;   homeZdirOverride,-1
;   flipXoverride,1
;   flipYoverride,-1
;   flipZoverride,1
;   toolheadOffsets,0,0|0,0|0,0|0,0|0,0|0,0
;   overrideFirmwareConfiguration,1
;   firmwareTypeOverride,MakerBot/Sailfish Firmware
;   GPXconfigOverride,r2h
;   baudRateOverride,115200
;   overridePrinterModels,1
;   printerModelsOverride,MakerBot_Replicator2.stl
;   startingGcode,; **** Replicator 2 start.gcode ****,M73 P0 ; enable build progress,G162 X Y F3000 ; home XY maximum,G161 Z F1200 ; home Z minimum,G92 Z-5 ; set Z to -5,G1 Z0 ; move Z to 0,G28 ; better homing homie,M132 X Y Z A B ; recall home offsets,G1 X-145 Y-75 Z30 F9000 ; move to wait position off table,G130 X20 Y20 Z20 A20 B20 ; lower stepper Vrefs while heating,M126 S[fan_speed_pwm],M140 S[bed0_temperature] T0,M134 T0 ; stabilize bed temperature,M104 S[extruder0_temperature] T0,M133 T0 ; stabilize extruder temperature,G130 X127 Y127 Z40 A127 B127 ; default stepper Vrefs,G92 A0 ; zero extruder,G1 Z0.4 ; position nozzle,G1 E25 F300 ; purge nozzle,G1 X-140 Y-70 Z0.15 F1200 ; slow wipe,G1 X-135 Y-65 Z0.5 F1200 ; lift,G92 A0 ; zero extruder,M73 P1 ;@body (notify GPX body has started),; **** end of start.gcode ****
;   layerChangeGcode,
;   retractionGcode,
;   toolChangeGcode,
;   endingGcode,; **** Replicator 2 end.gcode ****,M73 P100 ; end build progress,G1 Z155 F1000 ; send Z axis to bottom of machine,M104 S0 T0 ; cool down extruder,M140 S0 T0 ; cool down HBP,M127 ; stop blower fan,G162 X Y F3000 ; home XY maximum,M18 ; disable stepper,M0 ; stop codes,M72 P1 ; play Ta-Da song,; **** end of end.gcode ****
;   exportFileFormat,gcode
;   celebration,0
;   celebrationSong,Random Song
;   postProcessing,
;   defaultSpeed,4800
;   outlineUnderspeed,0.5
;   solidInfillUnderspeed,1
;   supportUnderspeed,1
;   rapidXYspeed,9000
;   rapidZspeed,1200
;   minBridgingArea,50
;   bridgingExtraInflation,0
;   bridgingExtrusionMultiplier,1
;   bridgingSpeedMultiplier,0.8
;   useFixedBridgingAngle,0
;   fixedBridgingAngle,0
;   applyBridgingToPerimeters,0
;   filamentDiameters,1.75|1.75|1.75|1.75|1.75|1.75
;   filamentPricesPerKg,46|46|46|46|46|46
;   filamentDensities,1.25|1.25|1.25|1.25|1.25|1.25
;   useMinPrintHeight,0
;   minPrintHeight,0
;   useMaxPrintHeight,0
;   maxPrintHeight,4.84
;   useDiaphragm,0
;   diaphragmLayerInterval,20
;   robustSlicing,1
;   mergeAllIntoSolid,0
;   onlyRetractWhenCrossingOutline,0
;   retractBetweenLayers,0
;   useRetractionMinTravel,1
;   retractionMinTravel,7
;   retractWhileWiping,1
;   onlyWipeOutlines,1
;   avoidCrossingOutline,0
;   maxMovementDetourFactor,3
;   toolChangeRetractionDistance,12
;   toolChangeExtraRestartDistance,-0.5
;   toolChangeRetractionSpeed,600
;   externalThinWallType,0
;   internalThinWallType,0
;   thinWallAllowedOverlapPercentage,10
;   singleExtrusionMinLength,1
;   singleExtrusionMinPrintingWidthPercentage,50
;   singleExtrusionMaxPrintingWidthPercentage,200
;   singleExtrusionEndpointExtension,0.2
;   horizontalSizeCompensation,0
G90
M83
; **** Replicator 2 start.gcode ****
M73 P0 ; enable build progress
G162 X Y F3000 ; home XY maximum
G161 Z F1200 ; home Z minimum
G92 Z-5 ; set Z to -5
G1 Z0 ; move Z to 0
G28 ; better homing homie
M132 X Y Z A B ; recall home offsets
G1 X-145 Y-75 Z30 F9000 ; move to wait position off table
G130 X20 Y20 Z20 A20 B20 ; lower stepper Vrefs while heating
M127
M140 S65 T0
M134 T0 ; stabilize bed temperature
M104 S210 T0
M133 T0 ; stabilize extruder temperature
G130 X127 Y127 Z40 A127 B127 ; default stepper Vrefs
G92 A0 ; zero extruder
G1 Z0.4 ; position nozzle
G1 E25 F300 ; purge nozzle
G1 X-140 Y-70 Z0.15 F1200 ; slow wipe
G1 X-135 Y-65 Z0.5 F1200 ; lift
G92 A0 ; zero extruder
M73 P1 ;@body (notify GPX body has started)
; **** end of start.gcode ****
; process Process1
; layer 1, Z = 0.200
M135 T0
G1 E-1.9000 F1200
; feature inner perimeter
; tool H0.200 W0.400
G1 Z0.500 F1200
G1 X24.100 Y-0.000 F9000
G1 Z0.200 F1200
G1 E1.9000 F1200
G1 X24.087 Y0.515 E0.0171 F1800
G1 X24.049 Y1.029 E0.0171
G1 X23.986 Y1.541 E0.0171
G1 X23.898 Y2.049 E0.0171
G1 X23.785 Y2.551 E0.0171
G1 X23.648 Y3.048 E0.0171
G1 X23.486 Y3.537 E0.0171
G1 X23.301 Y4.018 E0.0171
G1 X23.092 Y4.489 E0.0171
G1 X22.860 Y4.950 E0.0171
G1 X22.606 Y5.398 E0.0171
G1 X22.330 Y5.833 E0.0171
G1 X22.033 Y6.255 E0.0171
G1 X21.717 Y6.661 E0.0171
G1 X21.380 Y7.051 E0.0171
G1 X21.024 Y7.425 E0.0171
G1 X20.651 Y7.780 E0.0171
G1 X20.261 Y8.116 E0.0171
G1 X19.855 Y8.434 E0.0171
G1 X19.433 Y8.730 E0.0171
G1 X18.998 Y9.006 E0.0171
G1 X18.550 Y9.260 E0.0171
G1 X18.089 Y9.492 E0.0171
G1 X17.618 Y9.701 E0.0171
G1 X17.137 Y9.886 E0.0171
G1 X16.648 Y10.048 E0.0171
G1 X16.151 Y10.185 E0.0171
G1 X15.649 Y10.298 E0.0171
G1 X15.141 Y10.386 E0.0171
G1 X14.629 Y10.449 E0.0171
G1 X14.115 Y10.487 E0.0171
G1 X13.600 Y10.500 E0.0171
G1 X13.085 Y10.487 E0.0171
G1 X12.571 Y10.449 E0.0171
G1 X12.059 Y10.386 E0.0171
G1 X11.552 Y10.298 E0.0171
G1 X11.049 Y10.185 E0.0171
G1 X10.552 Y10.048 E0.0171
G1 X10.063 Y9.886 E0.0171
G1 X9.582 Y9.700 E0.0171
G1 X9.111 Y9.492 E0.0171
G1 X8.651 Y9.260 E0.0171
G1 X8.202 Y9.006 E0.0171
G1 X7.767 Y8.730 E0.0171
G1 X7.345 Y8.434 E0.0171
G1 X6.939 Y8.116 E0.0171
G1 X6.549 Y7.780 E0.0171
G1 X6.175 Y7.424 E0.0171
G1 X5.820 Y7.051 E0.0171
G1 X5.484 Y6.661 E0.0171
G1 X5.166 Y6.255 E0.0171
G1 X4.870 Y5.833 E0.0171
G1 X4.594 Y5.398 E0.0171
G1 X4.340 Y4.950 E0.0171
G1 X4.108 Y4.489 E0.0171
G1 X3.899 Y4.018 E0.0171
G1 X3.714 Y3.537 E0.0171
G1 X3.552 Y3.048 E0.0171
G1 X3.415 Y2.551 E0.0171
G1 X3.302 Y2.049 E0.0171
G1 X3.214 Y1.541 E0.0171
G1 X3.151 Y1.029 E0.0171
G1 X3.113 Y0.515 E0.0171
G1 X3.100 Y-0.000 E0.0171
G1 X3.113 Y-0.515 E0.0171
G1 X3.151 Y-1.029 E0.0171
G1 X3.214 Y-1.541 E0.0171
G1 X3.302 Y-2.049 E0.0171
G1 X3.415 Y-2.551 E0.0171
G1 X3.552 Y-3.048 E0.0171
G1 X3.714 Y-3.537 E0.0171
G1 X3.899 Y-4.018 E0.0171
G1 X4.108 Y-4.489 E0.0171
G1 X4.340 Y-4.949 E0.0171
G1 X4.594 Y-5.398 E0.0171
G1 X4.870 Y-5.834 E0.0171
G1 X5.166 Y-6.255 E0.0171
G1 X5.484 Y-6.661 E0.0171
G1 X5.803 Y-7.031 E0.0163
G1 X6.176 Y-7.425 E0.0180
G1 X6.549 Y-7.780 E0.0171
G1 X6.939 Y-8.116 E0.0171
G1 X7.345 Y-8.434 E0.0171
G1 X7.767 Y-8.730 E0.0171
G1 X8.202 Y-9.006 E0.0171
G1 X8.651 Y-9.260 E0.0172
G1 X9.111 Y-9.492 E0.0171
G1 X9.582 Y-9.701 E0.0171
G1 X10.063 Y-9.886 E0.0172
G1 X10.552 Y-10.048 E0.0171
G1 X11.049 Y-10.185 E0.0171
G1 X11.552 Y-10.298 E0.0171
G1 X12.059 Y-10.386 E0.0171
G1 X12.571 Y-10.449 E0.0171
G1 X13.085 Y-10.487 E0.0171
G1 X13.600 Y-10.500 E0.0171
G1 X14.115 Y-10.487 E0.0171
G1 X14.629 Y-10.449 E0.0171
G1 X15.141 Y-10.386 E0.0171
G1 X15.649 Y-10.298 E0.0171
G1 X16.151 Y-10.185 E0.0171
G1 X16.648 Y-10.048 E0.0171
G1 X17.137 Y-9.886 E0.0171
G1 X17.618 Y-9.701 E0.0171
G1 X18.089 Y-9.492 E0.0172
G1 X18.550 Y-9.260 E0.0171
G1 X18.998 Y-9.006 E0.0171
G1 X19.433 Y-8.730 E0.0171
G1 X19.855 Y-8.434 E0.0171
G1 X20.261 Y-8.116 E0.0171
G1 X20.651 Y-7.780 E0.0171
G1 X21.024 Y-7.424 E0.0171
G1 X21.380 Y-7.051 E0.0171
G1 X21.716 Y-6.661 E0.0171
G1 X22.034 Y-6.255 E0.0171
G1 X22.330 Y-5.833 E0.0171
G1 X22.606 Y-5.398 E0.0171
G1 X22.860 Y-4.950 E0.0171
G1 X23.092 Y-4.489 E0.0171
G1 X23.300 Y-4.018 E0.0171
G1 X23.486 Y-3.537 E0.0171
G1 X23.648 Y-3.048 E0.0171
G1 X23.785 Y-2.551 E0.0171
G1 X23.898 Y-2.049 E0.0171
G1 X23.986 Y-1.541 E0.0171
G1 X24.049 Y-1.029 E0.0171
G1 X24.087 Y-0.515 E0.0171
G1 X24.100 Y-0.000 E0.0171
; feature outer perimeter
G1 X24.500 Y-0.000 F9000
G1 X24.487 Y0.535 E0.0178 F1200
G1 X24.447 Y1.068 E0.0178
G1 X24.382 Y1.599 E0.0178
G1 X24.290 Y2.127 E0.0178
G1 X24.173 Y2.648 E0.0178
G1 X24.031 Y3.164 E0.0178
G1 X23.863 Y3.672 E0.0178
G1 X23.670 Y4.171 E0.0178
G1 X23.453 Y4.660 E0.0178
G1 X23.213 Y5.138 E0.0178
G1 X22.949 Y5.604 E0.0178
G1 X22.663 Y6.056 E0.0178
G1 X22.355 Y6.493 E0.0178
G1 X22.026 Y6.915 E0.0178
G1 X21.676 Y7.320 E0.0178
G1 X21.307 Y7.707 E0.0178
G1 X20.920 Y8.076 E0.0178
G1 X20.515 Y8.426 E0.0178
G1 X20.093 Y8.755 E0.0178
G1 X19.656 Y9.063 E0.0178
G1 X19.204 Y9.349 E0.0178
G1 X18.738 Y9.613 E0.0178
G1 X18.260 Y9.853 E0.0178
G1 X17.771 Y10.070 E0.0178
G1 X17.272 Y10.263 E0.0178
G1 X16.764 Y10.431 E0.0178
G1 X16.248 Y10.573 E0.0178
G1 X15.727 Y10.690 E0.0178
G1 X15.199 Y10.782 E0.0178
G1 X14.668 Y10.847 E0.0178
G1 X14.135 Y10.887 E0.0178
G1 X13.600 Y10.900 E0.0178
G1 X13.065 Y10.887 E0.0178
G1 X12.532 Y10.847 E0.0178
G1 X12.001 Y10.782 E0.0178
G1 X11.473 Y10.690 E0.0178
G1 X10.951 Y10.573 E0.0178
G1 X10.436 Y10.431 E0.0178
G1 X9.928 Y10.263 E0.0178
G1 X9.429 Y10.070 E0.0178
G1 X8.940 Y9.853 E0.0178
G1 X8.462 Y9.613 E0.0178
G1 X7.996 Y9.349 E0.0178
G1 X7.544 Y9.063 E0.0178
G1 X7.107 Y8.755 E0.0178
G1 X6.685 Y8.426 E0.0178
G1 X6.280 Y8.076 E0.0178
G1 X5.893 Y7.707 E0.0178
G1 X5.524 Y7.320 E0.0178
G1 X5.174 Y6.915 E0.0178
G1 X4.845 Y6.493 E0.0178
G1 X4.537 Y6.056 E0.0178
G1 X4.251 Y5.604 E0.0178
G1 X3.987 Y5.138 E0.0178
G1 X3.747 Y4.660 E0.0178
G1 X3.530 Y4.171 E0.0178
G1 X3.337 Y3.672 E0.0178
G1 X3.169 Y3.164 E0.0178
G1 X3.027 Y2.648 E0.0178
G1 X2.910 Y2.127 E0.0178
G1 X2.818 Y1.599 E0.0178
G1 X2.753 Y1.068 E0.0178
G1 X2.713 Y0.535 E0.0178
G1 X2.700 Y-0.000 E0.0178
G1 X2.713 Y-0.535 E0.0178
G1 X2.753 Y-1.068 E0.0178
G1 X2.818 Y-1.599 E0.0178
G1 X2.910 Y-2.127 E0.0178
G1 X3.027 Y-2.648 E0.0178
G1 X3.169 Y-3.164 E0.0178
G1 X3.337 Y-3.672 E0.0178
G1 X3.530 Y-4.171 E0.0178
G1 X3.747 Y-4.660 E0.0178
G1 X3.987 Y-5.138 E0.0178
G1 X4.251 Y-5.604 E0.0178
G1 X4.537 Y-6.056 E0.0178
G1 X4.845 Y-6.493 E0.0178
G1 X5.174 Y-6.915 E0.0178
G1 X5.506 Y-7.300 E0.0169
G1 X5.893 Y-7.708 E0.0187
G1 X6.280 Y-8.076 E0.0178
G1 X6.685 Y-8.426 E0.0178
G1 X7.107 Y-8.755 E0.0178
G1 X7.544 Y-9.063 E0.0178
G1 X7.996 Y-9.349 E0.0178
G1 X8.462 Y-9.613 E0.0178
G1 X8.940 Y-9.853 E0.0178
G1 X9.429 Y-10.070 E0.0178
G1 X9.928 Y-10.263 E0.0178
G1 X10.436 Y-10.431 E0.0178
G1 X10.951 Y-10.573 E0.0178
G1 X11.473 Y-10.690 E0.0178
G1 X12.001 Y-10.782 E0.0178
G1 X12.532 Y-10.847 E0.0178
G1 X13.065 Y-10.887 E0.0178
G1 X13.600 Y-10.900 E0.0178
G1 X14.135 Y-10.887 E0.0178
G1 X14.668 Y-10.847 E0.0178
G1 X15.199 Y-10.782 E0.0178
G1 X15.727 Y-10.690 E0.0178
G1 X16.248 Y-10.573 E0.0178
G1 X16.764 Y-10.431 E0.0178
G1 X17.272 Y-10.263 E0.0178
G1 X17.771 Y-10.070 E0.0178
G1 X18.260 Y-9.853 E0.0178
G1 X18.738 Y-9.613 E0.0178
G1 X19.204 Y-9.349 E0.0178
G1 X19.656 Y-9.063 E0.0178
G1 X20.093 Y-8.755 E0.0178
G1 X20.515 Y-8.426 E0.0178
G1 X20.920 Y-8.076 E0.0178
G1 X21.307 Y-7.707 E0.0178
G1 X21.676 Y-7.320 E0.0178
G1 X22.026 Y-6.915 E0.0178
G1 X22.355 Y-6.493 E0.0178
G1 X22.663 Y-6.056 E0.0178
G1 X22.949 Y-5.604 E0.0178
G1 X23.213 Y-5.138 E0.0178
G1 X23.453 Y-4.660 E0.0178
G1 X23.670 Y-4.171 E0.0178
G1 X23.863 Y-3.672 E0.0178
G1 X24.031 Y-3.164 E0.0178
G1 X24.173 Y-2.648 E0.0178
G1 X24.290 Y-2.127 E0.0178
G1 X24.382 Y-1.599 E0.0178
G1 X24.447 Y-1.068 E0.0178
G1 X24.487 Y-0.535 E0.0178
G1 X24.500 Y-0.000 E0.0178
G1 E-1.9000 F1200
; feature inner perimeter
G1 Z0.700 F1200
G1 X16.697 Y-0.152 F9000
G1 Z0.200 F1200
G1 E1.9000 F1200
G1 X16.667 Y-0.455 E0.0101 F1800
G1 X16.608 Y-0.753 E0.0101
G1 X16.519 Y-1.045 E0.0101
G1 X16.403 Y-1.326 E0.0101
G1 X16.260 Y-1.594 E0.0101
G1 X16.091 Y-1.847 E0.0101
G1 X15.897 Y-2.082 E0.0101
G1 X15.682 Y-2.297 E0.0101
G1 X15.447 Y-2.491 E0.0101
G1 X15.194 Y-2.660 E0.0101
G1 X14.926 Y-2.803 E0.0101
G1 X14.645 Y-2.919 E0.0101
G1 X14.353 Y-3.008 E0.0101
G1 X14.055 Y-3.067 E0.0101
G1 X13.752 Y-3.097 E0.0101
G1 X13.448 Y-3.097 E0.0101
G1 X13.145 Y-3.067 E0.0101
G1 X12.847 Y-3.008 E0.0101
G1 X12.555 Y-2.919 E0.0101
G1 X12.274 Y-2.803 E0.0101
G1 X12.006 Y-2.660 E0.0101
G1 X11.747 Y-2.486 E0.0104
G1 X11.412 Y-2.198 E0.0147
G1 X11.203 Y-1.967 E0.0104
G1 X11.022 Y-1.723 E0.0101
G1 X10.865 Y-1.462 E0.0101
G1 X10.735 Y-1.187 E0.0101
G1 X10.633 Y-0.900 E0.0101
G1 X10.559 Y-0.605 E0.0101
G1 X10.514 Y-0.304 E0.0101
G1 X10.499 Y0.007 E0.0104
G1 X10.531 Y0.448 E0.0147
G1 X10.592 Y0.753 E0.0104
G1 X10.681 Y1.045 E0.0101
G1 X10.797 Y1.326 E0.0101
G1 X10.940 Y1.594 E0.0101
G1 X11.109 Y1.847 E0.0101
G1 X11.303 Y2.082 E0.0101
G1 X11.518 Y2.297 E0.0101
G1 X11.753 Y2.491 E0.0101
G1 X12.006 Y2.660 E0.0101
G1 X12.274 Y2.803 E0.0101
G1 X12.555 Y2.919 E0.0101
G1 X12.847 Y3.008 E0.0101
