; G-Code generated by Simplify3D(R) Version 4.1.2
; Jun 25, 2020 at 11:19:16 AM
; Settings Summary
;   processName,Process1
;   applyToModels,MasherBig,MasherBig(2),MasherBig(3),MasherBig(4),MasherBig(5),MasherBig(6),MasherBig(7),MasherBig(2)(2),MasherBig(3)(2),MasherBig(4)(2),MasherBig(5)(2),MasherBig(6)(2)
;   profileName,MakerBot Replicator 2 HBP (modified)
;   profileVersion,2020-04-21 14:45:34
;   baseProfile,MakerBot Replicator 2(2)
;   printMaterial,PLA
;   printQuality,Medium
;   printExtruders,
;   extruderName,Primary Extruder
;   extruderToolheadNumber,0
;   extruderDiameter,0.4
;   extruderAutoWidth,0
;   extruderWidth,0.4
;   extrusionMultiplier,1
;   extruderUseRetract,1
;   extruderRetractionDistance,1.9
;   extruderExtraRestartDistance,0
;   extruderRetractionZLift,0.5
;   extruderRetractionSpeed,1200
;   extruderUseCoasting,0
;   extruderCoastingDistance,0.2
;   extruderUseWipe,0
;   extruderWipeDistance,5
;   primaryExtruder,0
;   layerHeight,0.2
;   topSolidLayers,4
;   bottomSolidLayers,3
;   perimeterOutlines,2
;   printPerimetersInsideOut,1
;   startPointOption,3
;   startPointOriginX,140
;   startPointOriginY,0
;   sequentialIslands,0
;   spiralVaseMode,0
;   firstLayerHeightPercentage,100
;   firstLayerWidthPercentage,100
;   firstLayerUnderspeed,0.5
;   useRaft,0
;   raftExtruder,0
;   raftTopLayers,2
;   raftBaseLayers,1
;   raftOffset,1
;   raftSeparationDistance,0.14
;   raftTopInfill,90
;   aboveRaftSpeedMultiplier,0.3
;   useSkirt,0
;   skirtExtruder,0
;   skirtLayers,1
;   skirtOutlines,5
;   skirtOffset,0
;   usePrimePillar,0
;   primePillarExtruder,999
;   primePillarWidth,12
;   primePillarLocation,7
;   primePillarSpeedMultiplier,1
;   useOozeShield,0
;   oozeShieldExtruder,999
;   oozeShieldOffset,2
;   oozeShieldOutlines,1
;   oozeShieldSidewallShape,1
;   oozeShieldSidewallAngle,30
;   oozeShieldSpeedMultiplier,1
;   infillExtruder,0
;   internalInfillPattern,Rectilinear
;   externalInfillPattern,Rectilinear
;   infillPercentage,15
;   outlineOverlapPercentage,20
;   infillExtrusionWidthPercentage,100
;   minInfillLength,5
;   infillLayerInterval,1
;   internalInfillAngles,45,-45
;   overlapInternalInfillAngles,0
;   externalInfillAngles,45,-45
;   generateSupport,1
;   supportExtruder,0
;   supportInfillPercentage,30
;   supportExtraInflation,0.6
;   supportBaseLayers,0
;   denseSupportExtruder,0
;   denseSupportLayers,2
;   denseSupportInfillPercentage,70
;   supportLayerInterval,1
;   supportHorizontalPartOffset,0.3
;   supportUpperSeparationLayers,1
;   supportLowerSeparationLayers,1
;   supportType,0
;   supportGridSpacing,99
;   maxOverhangAngle,45
;   supportAngles,0
;   temperatureName,Primary Extruder,Heated Build Platform
;   temperatureNumber,0,0
;   temperatureSetpointCount,1,1
;   temperatureSetpointLayers,1,1
;   temperatureSetpointTemperatures,210,65
;   temperatureStabilizeAtStartup,1,1
;   temperatureHeatedBed,0,1
;   fanLayers,1,2
;   fanSpeeds,0,100
;   blipFanToFullPower,1
;   adjustSpeedForCooling,1
;   minSpeedLayerTime,15
;   minCoolingSpeedSlowdown,20
;   increaseFanForCooling,1
;   minFanLayerTime,45
;   maxCoolingFanSpeed,100
;   increaseFanForBridging,1
;   bridgingFanSpeed,100
;   use5D,1
;   relativeEdistances,1
;   allowEaxisZeroing,0
;   independentExtruderAxes,1
;   includeM10123,0
;   stickySupport,1
;   applyToolheadOffsets,0
;   gcodeXoffset,0
;   gcodeYoffset,0
;   gcodeZoffset,0
;   overrideMachineDefinition,1
;   machineTypeOverride,0
;   strokeXoverride,280
;   strokeYoverride,150
;   strokeZoverride,150
;   originOffsetXoverride,140
;   originOffsetYoverride,75
;   originOffsetZoverride,0
;   homeXdirOverride,1
;   homeYdirOverride,1
;   homeZdirOverride,-1
;   flipXoverride,1
;   flipYoverride,-1
;   flipZoverride,1
;   toolheadOffsets,0,0|0,0|0,0|0,0|0,0|0,0
;   overrideFirmwareConfiguration,1
;   firmwareTypeOverride,MakerBot/Sailfish Firmware
;   GPXconfigOverride,r2h
;   baudRateOverride,115200
;   overridePrinterModels,1
;   printerModelsOverride,MakerBot_Replicator2.stl
;   startingGcode,; **** Replicator 2 start.gcode ****,M73 P0 ; enable build progress,G162 X Y F3000 ; home XY maximum,G161 Z F1200 ; home Z minimum,G92 Z-5 ; set Z to -5,G1 Z0 ; move Z to 0,G28 ; better homing homie,M132 X Y Z A B ; recall home offsets,G1 X-145 Y-75 Z30 F9000 ; move to wait position off table,G130 X20 Y20 Z20 A20 B20 ; lower stepper Vrefs while heating,M126 S[fan_speed_pwm],M140 S[bed0_temperature] T0,M134 T0 ; stabilize bed temperature,M104 S[extruder0_temperature] T0,M133 T0 ; stabilize extruder temperature,G130 X127 Y127 Z40 A127 B127 ; default stepper Vrefs,G92 A0 ; zero extruder,G1 Z0.4 ; position nozzle,G1 E25 F300 ; purge nozzle,G1 X-140 Y-70 Z0.15 F1200 ; slow wipe,G1 X-135 Y-65 Z0.5 F1200 ; lift,G92 A0 ; zero extruder,M73 P1 ;@body (notify GPX body has started),; **** end of start.gcode ****
;   layerChangeGcode,
;   retractionGcode,
;   toolChangeGcode,
;   endingGcode,; **** Replicator 2 end.gcode ****,M73 P100 ; end build progress,G1 Z155 F1000 ; send Z axis to bottom of machine,M104 S0 T0 ; cool down extruder,M140 S0 T0 ; cool down HBP,M127 ; stop blower fan,G162 X Y F3000 ; home XY maximum,M18 ; disable stepper,M0 ; stop codes,M72 P1 ; play Ta-Da song,; **** end of end.gcode ****
;   exportFileFormat,gcode
;   celebration,0
;   celebrationSong,Random Song
;   postProcessing,
;   defaultSpeed,4800
;   outlineUnderspeed,0.5
;   solidInfillUnderspeed,1
;   supportUnderspeed,1
;   rapidXYspeed,9000
;   rapidZspeed,1200
;   minBridgingArea,50
;   bridgingExtraInflation,0
;   bridgingExtrusionMultiplier,1
;   bridgingSpeedMultiplier,0.8
;   useFixedBridgingAngle,0
;   fixedBridgingAngle,0
;   applyBridgingToPerimeters,0
;   filamentDiameters,1.75|1.75|1.75|1.75|1.75|1.75
;   filamentPricesPerKg,46|46|46|46|46|46
;   filamentDensities,1.25|1.25|1.25|1.25|1.25|1.25
;   useMinPrintHeight,0
;   minPrintHeight,0
;   useMaxPrintHeight,0
;   maxPrintHeight,4.84
;   useDiaphragm,0
;   diaphragmLayerInterval,20
;   robustSlicing,1
;   mergeAllIntoSolid,0
;   onlyRetractWhenCrossingOutline,0
;   retractBetweenLayers,0
;   useRetractionMinTravel,1
;   retractionMinTravel,7
;   retractWhileWiping,1
;   onlyWipeOutlines,1
;   avoidCrossingOutline,0
;   maxMovementDetourFactor,3
;   toolChangeRetractionDistance,12
;   toolChangeExtraRestartDistance,-0.5
;   toolChangeRetractionSpeed,600
;   externalThinWallType,0
;   internalThinWallType,0
;   thinWallAllowedOverlapPercentage,10
;   singleExtrusionMinLength,1
;   singleExtrusionMinPrintingWidthPercentage,50
;   singleExtrusionMaxPrintingWidthPercentage,200
;   singleExtrusionEndpointExtension,0.2
;   horizontalSizeCompensation,0
G90
M83
; **** Replicator 2 start.gcode ****
M73 P0 ; enable build progress
G162 X Y F3000 ; home XY maximum
G161 Z F1200 ; home Z minimum
G92 Z-5 ; set Z to -5
G1 Z0 ; move Z to 0
G28 ; better homing homie
M132 X Y Z A B ; recall home offsets
G1 X-145 Y-75 Z30 F9000 ; move to wait position off table
G130 X20 Y20 Z20 A20 B20 ; lower stepper Vrefs while heating
M127
M140 S65 T0
M134 T0 ; stabilize bed temperature
M104 S210 T0
M133 T0 ; stabilize extruder temperature
G130 X127 Y127 Z40 A127 B127 ; default stepper Vrefs
G92 A0 ; zero extruder
G1 Z0.4 ; position nozzle
G1 E25 F300 ; purge nozzle
G1 X-140 Y-70 Z0.15 F1200 ; slow wipe
G1 X-135 Y-65 Z0.5 F1200 ; lift
G92 A0 ; zero extruder
M73 P1 ;@body (notify GPX body has started)
; **** end of start.gcode ****
; process Process1
; layer 1, Z = 0.200
M135 T0
G1 E-1.9000 F1200
; feature inner perimeter
; tool H0.200 W0.400
G1 Z0.500 F1200
G1 X12.100 Y-0.000 F9000
G1 Z0.200 F1200
G1 E1.9000 F1200
G1 X12.085 Y0.594 E0.0197 F1800
G1 X12.042 Y1.186 E0.0198
G1 X11.969 Y1.775 E0.0197
G1 X11.867 Y2.361 E0.0198
G1 X11.737 Y2.940 E0.0198
G1 X11.579 Y3.512 E0.0197
G1 X11.393 Y4.076 E0.0198
G1 X11.179 Y4.630 E0.0198
G1 X10.938 Y5.173 E0.0197
G1 X10.671 Y5.704 E0.0198
G1 X10.378 Y6.221 E0.0198
G1 X10.061 Y6.722 E0.0198
G1 X9.719 Y7.208 E0.0198
G1 X9.353 Y7.676 E0.0197
G1 X8.965 Y8.126 E0.0198
G1 X8.556 Y8.556 E0.0197
G1 X8.126 Y8.965 E0.0197
G1 X7.676 Y9.353 E0.0198
G1 X7.208 Y9.719 E0.0197
G1 X6.722 Y10.061 E0.0198
G1 X6.221 Y10.378 E0.0197
G1 X5.704 Y10.671 E0.0198
G1 X5.173 Y10.938 E0.0197
G1 X4.631 Y11.179 E0.0197
G1 X4.076 Y11.392 E0.0198
G1 X3.512 Y11.579 E0.0198
G1 X2.940 Y11.737 E0.0198
G1 X2.361 Y11.867 E0.0197
G1 X1.775 Y11.969 E0.0198
G1 X1.186 Y12.042 E0.0198
G1 X0.594 Y12.085 E0.0198
G1 X0.000 Y12.100 E0.0197
G1 X-0.594 Y12.085 E0.0197
G1 X-1.186 Y12.042 E0.0198
G1 X-1.775 Y11.969 E0.0197
G1 X-2.361 Y11.867 E0.0198
G1 X-2.940 Y11.737 E0.0198
G1 X-3.512 Y11.579 E0.0197
G1 X-4.076 Y11.393 E0.0198
G1 X-4.631 Y11.179 E0.0198
G1 X-5.173 Y10.938 E0.0197
G1 X-5.704 Y10.671 E0.0197
G1 X-6.221 Y10.378 E0.0198
G1 X-6.722 Y10.061 E0.0197
G1 X-7.208 Y9.719 E0.0198
G1 X-7.676 Y9.353 E0.0198
G1 X-8.126 Y8.965 E0.0197
G1 X-8.556 Y8.556 E0.0198
G1 X-8.965 Y8.126 E0.0197
G1 X-9.353 Y7.676 E0.0198
G1 X-9.719 Y7.208 E0.0197
G1 X-10.061 Y6.722 E0.0198
G1 X-10.378 Y6.221 E0.0197
G1 X-10.671 Y5.704 E0.0198
G1 X-10.938 Y5.173 E0.0197
G1 X-11.179 Y4.630 E0.0198
G1 X-11.393 Y4.076 E0.0198
G1 X-11.579 Y3.512 E0.0198
G1 X-11.737 Y2.940 E0.0197
G1 X-11.867 Y2.361 E0.0198
G1 X-11.969 Y1.775 E0.0198
G1 X-12.042 Y1.186 E0.0197
G1 X-12.085 Y0.594 E0.0198
G1 X-12.100 Y-0.000 E0.0197
G1 X-12.085 Y-0.594 E0.0197
G1 X-12.042 Y-1.186 E0.0198
G1 X-11.969 Y-1.775 E0.0197
G1 X-11.867 Y-2.361 E0.0198
G1 X-11.737 Y-2.940 E0.0197
G1 X-11.579 Y-3.512 E0.0197
G1 X-11.393 Y-4.076 E0.0198
G1 X-11.179 Y-4.631 E0.0198
G1 X-10.938 Y-5.173 E0.0197
G1 X-10.671 Y-5.704 E0.0198
G1 X-10.378 Y-6.221 E0.0198
G1 X-10.061 Y-6.722 E0.0198
G1 X-9.719 Y-7.208 E0.0197
G1 X-9.353 Y-7.676 E0.0198
G1 X-8.965 Y-8.126 E0.0198
G1 X-8.556 Y-8.556 E0.0198
G1 X-8.126 Y-8.965 E0.0198
G1 X-7.699 Y-9.333 E0.0187
G1 X-7.207 Y-9.719 E0.0208
G1 X-6.722 Y-10.061 E0.0197
G1 X-6.221 Y-10.378 E0.0197
G1 X-5.704 Y-10.671 E0.0198
G1 X-5.173 Y-10.938 E0.0198
G1 X-4.630 Y-11.179 E0.0197
G1 X-4.076 Y-11.393 E0.0198
G1 X-3.512 Y-11.579 E0.0198
G1 X-2.940 Y-11.737 E0.0198
G1 X-2.361 Y-11.867 E0.0197
G1 X-1.775 Y-11.969 E0.0198
G1 X-1.186 Y-12.042 E0.0197
G1 X-0.594 Y-12.085 E0.0198
G1 X0.000 Y-12.100 E0.0197
G1 X0.594 Y-12.085 E0.0197
G1 X1.186 Y-12.042 E0.0198
G1 X1.775 Y-11.969 E0.0197
G1 X2.361 Y-11.867 E0.0198
G1 X2.940 Y-11.737 E0.0198
G1 X3.512 Y-11.579 E0.0197
G1 X4.076 Y-11.393 E0.0198
G1 X4.631 Y-11.179 E0.0198
G1 X5.173 Y-10.938 E0.0197
G1 X5.704 Y-10.671 E0.0198
G1 X6.221 Y-10.378 E0.0198
G1 X6.722 Y-10.061 E0.0198
G1 X7.208 Y-9.719 E0.0198
G1 X7.676 Y-9.353 E0.0198
G1 X8.126 Y-8.965 E0.0198
G1 X8.556 Y-8.556 E0.0198
G1 X8.965 Y-8.126 E0.0197
G1 X9.353 Y-7.676 E0.0198
G1 X9.719 Y-7.208 E0.0197
G1 X10.061 Y-6.722 E0.0198
G1 X10.378 Y-6.221 E0.0197
G1 X10.671 Y-5.704 E0.0198
G1 X10.938 Y-5.173 E0.0197
G1 X11.179 Y-4.631 E0.0197
G1 X11.393 Y-4.076 E0.0198
G1 X11.579 Y-3.512 E0.0197
G1 X11.737 Y-2.940 E0.0197
G1 X11.867 Y-2.361 E0.0198
G1 X11.969 Y-1.775 E0.0198
G1 X12.042 Y-1.186 E0.0197
G1 X12.085 Y-0.594 E0.0198
G1 X12.100 Y-0.000 E0.0197
; feature outer perimeter
G1 X12.500 Y-0.000 F9000
G1 X12.485 Y0.613 E0.0204 F1200
G1 X12.440 Y1.225 E0.0204
G1 X12.365 Y1.834 E0.0204
G1 X12.260 Y2.439 E0.0204
G1 X12.125 Y3.037 E0.0204
G1 X11.962 Y3.628 E0.0204
G1 X11.769 Y4.211 E0.0204
G1 X11.548 Y4.784 E0.0204
G1 X11.300 Y5.344 E0.0204
G1 X11.024 Y5.892 E0.0204
G1 X10.722 Y6.426 E0.0204
G1 X10.393 Y6.945 E0.0204
G1 X10.040 Y7.446 E0.0204
G1 X9.663 Y7.930 E0.0204
G1 X9.262 Y8.394 E0.0204
G1 X8.839 Y8.839 E0.0204
G1 X8.394 Y9.262 E0.0204
G1 X7.930 Y9.663 E0.0204
G1 X7.446 Y10.040 E0.0204
G1 X6.945 Y10.393 E0.0204
G1 X6.426 Y10.722 E0.0204
G1 X5.892 Y11.024 E0.0204
G1 X5.344 Y11.300 E0.0204
G1 X4.784 Y11.548 E0.0204
G1 X4.211 Y11.769 E0.0204
G1 X3.629 Y11.962 E0.0204
G1 X3.037 Y12.125 E0.0204
G1 X2.439 Y12.260 E0.0204
G1 X1.834 Y12.365 E0.0204
G1 X1.225 Y12.440 E0.0204
G1 X0.613 Y12.485 E0.0204
G1 X0.000 Y12.500 E0.0204
G1 X-0.613 Y12.485 E0.0204
G1 X-1.225 Y12.440 E0.0204
G1 X-1.834 Y12.365 E0.0204
G1 X-2.439 Y12.260 E0.0204
G1 X-3.037 Y12.125 E0.0204
G1 X-3.628 Y11.962 E0.0204
G1 X-4.211 Y11.769 E0.0204
G1 X-4.784 Y11.548 E0.0204
G1 X-5.344 Y11.300 E0.0204
G1 X-5.892 Y11.024 E0.0204
G1 X-6.426 Y10.722 E0.0204
G1 X-6.945 Y10.393 E0.0204
G1 X-7.446 Y10.040 E0.0204
G1 X-7.930 Y9.662 E0.0204
G1 X-8.394 Y9.262 E0.0204
G1 X-8.839 Y8.839 E0.0204
G1 X-9.262 Y8.394 E0.0204
G1 X-9.663 Y7.930 E0.0204
G1 X-10.040 Y7.446 E0.0204
G1 X-10.393 Y6.945 E0.0204
G1 X-10.722 Y6.426 E0.0204
G1 X-11.024 Y5.892 E0.0204
G1 X-11.300 Y5.344 E0.0204
G1 X-11.548 Y4.784 E0.0204
G1 X-11.769 Y4.211 E0.0204
G1 X-11.962 Y3.628 E0.0204
G1 X-12.125 Y3.037 E0.0204
G1 X-12.260 Y2.439 E0.0204
G1 X-12.365 Y1.834 E0.0204
G1 X-12.440 Y1.225 E0.0204
G1 X-12.485 Y0.613 E0.0204
G1 X-12.500 Y-0.000 E0.0204
G1 X-12.485 Y-0.613 E0.0204
G1 X-12.440 Y-1.225 E0.0204
G1 X-12.365 Y-1.834 E0.0204
G1 X-12.260 Y-2.439 E0.0204
G1 X-12.125 Y-3.037 E0.0204
G1 X-11.962 Y-3.628 E0.0204
G1 X-11.769 Y-4.211 E0.0204
G1 X-11.548 Y-4.784 E0.0204
G1 X-11.300 Y-5.344 E0.0204
G1 X-11.024 Y-5.892 E0.0204
G1 X-10.721 Y-6.426 E0.0204
G1 X-10.393 Y-6.945 E0.0204
G1 X-10.040 Y-7.446 E0.0204
G1 X-9.662 Y-7.930 E0.0204
G1 X-9.262 Y-8.394 E0.0204
G1 X-8.839 Y-8.839 E0.0204
G1 X-8.394 Y-9.262 E0.0204
G1 X-7.953 Y-9.642 E0.0194
G1 X-7.446 Y-10.040 E0.0214
G1 X-6.945 Y-10.393 E0.0204
G1 X-6.426 Y-10.722 E0.0204
G1 X-5.892 Y-11.024 E0.0204
G1 X-5.344 Y-11.300 E0.0204
G1 X-4.784 Y-11.548 E0.0204
G1 X-4.211 Y-11.769 E0.0204
G1 X-3.628 Y-11.962 E0.0204
G1 X-3.037 Y-12.125 E0.0204
G1 X-2.439 Y-12.260 E0.0204
G1 X-1.834 Y-12.365 E0.0204
G1 X-1.225 Y-12.440 E0.0204
G1 X-0.613 Y-12.485 E0.0204
G1 X0.000 Y-12.500 E0.0204
G1 X0.613 Y-12.485 E0.0204
G1 X1.225 Y-12.440 E0.0204
G1 X1.834 Y-12.365 E0.0204
G1 X2.439 Y-12.260 E0.0204
G1 X3.037 Y-12.125 E0.0204
G1 X3.628 Y-11.962 E0.0204
G1 X4.211 Y-11.769 E0.0204
G1 X4.784 Y-11.548 E0.0204
G1 X5.344 Y-11.300 E0.0204
G1 X5.892 Y-11.024 E0.0204
G1 X6.426 Y-10.722 E0.0204
G1 X6.945 Y-10.393 E0.0204
G1 X7.446 Y-10.040 E0.0204
G1 X7.930 Y-9.663 E0.0204
G1 X8.394 Y-9.262 E0.0204
G1 X8.839 Y-8.839 E0.0204
G1 X9.262 Y-8.394 E0.0204
G1 X9.663 Y-7.930 E0.0204
G1 X10.040 Y-7.446 E0.0204
G1 X10.393 Y-6.945 E0.0204
G1 X10.722 Y-6.426 E0.0204
G1 X11.024 Y-5.892 E0.0204
G1 X11.300 Y-5.344 E0.0204
G1 X11.548 Y-4.784 E0.0204
G1 X11.769 Y-4.211 E0.0204
G1 X11.962 Y-3.628 E0.0204
G1 X12.125 Y-3.037 E0.0204
G1 X12.260 Y-2.439 E0.0204
G1 X12.365 Y-1.834 E0.0204
G1 X12.440 Y-1.225 E0.0204
G1 X12.485 Y-0.613 E0.0204
G1 X12.500 Y-0.000 E0.0204
G1 E-1.9000 F1200
; feature inner perimeter
G1 Z0.700 F1200
G1 X3.101 Y0.000 F9000
G1 Z0.200 F1200
G1 E1.9000 F1200
G1 X3.086 Y-0.304 E0.0101 F1800
G1 X3.041 Y-0.605 E0.0101
G1 X2.967 Y-0.900 E0.0101
G1 X2.865 Y-1.187 E0.0101
G1 X2.735 Y-1.462 E0.0101
G1 X2.578 Y-1.723 E0.0101
G1 X2.397 Y-1.967 E0.0101
G1 X2.193 Y-2.193 E0.0101
G1 X1.967 Y-2.397 E0.0101
G1 X1.723 Y-2.578 E0.0101
G1 X1.462 Y-2.735 E0.0101
G1 X1.187 Y-2.865 E0.0101
G1 X0.900 Y-2.967 E0.0101
G1 X0.605 Y-3.041 E0.0101
G1 X0.304 Y-3.086 E0.0101
G1 X0.000 Y-3.101 E0.0101
G1 X-0.304 Y-3.086 E0.0101
G1 X-0.605 Y-3.041 E0.0101
G1 X-0.900 Y-2.967 E0.0101
G1 X-1.187 Y-2.865 E0.0101
G1 X-1.462 Y-2.735 E0.0101
G1 X-1.723 Y-2.578 E0.0101
G1 X-1.967 Y-2.397 E0.0101
G1 X-2.193 Y-2.193 E0.0101
G1 X-2.397 Y-1.967 E0.0101
G1 X-2.578 Y-1.723 E0.0101
G1 X-2.735 Y-1.462 E0.0101
G1 X-2.865 Y-1.187 E0.0101
G1 X-2.967 Y-0.900 E0.0101
G1 X-3.041 Y-0.605 E0.0101
G1 X-3.086 Y-0.304 E0.0101
G1 X-3.101 Y0.015 E0.0106
G1 X-3.045 Y0.591 E0.0192
G1 X-2.967 Y0.900 E0.0106
G1 X-2.865 Y1.187 E0.0101
G1 X-2.735 Y1.462 E0.0101
G1 X-2.578 Y1.723 E0.0101
G1 X-2.397 Y1.967 E0.0101
G1 X-2.193 Y2.193 E0.0101
G1 X-1.967 Y2.397 E0.0101
G1 X-1.723 Y2.578 E0.0101
G1 X-1.462 Y2.735 E0.0101
G1 X-1.187 Y2.865 E0.0101
G1 X-0.900 Y2.967 E0.0101
G1 X-0.605 Y3.041 E0.0101
G1 X-0.304 Y3.086 E0.0101
G1 X0.000 Y3.101 E0.0101
G1 X0.304 Y3.086 E0.0101
G1 X0.605 Y3.041 E0.0101
G1 X0.900 Y2.967 E0.0101
