; G-Code generated by Simplify3D(R) Version 4.1.2
; May 20, 2020 at 1:50:29 PM
; Settings Summary
;   processName,Process1
;   applyToModels,ST drop bracket,ST drop bracket(2),ST drop bracket(3),ST drop bracket(2)(2)
;   profileName,MakerBot Replicator 2 HBP (modified)
;   profileVersion,2020-04-21 14:45:34
;   baseProfile,MakerBot Replicator 2(2)
;   printMaterial,PLA
;   printQuality,Medium
;   printExtruders,
;   extruderName,Primary Extruder
;   extruderToolheadNumber,0
;   extruderDiameter,0.4
;   extruderAutoWidth,0
;   extruderWidth,0.4
;   extrusionMultiplier,1
;   extruderUseRetract,1
;   extruderRetractionDistance,1.9
;   extruderExtraRestartDistance,0
;   extruderRetractionZLift,0.5
;   extruderRetractionSpeed,1200
;   extruderUseCoasting,0
;   extruderCoastingDistance,0.2
;   extruderUseWipe,0
;   extruderWipeDistance,5
;   primaryExtruder,0
;   layerHeight,0.2
;   topSolidLayers,3
;   bottomSolidLayers,3
;   perimeterOutlines,2
;   printPerimetersInsideOut,1
;   startPointOption,3
;   startPointOriginX,140
;   startPointOriginY,0
;   sequentialIslands,0
;   spiralVaseMode,0
;   firstLayerHeightPercentage,100
;   firstLayerWidthPercentage,100
;   firstLayerUnderspeed,0.5
;   useRaft,0
;   raftExtruder,0
;   raftTopLayers,2
;   raftBaseLayers,1
;   raftOffset,1
;   raftSeparationDistance,0.14
;   raftTopInfill,90
;   aboveRaftSpeedMultiplier,0.3
;   useSkirt,0
;   skirtExtruder,0
;   skirtLayers,1
;   skirtOutlines,5
;   skirtOffset,0
;   usePrimePillar,0
;   primePillarExtruder,999
;   primePillarWidth,12
;   primePillarLocation,7
;   primePillarSpeedMultiplier,1
;   useOozeShield,0
;   oozeShieldExtruder,999
;   oozeShieldOffset,2
;   oozeShieldOutlines,1
;   oozeShieldSidewallShape,1
;   oozeShieldSidewallAngle,30
;   oozeShieldSpeedMultiplier,1
;   infillExtruder,0
;   internalInfillPattern,Rectilinear
;   externalInfillPattern,Rectilinear
;   infillPercentage,15
;   outlineOverlapPercentage,20
;   infillExtrusionWidthPercentage,100
;   minInfillLength,5
;   infillLayerInterval,1
;   internalInfillAngles,45,-45
;   overlapInternalInfillAngles,0
;   externalInfillAngles,45,-45
;   generateSupport,1
;   supportExtruder,0
;   supportInfillPercentage,30
;   supportExtraInflation,0.6
;   supportBaseLayers,0
;   denseSupportExtruder,0
;   denseSupportLayers,2
;   denseSupportInfillPercentage,70
;   supportLayerInterval,1
;   supportHorizontalPartOffset,0.3
;   supportUpperSeparationLayers,1
;   supportLowerSeparationLayers,1
;   supportType,0
;   supportGridSpacing,99
;   maxOverhangAngle,45
;   supportAngles,0
;   temperatureName,Primary Extruder,Heated Build Platform
;   temperatureNumber,0,0
;   temperatureSetpointCount,1,1
;   temperatureSetpointLayers,1,1
;   temperatureSetpointTemperatures,230,65
;   temperatureStabilizeAtStartup,1,1
;   temperatureHeatedBed,0,1
;   fanLayers,1,2
;   fanSpeeds,0,100
;   blipFanToFullPower,1
;   adjustSpeedForCooling,1
;   minSpeedLayerTime,15
;   minCoolingSpeedSlowdown,20
;   increaseFanForCooling,1
;   minFanLayerTime,45
;   maxCoolingFanSpeed,100
;   increaseFanForBridging,1
;   bridgingFanSpeed,100
;   use5D,1
;   relativeEdistances,1
;   allowEaxisZeroing,0
;   independentExtruderAxes,1
;   includeM10123,0
;   stickySupport,1
;   applyToolheadOffsets,0
;   gcodeXoffset,0
;   gcodeYoffset,0
;   gcodeZoffset,0
;   overrideMachineDefinition,1
;   machineTypeOverride,0
;   strokeXoverride,280
;   strokeYoverride,150
;   strokeZoverride,150
;   originOffsetXoverride,140
;   originOffsetYoverride,75
;   originOffsetZoverride,0
;   homeXdirOverride,1
;   homeYdirOverride,1
;   homeZdirOverride,-1
;   flipXoverride,1
;   flipYoverride,-1
;   flipZoverride,1
;   toolheadOffsets,0,0|0,0|0,0|0,0|0,0|0,0
;   overrideFirmwareConfiguration,1
;   firmwareTypeOverride,MakerBot/Sailfish Firmware
;   GPXconfigOverride,r2h
;   baudRateOverride,115200
;   overridePrinterModels,1
;   printerModelsOverride,MakerBot_Replicator2.stl
;   startingGcode,; **** Replicator 2 start.gcode ****,M73 P0 ; enable build progress,G162 X Y F3000 ; home XY maximum,G161 Z F1200 ; home Z minimum,G92 Z-5 ; set Z to -5,G1 Z0 ; move Z to 0,G28 ; better homing homie,M132 X Y Z A B ; recall home offsets,G1 X-145 Y-75 Z30 F9000 ; move to wait position off table,G130 X20 Y20 Z20 A20 B20 ; lower stepper Vrefs while heating,M126 S[fan_speed_pwm],M140 S[bed0_temperature] T0,M134 T0 ; stabilize bed temperature,M104 S[extruder0_temperature] T0,M133 T0 ; stabilize extruder temperature,G130 X127 Y127 Z40 A127 B127 ; default stepper Vrefs,G92 A0 ; zero extruder,G1 Z0.4 ; position nozzle,G1 E25 F300 ; purge nozzle,G1 X-140 Y-70 Z0.15 F1200 ; slow wipe,G1 X-135 Y-65 Z0.5 F1200 ; lift,G92 A0 ; zero extruder,M73 P1 ;@body (notify GPX body has started),; **** end of start.gcode ****
;   layerChangeGcode,
;   retractionGcode,
;   toolChangeGcode,
;   endingGcode,; **** Replicator 2 end.gcode ****,M73 P100 ; end build progress,G1 Z155 F1000 ; send Z axis to bottom of machine,M104 S0 T0 ; cool down extruder,M140 S0 T0 ; cool down HBP,M127 ; stop blower fan,G162 X Y F3000 ; home XY maximum,M18 ; disable stepper,M0 ; stop codes,M72 P1 ; play Ta-Da song,; **** end of end.gcode ****
;   exportFileFormat,gcode
;   celebration,0
;   celebrationSong,Random Song
;   postProcessing,
;   defaultSpeed,4800
;   outlineUnderspeed,0.5
;   solidInfillUnderspeed,1
;   supportUnderspeed,1
;   rapidXYspeed,9000
;   rapidZspeed,1200
;   minBridgingArea,50
;   bridgingExtraInflation,0
;   bridgingExtrusionMultiplier,1
;   bridgingSpeedMultiplier,0.8
;   useFixedBridgingAngle,0
;   fixedBridgingAngle,0
;   applyBridgingToPerimeters,0
;   filamentDiameters,1.75|1.75|1.75|1.75|1.75|1.75
;   filamentPricesPerKg,46|46|46|46|46|46
;   filamentDensities,1.25|1.25|1.25|1.25|1.25|1.25
;   useMinPrintHeight,0
;   minPrintHeight,0
;   useMaxPrintHeight,0
;   maxPrintHeight,4.84
;   useDiaphragm,0
;   diaphragmLayerInterval,20
;   robustSlicing,1
;   mergeAllIntoSolid,0
;   onlyRetractWhenCrossingOutline,0
;   retractBetweenLayers,0
;   useRetractionMinTravel,1
;   retractionMinTravel,7
;   retractWhileWiping,1
;   onlyWipeOutlines,1
;   avoidCrossingOutline,0
;   maxMovementDetourFactor,3
;   toolChangeRetractionDistance,12
;   toolChangeExtraRestartDistance,-0.5
;   toolChangeRetractionSpeed,600
;   externalThinWallType,0
;   internalThinWallType,0
;   thinWallAllowedOverlapPercentage,10
;   singleExtrusionMinLength,1
;   singleExtrusionMinPrintingWidthPercentage,50
;   singleExtrusionMaxPrintingWidthPercentage,200
;   singleExtrusionEndpointExtension,0.2
;   horizontalSizeCompensation,0
G90
M83
; **** Replicator 2 start.gcode ****
M73 P0 ; enable build progress
G162 X Y F3000 ; home XY maximum
G161 Z F1200 ; home Z minimum
G92 Z-5 ; set Z to -5
G1 Z0 ; move Z to 0
G28 ; better homing homie
M132 X Y Z A B ; recall home offsets
G1 X-145 Y-75 Z30 F9000 ; move to wait position off table
G130 X20 Y20 Z20 A20 B20 ; lower stepper Vrefs while heating
M127
M140 S65 T0
M134 T0 ; stabilize bed temperature
M104 S230 T0
M133 T0 ; stabilize extruder temperature
G130 X127 Y127 Z40 A127 B127 ; default stepper Vrefs
G92 A0 ; zero extruder
G1 Z0.4 ; position nozzle
G1 E25 F300 ; purge nozzle
G1 X-140 Y-70 Z0.15 F1200 ; slow wipe
G1 X-135 Y-65 Z0.5 F1200 ; lift
G92 A0 ; zero extruder
M73 P1 ;@body (notify GPX body has started)
; **** end of start.gcode ****
; process Process1
; layer 1, Z = 0.200
M135 T0
G1 E-1.9000 F1200
; feature inner perimeter
; tool H0.200 W0.400
G1 Z0.500 F1200
G1 X21.919 Y-1.555 F9000
G1 Z0.200 F1200
G1 E1.9000 F1200
G1 X-9.911 Y-1.555 E1.0587 F1800
G1 X-9.912 Y-6.321 E0.1585
G1 X14.148 Y-6.321 E0.8002
G1 X14.560 Y-6.732 E0.0194
G1 X14.560 Y-14.879 E0.2710
G1 X21.919 Y-14.879 E0.2448
G1 X21.919 Y-1.555 E0.4432
; feature outer perimeter
G1 X22.319 Y-1.155 F9000
G1 X-10.311 Y-1.155 E1.0853 F1200
G1 X-10.312 Y-6.721 E0.1851
G1 X13.982 Y-6.721 E0.8080
G1 X14.160 Y-6.898 E0.0083
G1 X14.160 Y-15.279 E0.2787
G1 X22.319 Y-15.279 E0.2714
G1 X22.319 Y-1.155 E0.4698
G1 E-1.9000 F1200
; feature inner perimeter
G1 Z0.700 F1200
G1 X19.422 Y-8.345 F9000
G1 Z0.200 F1200
G1 E1.9000 F1200
G1 X19.956 Y-8.631 E0.0201 F1800
G1 X20.424 Y-9.015 E0.0201
G1 X20.808 Y-9.483 E0.0201
G1 X21.094 Y-10.017 E0.0201
G1 X21.270 Y-10.597 E0.0201
G1 X21.329 Y-11.200 E0.0201
G1 X21.270 Y-11.802 E0.0201
G1 X21.094 Y-12.382 E0.0201
G1 X20.808 Y-12.916 E0.0201
G1 X20.424 Y-13.384 E0.0201
G1 X19.956 Y-13.769 E0.0201
G1 X19.422 Y-14.054 E0.0201
G1 X18.842 Y-14.230 E0.0201
G1 X18.239 Y-14.289 E0.0201
G1 X17.637 Y-14.230 E0.0201
G1 X17.057 Y-14.054 E0.0201
G1 X16.523 Y-13.769 E0.0201
G1 X16.055 Y-13.384 E0.0201
G1 X15.670 Y-12.916 E0.0201
G1 X15.385 Y-12.382 E0.0201
G1 X15.209 Y-11.802 E0.0201
G1 X15.150 Y-11.200 E0.0201
G1 X15.209 Y-10.597 E0.0201
G1 X15.385 Y-10.017 E0.0201
G1 X15.670 Y-9.483 E0.0201
G1 X16.055 Y-9.015 E0.0201
G1 X16.523 Y-8.631 E0.0201
G1 X17.057 Y-8.345 E0.0201
G1 X17.637 Y-8.169 E0.0201
G1 X18.239 Y-8.110 E0.0201
G1 X18.842 Y-8.169 E0.0201
G1 X19.422 Y-8.345 E0.0201
; feature outer perimeter
G1 X19.268 Y-8.716 F9000
G1 X19.733 Y-8.965 E0.0175 F1200
G1 X20.140 Y-9.299 E0.0175
G1 X20.474 Y-9.706 E0.0175
G1 X20.723 Y-10.171 E0.0175
G1 X20.876 Y-10.675 E0.0175
G1 X20.927 Y-11.200 E0.0175
G1 X20.876 Y-11.724 E0.0175
G1 X20.723 Y-12.228 E0.0175
G1 X20.474 Y-12.693 E0.0175
G1 X20.140 Y-13.100 E0.0175
G1 X19.733 Y-13.434 E0.0175
G1 X19.268 Y-13.683 E0.0175
G1 X18.764 Y-13.836 E0.0175
G1 X18.239 Y-13.887 E0.0175
G1 X17.715 Y-13.836 E0.0175
G1 X17.211 Y-13.683 E0.0175
G1 X16.746 Y-13.434 E0.0175
G1 X16.339 Y-13.100 E0.0175
G1 X16.005 Y-12.693 E0.0175
G1 X15.756 Y-12.228 E0.0175
G1 X15.603 Y-11.724 E0.0175
G1 X15.552 Y-11.200 E0.0175
G1 X15.603 Y-10.675 E0.0175
G1 X15.756 Y-10.171 E0.0175
G1 X16.005 Y-9.706 E0.0175
G1 X16.339 Y-9.299 E0.0175
G1 X16.746 Y-8.965 E0.0175
G1 X17.211 Y-8.716 E0.0175
G1 X17.715 Y-8.563 E0.0175
G1 X18.239 Y-8.512 E0.0175
G1 X18.764 Y-8.563 E0.0175
G1 X19.268 Y-8.716 E0.0175
; feature solid layer
G1 X21.499 Y-10.251 F9000
G1 X21.599 Y-10.151 E0.0047 F2400
G1 X21.599 Y-9.585 E0.0188
G1 X21.356 Y-9.829 E0.0114
G1 X21.159 Y-9.460 E0.0139
G1 X21.599 Y-9.020 E0.0207
G1 X21.599 Y-8.454 E0.0188
G1 X20.928 Y-9.125 E0.0316
G1 X20.673 Y-8.814 E0.0134
G1 X21.599 Y-7.888 E0.0436
G1 X21.599 Y-7.323 E0.0188
G1 X20.367 Y-8.554 E0.0579
G1 X20.135 Y-8.363 E0.0100
G1 X20.042 Y-8.314 E0.0035
G1 X21.599 Y-6.757 E0.0732
G1 X21.599 Y-6.191 E0.0188
G1 X19.674 Y-8.117 E0.0906
G1 X19.545 Y-8.048 E0.0049
G1 X19.262 Y-7.962 E0.0098
G1 X21.599 Y-5.625 E0.1099
G1 X21.599 Y-5.060 E0.0188
G1 X18.814 Y-7.845 E0.1310
G1 X18.299 Y-7.794 E0.0172
G1 X21.599 Y-4.494 E0.1552
G1 X21.599 Y-3.928 E0.0188
G1 X17.685 Y-7.843 E0.1841
G1 X17.574 Y-7.854 E0.0037
G1 X16.934 Y-8.048 E0.0222
G1 X16.891 Y-8.071 E0.0016
G1 X21.599 Y-3.363 E0.2215
G1 X21.599 Y-2.797 E0.0188
G1 X14.880 Y-9.517 E0.3161
G1 X14.880 Y-10.082 E0.0188
G1 X15.111 Y-9.851 E0.0109
G1 X15.088 Y-9.894 E0.0016
G1 X14.894 Y-10.534 E0.0222
G1 X14.880 Y-10.648 E0.0038
G1 X14.880 Y-11.779 F9000
G1 X14.885 Y-11.774 E0.0002 F2400
G1 X14.894 Y-11.865 E0.0030
G1 X15.002 Y-12.223 E0.0124
G1 X14.880 Y-12.345 E0.0058
G1 X14.880 Y-12.911 E0.0188
G1 X15.157 Y-12.634 E0.0130
G1 X15.354 Y-13.002 E0.0139
G1 X14.880 Y-13.476 E0.0223
G1 X14.880 Y-14.042 E0.0188
G1 X15.594 Y-13.328 E0.0336
G1 X15.827 Y-13.612 E0.0122
G1 X15.854 Y-13.634 E0.0011
G1 X14.929 Y-14.559 E0.0435
G1 X15.494 Y-14.559 E0.0188
G1 X16.165 Y-13.889 E0.0315
G1 X16.344 Y-14.036 E0.0077
G1 X16.500 Y-14.119 E0.0059
G1 X16.060 Y-14.559 E0.0207
G1 X16.626 Y-14.559 E0.0188
G1 X16.868 Y-14.316 E0.0114
G1 X16.934 Y-14.351 E0.0025
G1 X17.291 Y-14.459 E0.0124
G1 X17.191 Y-14.559 E0.0047
G1 X18.902 Y-14.546 F9000
G1 X18.888 Y-14.559 E0.0006 F2400
G1 X19.454 Y-14.559 E0.0188
G1 X19.796 Y-14.217 E0.0161
G1 X20.135 Y-14.036 E0.0128
G1 X20.652 Y-13.612 E0.0222
G1 X21.076 Y-13.095 E0.0222
G1 X21.257 Y-12.756 E0.0128
G1 X21.599 Y-12.414 E0.0161
G1 X21.599 Y-12.979 E0.0188
G1 X20.020 Y-14.559 E0.0743
G1 X20.585 Y-14.559 E0.0188
G1 X21.599 Y-13.545 E0.0477
G1 X21.599 Y-14.111 E0.0188
G1 X21.151 Y-14.559 E0.0211
G1 X21.585 Y-11.862 F9000
G1 X21.599 Y-11.848 E0.0006 F2400
G1 E-1.9000 F1200
G1 Z0.700 F1200
G1 X14.880 Y-8.951 F9000
G1 Z0.200 F1200
G1 E1.9000 F1200
G1 X21.599 Y-2.231 E0.3161 F2400
G1 X21.599 Y-1.875 E0.0119
G1 X21.390 Y-1.875 E0.0070
G1 X14.880 Y-8.385 E0.3062
G1 X14.880 Y-7.820 E0.0188
G1 X20.824 Y-1.875 E0.2796
G1 X20.259 Y-1.875 E0.0188
G1 X14.880 Y-7.254 E0.2530
G1 X14.880 Y-6.688 E0.0188
G1 X19.693 Y-1.875 E0.2264
G1 X19.127 Y-1.875 E0.0188
G1 X14.641 Y-6.361 E0.2110
G1 X14.358 Y-6.078 E0.0133
G1 X18.562 Y-1.875 E0.1977
G1 X17.996 Y-1.875 E0.0188
G1 X13.870 Y-6.001 E0.1941
G1 X13.305 Y-6.001 E0.0188
G1 X17.430 Y-1.875 E0.1941
G1 X16.865 Y-1.875 E0.0188
G1 X12.739 Y-6.001 E0.1941
G1 X12.173 Y-6.001 E0.0188
G1 X16.299 Y-1.875 E0.1941
G1 X15.733 Y-1.875 E0.0188
G1 X11.608 Y-6.001 E0.1941
G1 X11.042 Y-6.001 E0.0188
G1 X15.168 Y-1.875 E0.1941
G1 X14.602 Y-1.875 E0.0188
G1 X10.476 Y-6.001 E0.1941
G1 X9.910 Y-6.001 E0.0188
G1 X14.036 Y-1.875 E0.1941
G1 X13.470 Y-1.875 E0.0188
G1 X9.345 Y-6.001 E0.1941
G1 X8.779 Y-6.001 E0.0188
G1 X12.905 Y-1.875 E0.1941
G1 X12.339 Y-1.875 E0.0188
G1 X8.213 Y-6.001 E0.1941
G1 X7.648 Y-6.001 E0.0188
G1 X11.773 Y-1.875 E0.1941
G1 X11.208 Y-1.875 E0.0188
G1 X7.082 Y-6.001 E0.1941
G1 X6.516 Y-6.001 E0.0188
G1 X10.642 Y-1.875 E0.1941
G1 X10.076 Y-1.875 E0.0188
G1 X5.951 Y-6.001 E0.1941
G1 X5.385 Y-6.001 E0.0188
G1 X9.511 Y-1.875 E0.1941
G1 X8.945 Y-1.875 E0.0188
G1 X4.819 Y-6.001 E0.1941
G1 X4.254 Y-6.001 E0.0188
G1 X8.379 Y-1.875 E0.1941
G1 X7.814 Y-1.875 E0.0188
G1 X3.688 Y-6.001 E0.1941
G1 X3.122 Y-6.001 E0.0188
G1 X7.248 Y-1.875 E0.1941
G1 X6.682 Y-1.875 E0.0188
G1 X2.557 Y-6.001 E0.1941
G1 X1.991 Y-6.001 E0.0188
G1 X6.117 Y-1.875 E0.1941
G1 X5.551 Y-1.875 E0.0188
G1 X1.425 Y-6.001 E0.1941
G1 X0.859 Y-6.001 E0.0188
G1 X4.985 Y-1.875 E0.1941
G1 X4.419 Y-1.875 E0.0188
G1 X0.294 Y-6.001 E0.1941
G1 X-0.272 Y-6.001 E0.0188
G1 X3.854 Y-1.875 E0.1941
G1 X3.288 Y-1.875 E0.0188
G1 X-0.838 Y-6.001 E0.1941
G1 X-1.403 Y-6.001 E0.0188
G1 X2.722 Y-1.875 E0.1941
G1 X2.157 Y-1.875 E0.0188
G1 X-1.969 Y-6.001 E0.1941
G1 X-2.535 Y-6.001 E0.0188
G1 X1.591 Y-1.875 E0.1941
G1 X1.025 Y-1.875 E0.0188
G1 X-3.100 Y-6.001 E0.1941
G1 X-3.666 Y-6.001 E0.0188
G1 X0.460 Y-1.875 E0.1941
G1 X-0.106 Y-1.875 E0.0188
G1 X-4.232 Y-6.001 E0.1941
G1 X-4.797 Y-6.001 E0.0188
G1 X-0.672 Y-1.875 E0.1941
G1 X-1.237 Y-1.875 E0.0188
G1 X-5.363 Y-6.001 E0.1941
G1 X-5.929 Y-6.001 E0.0188
G1 X-1.803 Y-1.875 E0.1941
G1 X-2.369 Y-1.875 E0.0188
G1 X-6.494 Y-6.001 E0.1941
G1 X-7.060 Y-6.001 E0.0188
G1 X-2.934 Y-1.875 E0.1941
G1 X-3.500 Y-1.875 E0.0188
G1 X-7.626 Y-6.001 E0.1941
G1 X-8.191 Y-6.001 E0.0188
G1 X-4.066 Y-1.875 E0.1941
G1 X-4.631 Y-1.875 E0.0188
G1 X-8.757 Y-6.001 E0.1941
G1 X-9.323 Y-6.001 E0.0188
G1 X-5.197 Y-1.875 E0.1941
G1 X-5.763 Y-1.875 E0.0188
G1 X-9.592 Y-5.704 E0.1801
G1 X-9.592 Y-5.138 E0.0188
G1 X-6.329 Y-1.875 E0.1535
G1 X-6.894 Y-1.875 E0.0188
G1 X-9.592 Y-4.572 E0.1269
G1 X-9.592 Y-4.007 E0.0188
G1 X-7.460 Y-1.875 E0.1003
G1 X-8.026 Y-1.875 E0.0188
G1 X-9.592 Y-3.441 E0.0737
G1 X-9.592 Y-2.875 E0.0188
G1 X-8.591 Y-1.875 E0.0470
G1 X-9.157 Y-1.875 E0.0188
G1 X-9.591 Y-2.309 E0.0204
G1 E-1.9000 F1200
; feature inner perimeter
G1 Z0.700 F1200
G1 X11.558 Y-10.049 F9000
G1 Z0.200 F1200
G1 E1.9000 F1200
G1 X-12.502 Y-10.049 E0.8002 F1800
G1 X-12.914 Y-9.637 E0.0194
G1 X-12.914 Y-1.491 E0.2710
G1 X-20.273 Y-1.491 E0.2448
G1 X-20.273 Y-14.815 E0.4432
G1 X11.558 Y-14.815 E1.0587
G1 X11.558 Y-10.049 E0.1585
; feature outer perimeter
G1 X11.958 Y-9.649 F9000
G1 X-12.336 Y-9.649 E0.8080 F1200
G1 X-12.514 Y-9.472 E0.0083
G1 X-12.514 Y-1.091 E0.2787
G1 X-20.673 Y-1.091 E0.2714
G1 X-20.673 Y-15.215 E0.4698
G1 X11.958 Y-15.215 E1.0853
G1 X11.958 Y-9.649 E0.1851
G1 E-1.9000 F1200
; feature inner perimeter
G1 Z0.700 F1200
G1 X-13.563 Y-5.773 F9000
G1 Z0.200 F1200
G1 E1.9000 F1200
G1 X-13.739 Y-6.352 E0.0201 F1800
G1 X-14.025 Y-6.887 E0.0201
G1 X-14.409 Y-7.355 E0.0201
