; G-Code generated by Simplify3D(R) Version 4.1.2
; May 20, 2020 at 1:51:38 PM
; Settings Summary
;   processName,Process1
;   applyToModels,ST drop bracket,ST drop bracket(2),ST drop bracket(3),ST drop bracket(2)(2),ST drop bracket(4),ST drop bracket(2)(3),ST drop bracket(3)(2),ST drop bracket(2)(2)(2),ST drop bracket(5),ST drop bracket(2)(4),ST drop bracket(3)(3),ST drop bracket(2)(2)(3),ST drop bracket(4)(2),ST drop bracket(2)(3)(2),ST drop bracket(3)(2)(2),ST drop bracket(2)(2)(2)(2)
;   profileName,MakerBot Replicator 2 HBP (modified)
;   profileVersion,2020-04-21 14:45:34
;   baseProfile,MakerBot Replicator 2(2)
;   printMaterial,PLA
;   printQuality,Medium
;   printExtruders,
;   extruderName,Primary Extruder
;   extruderToolheadNumber,0
;   extruderDiameter,0.4
;   extruderAutoWidth,0
;   extruderWidth,0.4
;   extrusionMultiplier,1
;   extruderUseRetract,1
;   extruderRetractionDistance,1.9
;   extruderExtraRestartDistance,0
;   extruderRetractionZLift,0.5
;   extruderRetractionSpeed,1200
;   extruderUseCoasting,0
;   extruderCoastingDistance,0.2
;   extruderUseWipe,0
;   extruderWipeDistance,5
;   primaryExtruder,0
;   layerHeight,0.2
;   topSolidLayers,3
;   bottomSolidLayers,3
;   perimeterOutlines,2
;   printPerimetersInsideOut,1
;   startPointOption,3
;   startPointOriginX,140
;   startPointOriginY,0
;   sequentialIslands,0
;   spiralVaseMode,0
;   firstLayerHeightPercentage,100
;   firstLayerWidthPercentage,100
;   firstLayerUnderspeed,0.5
;   useRaft,0
;   raftExtruder,0
;   raftTopLayers,2
;   raftBaseLayers,1
;   raftOffset,1
;   raftSeparationDistance,0.14
;   raftTopInfill,90
;   aboveRaftSpeedMultiplier,0.3
;   useSkirt,0
;   skirtExtruder,0
;   skirtLayers,1
;   skirtOutlines,5
;   skirtOffset,0
;   usePrimePillar,0
;   primePillarExtruder,999
;   primePillarWidth,12
;   primePillarLocation,7
;   primePillarSpeedMultiplier,1
;   useOozeShield,0
;   oozeShieldExtruder,999
;   oozeShieldOffset,2
;   oozeShieldOutlines,1
;   oozeShieldSidewallShape,1
;   oozeShieldSidewallAngle,30
;   oozeShieldSpeedMultiplier,1
;   infillExtruder,0
;   internalInfillPattern,Rectilinear
;   externalInfillPattern,Rectilinear
;   infillPercentage,15
;   outlineOverlapPercentage,20
;   infillExtrusionWidthPercentage,100
;   minInfillLength,5
;   infillLayerInterval,1
;   internalInfillAngles,45,-45
;   overlapInternalInfillAngles,0
;   externalInfillAngles,45,-45
;   generateSupport,1
;   supportExtruder,0
;   supportInfillPercentage,30
;   supportExtraInflation,0.6
;   supportBaseLayers,0
;   denseSupportExtruder,0
;   denseSupportLayers,2
;   denseSupportInfillPercentage,70
;   supportLayerInterval,1
;   supportHorizontalPartOffset,0.3
;   supportUpperSeparationLayers,1
;   supportLowerSeparationLayers,1
;   supportType,0
;   supportGridSpacing,99
;   maxOverhangAngle,45
;   supportAngles,0
;   temperatureName,Primary Extruder,Heated Build Platform
;   temperatureNumber,0,0
;   temperatureSetpointCount,1,1
;   temperatureSetpointLayers,1,1
;   temperatureSetpointTemperatures,230,65
;   temperatureStabilizeAtStartup,1,1
;   temperatureHeatedBed,0,1
;   fanLayers,1,2
;   fanSpeeds,0,100
;   blipFanToFullPower,1
;   adjustSpeedForCooling,1
;   minSpeedLayerTime,15
;   minCoolingSpeedSlowdown,20
;   increaseFanForCooling,1
;   minFanLayerTime,45
;   maxCoolingFanSpeed,100
;   increaseFanForBridging,1
;   bridgingFanSpeed,100
;   use5D,1
;   relativeEdistances,1
;   allowEaxisZeroing,0
;   independentExtruderAxes,1
;   includeM10123,0
;   stickySupport,1
;   applyToolheadOffsets,0
;   gcodeXoffset,0
;   gcodeYoffset,0
;   gcodeZoffset,0
;   overrideMachineDefinition,1
;   machineTypeOverride,0
;   strokeXoverride,280
;   strokeYoverride,150
;   strokeZoverride,150
;   originOffsetXoverride,140
;   originOffsetYoverride,75
;   originOffsetZoverride,0
;   homeXdirOverride,1
;   homeYdirOverride,1
;   homeZdirOverride,-1
;   flipXoverride,1
;   flipYoverride,-1
;   flipZoverride,1
;   toolheadOffsets,0,0|0,0|0,0|0,0|0,0|0,0
;   overrideFirmwareConfiguration,1
;   firmwareTypeOverride,MakerBot/Sailfish Firmware
;   GPXconfigOverride,r2h
;   baudRateOverride,115200
;   overridePrinterModels,1
;   printerModelsOverride,MakerBot_Replicator2.stl
;   startingGcode,; **** Replicator 2 start.gcode ****,M73 P0 ; enable build progress,G162 X Y F3000 ; home XY maximum,G161 Z F1200 ; home Z minimum,G92 Z-5 ; set Z to -5,G1 Z0 ; move Z to 0,G28 ; better homing homie,M132 X Y Z A B ; recall home offsets,G1 X-145 Y-75 Z30 F9000 ; move to wait position off table,G130 X20 Y20 Z20 A20 B20 ; lower stepper Vrefs while heating,M126 S[fan_speed_pwm],M140 S[bed0_temperature] T0,M134 T0 ; stabilize bed temperature,M104 S[extruder0_temperature] T0,M133 T0 ; stabilize extruder temperature,G130 X127 Y127 Z40 A127 B127 ; default stepper Vrefs,G92 A0 ; zero extruder,G1 Z0.4 ; position nozzle,G1 E25 F300 ; purge nozzle,G1 X-140 Y-70 Z0.15 F1200 ; slow wipe,G1 X-135 Y-65 Z0.5 F1200 ; lift,G92 A0 ; zero extruder,M73 P1 ;@body (notify GPX body has started),; **** end of start.gcode ****
;   layerChangeGcode,
;   retractionGcode,
;   toolChangeGcode,
;   endingGcode,; **** Replicator 2 end.gcode ****,M73 P100 ; end build progress,G1 Z155 F1000 ; send Z axis to bottom of machine,M104 S0 T0 ; cool down extruder,M140 S0 T0 ; cool down HBP,M127 ; stop blower fan,G162 X Y F3000 ; home XY maximum,M18 ; disable stepper,M0 ; stop codes,M72 P1 ; play Ta-Da song,; **** end of end.gcode ****
;   exportFileFormat,gcode
;   celebration,0
;   celebrationSong,Random Song
;   postProcessing,
;   defaultSpeed,4800
;   outlineUnderspeed,0.5
;   solidInfillUnderspeed,1
;   supportUnderspeed,1
;   rapidXYspeed,9000
;   rapidZspeed,1200
;   minBridgingArea,50
;   bridgingExtraInflation,0
;   bridgingExtrusionMultiplier,1
;   bridgingSpeedMultiplier,0.8
;   useFixedBridgingAngle,0
;   fixedBridgingAngle,0
;   applyBridgingToPerimeters,0
;   filamentDiameters,1.75|1.75|1.75|1.75|1.75|1.75
;   filamentPricesPerKg,46|46|46|46|46|46
;   filamentDensities,1.25|1.25|1.25|1.25|1.25|1.25
;   useMinPrintHeight,0
;   minPrintHeight,0
;   useMaxPrintHeight,0
;   maxPrintHeight,4.84
;   useDiaphragm,0
;   diaphragmLayerInterval,20
;   robustSlicing,1
;   mergeAllIntoSolid,0
;   onlyRetractWhenCrossingOutline,0
;   retractBetweenLayers,0
;   useRetractionMinTravel,1
;   retractionMinTravel,7
;   retractWhileWiping,1
;   onlyWipeOutlines,1
;   avoidCrossingOutline,0
;   maxMovementDetourFactor,3
;   toolChangeRetractionDistance,12
;   toolChangeExtraRestartDistance,-0.5
;   toolChangeRetractionSpeed,600
;   externalThinWallType,0
;   internalThinWallType,0
;   thinWallAllowedOverlapPercentage,10
;   singleExtrusionMinLength,1
;   singleExtrusionMinPrintingWidthPercentage,50
;   singleExtrusionMaxPrintingWidthPercentage,200
;   singleExtrusionEndpointExtension,0.2
;   horizontalSizeCompensation,0
G90
M83
; **** Replicator 2 start.gcode ****
M73 P0 ; enable build progress
G162 X Y F3000 ; home XY maximum
G161 Z F1200 ; home Z minimum
G92 Z-5 ; set Z to -5
G1 Z0 ; move Z to 0
G28 ; better homing homie
M132 X Y Z A B ; recall home offsets
G1 X-145 Y-75 Z30 F9000 ; move to wait position off table
G130 X20 Y20 Z20 A20 B20 ; lower stepper Vrefs while heating
M127
M140 S65 T0
M134 T0 ; stabilize bed temperature
M104 S230 T0
M133 T0 ; stabilize extruder temperature
G130 X127 Y127 Z40 A127 B127 ; default stepper Vrefs
G92 A0 ; zero extruder
G1 Z0.4 ; position nozzle
G1 E25 F300 ; purge nozzle
G1 X-140 Y-70 Z0.15 F1200 ; slow wipe
G1 X-135 Y-65 Z0.5 F1200 ; lift
G92 A0 ; zero extruder
M73 P1 ;@body (notify GPX body has started)
; **** end of start.gcode ****
; process Process1
; layer 1, Z = 0.200
M135 T0
G1 E-1.9000 F1200
; feature inner perimeter
; tool H0.200 W0.400
G1 Z0.500 F1200
G1 X33.483 Y-10.227 F9000
G1 Z0.200 F1200
G1 E1.9000 F1200
G1 X9.423 Y-10.227 E0.8002 F1800
G1 X9.011 Y-9.816 E0.0194
G1 X9.011 Y-1.669 E0.2710
G1 X1.652 Y-1.669 E0.2448
G1 X1.652 Y-14.993 E0.4432
G1 X33.483 Y-14.993 E1.0587
G1 X33.483 Y-10.227 E0.1585
; feature outer perimeter
G1 X33.883 Y-9.827 F9000
G1 X9.589 Y-9.827 E0.8080 F1200
G1 X9.411 Y-9.650 E0.0083
G1 X9.411 Y-1.269 E0.2787
G1 X1.252 Y-1.269 E0.2714
G1 X1.252 Y-15.393 E0.4698
G1 X33.883 Y-15.393 E1.0853
G1 X33.883 Y-9.827 E0.1851
G1 E-1.9000 F1200
; feature inner perimeter
G1 Z0.700 F1200
G1 X8.362 Y-5.951 F9000
G1 Z0.200 F1200
G1 E1.9000 F1200
G1 X8.186 Y-6.531 E0.0201 F1800
G1 X7.900 Y-7.065 E0.0201
G1 X7.516 Y-7.533 E0.0201
G1 X7.048 Y-7.917 E0.0201
G1 X6.514 Y-8.203 E0.0201
G1 X5.934 Y-8.379 E0.0201
G1 X5.331 Y-8.438 E0.0201
G1 X4.729 Y-8.379 E0.0201
G1 X4.149 Y-8.203 E0.0201
G1 X3.615 Y-7.917 E0.0201
G1 X3.147 Y-7.533 E0.0201
G1 X2.762 Y-7.065 E0.0201
G1 X2.477 Y-6.531 E0.0201
G1 X2.301 Y-5.951 E0.0201
G1 X2.242 Y-5.348 E0.0201
G1 X2.301 Y-4.745 E0.0201
G1 X2.477 Y-4.166 E0.0201
G1 X2.762 Y-3.632 E0.0201
G1 X3.147 Y-3.163 E0.0201
G1 X3.615 Y-2.779 E0.0201
G1 X4.149 Y-2.494 E0.0201
G1 X4.729 Y-2.318 E0.0201
G1 X5.331 Y-2.258 E0.0201
G1 X5.934 Y-2.318 E0.0201
G1 X6.514 Y-2.494 E0.0201
G1 X7.048 Y-2.779 E0.0201
G1 X7.516 Y-3.163 E0.0201
G1 X7.900 Y-3.632 E0.0201
G1 X8.186 Y-4.166 E0.0201
G1 X8.362 Y-4.745 E0.0201
G1 X8.421 Y-5.348 E0.0201
G1 X8.362 Y-5.951 E0.0201
; feature outer perimeter
G1 X7.968 Y-5.873 F9000
G1 X7.815 Y-6.377 E0.0175 F1200
G1 X7.566 Y-6.841 E0.0175
G1 X7.232 Y-7.249 E0.0175
G1 X6.825 Y-7.583 E0.0175
G1 X6.360 Y-7.831 E0.0175
G1 X5.856 Y-7.984 E0.0175
G1 X5.331 Y-8.036 E0.0175
G1 X4.807 Y-7.984 E0.0175
G1 X4.303 Y-7.831 E0.0175
G1 X3.838 Y-7.583 E0.0175
G1 X3.431 Y-7.249 E0.0175
G1 X3.097 Y-6.841 E0.0175
G1 X2.848 Y-6.377 E0.0175
G1 X2.695 Y-5.873 E0.0175
G1 X2.644 Y-5.348 E0.0175
G1 X2.695 Y-4.824 E0.0175
G1 X2.848 Y-4.320 E0.0175
G1 X3.097 Y-3.855 E0.0175
G1 X3.431 Y-3.448 E0.0175
G1 X3.838 Y-3.113 E0.0175
G1 X4.303 Y-2.865 E0.0175
G1 X4.807 Y-2.712 E0.0175
G1 X5.331 Y-2.660 E0.0175
G1 X5.856 Y-2.712 E0.0175
G1 X6.360 Y-2.865 E0.0175
G1 X6.825 Y-3.113 E0.0175
G1 X7.232 Y-3.448 E0.0175
G1 X7.566 Y-3.855 E0.0175
G1 X7.815 Y-4.320 E0.0175
G1 X7.968 Y-4.824 E0.0175
G1 X8.019 Y-5.348 E0.0175
G1 X7.968 Y-5.873 E0.0175
; feature solid layer
G1 X8.632 Y-6.161 F9000
G1 X8.691 Y-6.102 E0.0028 F2400
G1 X8.616 Y-4.481 F9000
G1 X8.691 Y-4.405 E0.0035 F2400
G1 X8.691 Y-3.839 E0.0188
G1 X8.483 Y-4.043 E0.0099
G1 X8.288 Y-3.677 E0.0138
G1 X8.691 Y-3.274 E0.0190
G1 X8.691 Y-2.708 E0.0188
G1 X8.068 Y-3.331 E0.0293
G1 X7.813 Y-3.021 E0.0134
G1 X8.691 Y-2.142 E0.0413
G1 X8.691 Y-1.989 E0.0051
G1 X8.279 Y-1.989 E0.0137
G1 X7.517 Y-2.750 E0.0358
G1 X7.227 Y-2.512 E0.0125
G1 X7.203 Y-2.499 E0.0009
G1 X7.713 Y-1.989 E0.0240
G1 X7.147 Y-1.989 E0.0188
G1 X6.834 Y-2.302 E0.0147
G1 X6.637 Y-2.197 E0.0074
G1 X6.435 Y-2.135 E0.0070
G1 X6.582 Y-1.989 E0.0069
G1 X6.016 Y-1.989 E0.0188
G1 X6.001 Y-2.004 E0.0007
G1 X2.056 Y-1.989 F9000
G1 X1.972 Y-2.074 E0.0040 F2400
G1 X1.972 Y-2.639 E0.0188
G1 X2.622 Y-1.989 E0.0306
G1 X3.188 Y-1.989 E0.0188
G1 X1.972 Y-3.205 E0.0572
G1 X1.972 Y-3.771 E0.0188
G1 X3.753 Y-1.989 E0.0838
G1 X4.319 Y-1.989 E0.0188
G1 X4.149 Y-2.159 E0.0080
G1 X4.026 Y-2.197 E0.0043
G1 X3.436 Y-2.512 E0.0222
G1 X2.919 Y-2.936 E0.0222
G1 X2.495 Y-3.453 E0.0222
G1 X2.180 Y-4.043 E0.0222
G1 X2.143 Y-4.166 E0.0043
G1 X1.972 Y-4.336 E0.0080
G1 X1.987 Y-6.018 F9000
G1 X1.972 Y-6.034 E0.0007 F2400
G1 X1.972 Y-6.599 E0.0188
G1 X2.119 Y-6.452 E0.0069
G1 X2.180 Y-6.654 E0.0070
G1 X2.285 Y-6.851 E0.0074
G1 X1.972 Y-7.165 E0.0148
G1 X1.972 Y-7.731 E0.0188
G1 X2.482 Y-7.220 E0.0240
G1 X2.495 Y-7.243 E0.0009
G1 X2.734 Y-7.534 E0.0125
G1 X1.972 Y-8.296 E0.0358
G1 X1.972 Y-8.862 E0.0188
G1 X3.004 Y-7.830 E0.0486
G1 X3.315 Y-8.085 E0.0134
G1 X1.972 Y-9.428 E0.0632
G1 X1.972 Y-9.993 E0.0188
G1 X3.661 Y-8.304 E0.0794
G1 X4.026 Y-8.500 E0.0138
G1 X1.972 Y-10.559 E0.0969
G1 X1.972 Y-11.125 E0.0188
G1 X4.464 Y-8.633 E0.1172
G1 X4.666 Y-8.694 E0.0070
G1 X4.941 Y-8.721 E0.0092
G1 X1.972 Y-11.690 E0.1397
G1 X1.972 Y-12.256 E0.0188
G1 X5.483 Y-8.744 E0.1652
G1 X5.997 Y-8.694 E0.0172
G1 X6.144 Y-8.649 E0.0051
G1 X1.972 Y-12.822 E0.1963
G1 X1.972 Y-13.387 E0.0188
G1 X7.115 Y-8.244 E0.2419
G1 X7.227 Y-8.185 E0.0042
G1 X7.744 Y-7.760 E0.0222
G1 X8.168 Y-7.243 E0.0222
G1 X8.228 Y-7.132 E0.0042
G1 X8.691 Y-6.668 E0.0218
G1 X8.691 Y-7.234 E0.0188
G1 X1.972 Y-13.953 E0.3161
G1 X1.972 Y-14.519 E0.0188
G1 X8.691 Y-7.799 E0.3161
G1 X8.691 Y-8.365 E0.0188
G1 X2.383 Y-14.673 E0.2967
G1 X2.949 Y-14.673 E0.0188
G1 X8.691 Y-8.931 E0.2701
G1 X8.691 Y-9.496 E0.0188
G1 X3.515 Y-14.673 E0.2435
G1 X4.080 Y-14.673 E0.0188
G1 X8.748 Y-10.005 E0.2196
G1 X9.031 Y-10.288 E0.0133
G1 X4.646 Y-14.673 E0.2063
G1 X5.212 Y-14.673 E0.0188
G1 X9.337 Y-10.547 E0.1941
G1 X9.903 Y-10.547 E0.0188
G1 X5.777 Y-14.673 E0.1941
G1 X6.343 Y-14.673 E0.0188
G1 X10.469 Y-10.547 E0.1941
G1 X11.034 Y-10.547 E0.0188
G1 X6.909 Y-14.673 E0.1941
G1 X7.474 Y-14.673 E0.0188
G1 X11.600 Y-10.547 E0.1941
G1 X12.166 Y-10.547 E0.0188
G1 X8.040 Y-14.673 E0.1941
G1 X8.606 Y-14.673 E0.0188
G1 X12.731 Y-10.547 E0.1941
G1 X13.297 Y-10.547 E0.0188
G1 X9.171 Y-14.673 E0.1941
G1 X9.737 Y-14.673 E0.0188
G1 X13.863 Y-10.547 E0.1941
G1 X14.428 Y-10.547 E0.0188
G1 X10.303 Y-14.673 E0.1941
G1 X10.868 Y-14.673 E0.0188
G1 X14.994 Y-10.547 E0.1941
G1 X15.560 Y-10.547 E0.0188
G1 X11.434 Y-14.673 E0.1941
G1 X12.000 Y-14.673 E0.0188
G1 X16.125 Y-10.547 E0.1941
G1 X16.691 Y-10.547 E0.0188
G1 X12.565 Y-14.673 E0.1941
G1 X13.131 Y-14.673 E0.0188
G1 X17.257 Y-10.547 E0.1941
G1 X17.823 Y-10.547 E0.0188
G1 X13.697 Y-14.673 E0.1941
G1 X14.263 Y-14.673 E0.0188
G1 X18.388 Y-10.547 E0.1941
G1 X18.954 Y-10.547 E0.0188
G1 X14.828 Y-14.673 E0.1941
G1 X15.394 Y-14.673 E0.0188
G1 X19.520 Y-10.547 E0.1941
G1 X20.085 Y-10.547 E0.0188
G1 X15.960 Y-14.673 E0.1941
G1 X16.525 Y-14.673 E0.0188
G1 X20.651 Y-10.547 E0.1941
G1 X21.217 Y-10.547 E0.0188
G1 X17.091 Y-14.673 E0.1941
G1 X17.657 Y-14.673 E0.0188
G1 X21.782 Y-10.547 E0.1941
G1 X22.348 Y-10.547 E0.0188
G1 X18.222 Y-14.673 E0.1941
G1 X18.788 Y-14.673 E0.0188
G1 X22.914 Y-10.547 E0.1941
G1 X23.479 Y-10.547 E0.0188
G1 X19.354 Y-14.673 E0.1941
G1 X19.919 Y-14.673 E0.0188
G1 X24.045 Y-10.547 E0.1941
G1 X24.611 Y-10.547 E0.0188
G1 X20.485 Y-14.673 E0.1941
G1 X21.051 Y-14.673 E0.0188
G1 X25.176 Y-10.547 E0.1941
G1 X25.742 Y-10.547 E0.0188
G1 X21.616 Y-14.673 E0.1941
G1 X22.182 Y-14.673 E0.0188
G1 X26.308 Y-10.547 E0.1941
G1 X26.874 Y-10.547 E0.0188
G1 X22.748 Y-14.673 E0.1941
G1 X23.313 Y-14.673 E0.0188
G1 X27.439 Y-10.547 E0.1941
G1 X28.005 Y-10.547 E0.0188
G1 X23.879 Y-14.673 E0.1941
G1 X24.445 Y-14.673 E0.0188
G1 X28.571 Y-10.547 E0.1941
G1 X29.136 Y-10.547 E0.0188
G1 X25.011 Y-14.673 E0.1941
G1 X25.576 Y-14.673 E0.0188
G1 X29.702 Y-10.547 E0.1941
G1 X30.268 Y-10.547 E0.0188
G1 X26.142 Y-14.673 E0.1941
G1 X26.708 Y-14.673 E0.0188
G1 X30.833 Y-10.547 E0.1941
G1 X31.399 Y-10.547 E0.0188
G1 X27.273 Y-14.673 E0.1941
G1 X27.839 Y-14.673 E0.0188
G1 X31.965 Y-10.547 E0.1941
G1 X32.530 Y-10.547 E0.0188
G1 X28.405 Y-14.673 E0.1941
G1 X28.970 Y-14.673 E0.0188
G1 X33.096 Y-10.547 E0.1941
G1 X33.163 Y-10.547 E0.0022
G1 X33.163 Y-11.046 E0.0166
G1 X29.536 Y-14.673 E0.1706
G1 X30.102 Y-14.673 E0.0188
G1 X33.163 Y-11.612 E0.1440
G1 X33.163 Y-12.178 E0.0188
G1 X30.667 Y-14.673 E0.1174
G1 X31.233 Y-14.673 E0.0188
G1 X33.163 Y-12.743 E0.0908
G1 X33.163 Y-13.309 E0.0188
G1 X31.799 Y-14.673 E0.0642
G1 X32.364 Y-14.673 E0.0188
G1 X33.163 Y-13.875 E0.0376
G1 X33.163 Y-14.440 E0.0188
G1 X32.930 Y-14.673 E0.0109
G1 E-1.9000 F1200
; feature inner perimeter
G1 Z0.700 F1200
G1 X43.844 Y-1.733 F9000
G1 Z0.200 F1200
G1 E1.9000 F1200
G1 X12.014 Y-1.733 E1.0587 F1800
G1 X12.013 Y-6.499 E0.1585
G1 X36.073 Y-6.499 E0.8002
G1 X36.485 Y-6.910 E0.0194
G1 X36.485 Y-15.057 E0.2710
G1 X43.844 Y-15.057 E0.2448
G1 X43.844 Y-1.733 E0.4432
; feature outer perimeter
G1 X44.244 Y-1.333 F9000
G1 X11.614 Y-1.333 E1.0853 F1200
G1 X11.613 Y-6.899 E0.1851
G1 X35.907 Y-6.899 E0.8080
G1 X36.085 Y-7.076 E0.0083
G1 X36.085 Y-15.457 E0.2787
G1 X44.244 Y-15.457 E0.2714
G1 X44.244 Y-1.333 E0.4698
G1 E-1.9000 F1200
; feature inner perimeter
G1 Z0.700 F1200
