; G-Code generated by Simplify3D(R) Version 4.1.2
; May 20, 2020 at 1:51:00 PM
; Settings Summary
;   processName,Process1
;   applyToModels,ST drop bracket,ST drop bracket(2),ST drop bracket(3),ST drop bracket(2)(2),ST drop bracket(4),ST drop bracket(2)(3),ST drop bracket(3)(2),ST drop bracket(2)(2)(2)
;   profileName,MakerBot Replicator 2 HBP (modified)
;   profileVersion,2020-04-21 14:45:34
;   baseProfile,MakerBot Replicator 2(2)
;   printMaterial,PLA
;   printQuality,Medium
;   printExtruders,
;   extruderName,Primary Extruder
;   extruderToolheadNumber,0
;   extruderDiameter,0.4
;   extruderAutoWidth,0
;   extruderWidth,0.4
;   extrusionMultiplier,1
;   extruderUseRetract,1
;   extruderRetractionDistance,1.9
;   extruderExtraRestartDistance,0
;   extruderRetractionZLift,0.5
;   extruderRetractionSpeed,1200
;   extruderUseCoasting,0
;   extruderCoastingDistance,0.2
;   extruderUseWipe,0
;   extruderWipeDistance,5
;   primaryExtruder,0
;   layerHeight,0.2
;   topSolidLayers,3
;   bottomSolidLayers,3
;   perimeterOutlines,2
;   printPerimetersInsideOut,1
;   startPointOption,3
;   startPointOriginX,140
;   startPointOriginY,0
;   sequentialIslands,0
;   spiralVaseMode,0
;   firstLayerHeightPercentage,100
;   firstLayerWidthPercentage,100
;   firstLayerUnderspeed,0.5
;   useRaft,0
;   raftExtruder,0
;   raftTopLayers,2
;   raftBaseLayers,1
;   raftOffset,1
;   raftSeparationDistance,0.14
;   raftTopInfill,90
;   aboveRaftSpeedMultiplier,0.3
;   useSkirt,0
;   skirtExtruder,0
;   skirtLayers,1
;   skirtOutlines,5
;   skirtOffset,0
;   usePrimePillar,0
;   primePillarExtruder,999
;   primePillarWidth,12
;   primePillarLocation,7
;   primePillarSpeedMultiplier,1
;   useOozeShield,0
;   oozeShieldExtruder,999
;   oozeShieldOffset,2
;   oozeShieldOutlines,1
;   oozeShieldSidewallShape,1
;   oozeShieldSidewallAngle,30
;   oozeShieldSpeedMultiplier,1
;   infillExtruder,0
;   internalInfillPattern,Rectilinear
;   externalInfillPattern,Rectilinear
;   infillPercentage,15
;   outlineOverlapPercentage,20
;   infillExtrusionWidthPercentage,100
;   minInfillLength,5
;   infillLayerInterval,1
;   internalInfillAngles,45,-45
;   overlapInternalInfillAngles,0
;   externalInfillAngles,45,-45
;   generateSupport,1
;   supportExtruder,0
;   supportInfillPercentage,30
;   supportExtraInflation,0.6
;   supportBaseLayers,0
;   denseSupportExtruder,0
;   denseSupportLayers,2
;   denseSupportInfillPercentage,70
;   supportLayerInterval,1
;   supportHorizontalPartOffset,0.3
;   supportUpperSeparationLayers,1
;   supportLowerSeparationLayers,1
;   supportType,0
;   supportGridSpacing,99
;   maxOverhangAngle,45
;   supportAngles,0
;   temperatureName,Primary Extruder,Heated Build Platform
;   temperatureNumber,0,0
;   temperatureSetpointCount,1,1
;   temperatureSetpointLayers,1,1
;   temperatureSetpointTemperatures,230,65
;   temperatureStabilizeAtStartup,1,1
;   temperatureHeatedBed,0,1
;   fanLayers,1,2
;   fanSpeeds,0,100
;   blipFanToFullPower,1
;   adjustSpeedForCooling,1
;   minSpeedLayerTime,15
;   minCoolingSpeedSlowdown,20
;   increaseFanForCooling,1
;   minFanLayerTime,45
;   maxCoolingFanSpeed,100
;   increaseFanForBridging,1
;   bridgingFanSpeed,100
;   use5D,1
;   relativeEdistances,1
;   allowEaxisZeroing,0
;   independentExtruderAxes,1
;   includeM10123,0
;   stickySupport,1
;   applyToolheadOffsets,0
;   gcodeXoffset,0
;   gcodeYoffset,0
;   gcodeZoffset,0
;   overrideMachineDefinition,1
;   machineTypeOverride,0
;   strokeXoverride,280
;   strokeYoverride,150
;   strokeZoverride,150
;   originOffsetXoverride,140
;   originOffsetYoverride,75
;   originOffsetZoverride,0
;   homeXdirOverride,1
;   homeYdirOverride,1
;   homeZdirOverride,-1
;   flipXoverride,1
;   flipYoverride,-1
;   flipZoverride,1
;   toolheadOffsets,0,0|0,0|0,0|0,0|0,0|0,0
;   overrideFirmwareConfiguration,1
;   firmwareTypeOverride,MakerBot/Sailfish Firmware
;   GPXconfigOverride,r2h
;   baudRateOverride,115200
;   overridePrinterModels,1
;   printerModelsOverride,MakerBot_Replicator2.stl
;   startingGcode,; **** Replicator 2 start.gcode ****,M73 P0 ; enable build progress,G162 X Y F3000 ; home XY maximum,G161 Z F1200 ; home Z minimum,G92 Z-5 ; set Z to -5,G1 Z0 ; move Z to 0,G28 ; better homing homie,M132 X Y Z A B ; recall home offsets,G1 X-145 Y-75 Z30 F9000 ; move to wait position off table,G130 X20 Y20 Z20 A20 B20 ; lower stepper Vrefs while heating,M126 S[fan_speed_pwm],M140 S[bed0_temperature] T0,M134 T0 ; stabilize bed temperature,M104 S[extruder0_temperature] T0,M133 T0 ; stabilize extruder temperature,G130 X127 Y127 Z40 A127 B127 ; default stepper Vrefs,G92 A0 ; zero extruder,G1 Z0.4 ; position nozzle,G1 E25 F300 ; purge nozzle,G1 X-140 Y-70 Z0.15 F1200 ; slow wipe,G1 X-135 Y-65 Z0.5 F1200 ; lift,G92 A0 ; zero extruder,M73 P1 ;@body (notify GPX body has started),; **** end of start.gcode ****
;   layerChangeGcode,
;   retractionGcode,
;   toolChangeGcode,
;   endingGcode,; **** Replicator 2 end.gcode ****,M73 P100 ; end build progress,G1 Z155 F1000 ; send Z axis to bottom of machine,M104 S0 T0 ; cool down extruder,M140 S0 T0 ; cool down HBP,M127 ; stop blower fan,G162 X Y F3000 ; home XY maximum,M18 ; disable stepper,M0 ; stop codes,M72 P1 ; play Ta-Da song,; **** end of end.gcode ****
;   exportFileFormat,gcode
;   celebration,0
;   celebrationSong,Random Song
;   postProcessing,
;   defaultSpeed,4800
;   outlineUnderspeed,0.5
;   solidInfillUnderspeed,1
;   supportUnderspeed,1
;   rapidXYspeed,9000
;   rapidZspeed,1200
;   minBridgingArea,50
;   bridgingExtraInflation,0
;   bridgingExtrusionMultiplier,1
;   bridgingSpeedMultiplier,0.8
;   useFixedBridgingAngle,0
;   fixedBridgingAngle,0
;   applyBridgingToPerimeters,0
;   filamentDiameters,1.75|1.75|1.75|1.75|1.75|1.75
;   filamentPricesPerKg,46|46|46|46|46|46
;   filamentDensities,1.25|1.25|1.25|1.25|1.25|1.25
;   useMinPrintHeight,0
;   minPrintHeight,0
;   useMaxPrintHeight,0
;   maxPrintHeight,4.84
;   useDiaphragm,0
;   diaphragmLayerInterval,20
;   robustSlicing,1
;   mergeAllIntoSolid,0
;   onlyRetractWhenCrossingOutline,0
;   retractBetweenLayers,0
;   useRetractionMinTravel,1
;   retractionMinTravel,7
;   retractWhileWiping,1
;   onlyWipeOutlines,1
;   avoidCrossingOutline,0
;   maxMovementDetourFactor,3
;   toolChangeRetractionDistance,12
;   toolChangeExtraRestartDistance,-0.5
;   toolChangeRetractionSpeed,600
;   externalThinWallType,0
;   internalThinWallType,0
;   thinWallAllowedOverlapPercentage,10
;   singleExtrusionMinLength,1
;   singleExtrusionMinPrintingWidthPercentage,50
;   singleExtrusionMaxPrintingWidthPercentage,200
;   singleExtrusionEndpointExtension,0.2
;   horizontalSizeCompensation,0
G90
M83
; **** Replicator 2 start.gcode ****
M73 P0 ; enable build progress
G162 X Y F3000 ; home XY maximum
G161 Z F1200 ; home Z minimum
G92 Z-5 ; set Z to -5
G1 Z0 ; move Z to 0
G28 ; better homing homie
M132 X Y Z A B ; recall home offsets
G1 X-145 Y-75 Z30 F9000 ; move to wait position off table
G130 X20 Y20 Z20 A20 B20 ; lower stepper Vrefs while heating
M127
M140 S65 T0
M134 T0 ; stabilize bed temperature
M104 S230 T0
M133 T0 ; stabilize extruder temperature
G130 X127 Y127 Z40 A127 B127 ; default stepper Vrefs
G92 A0 ; zero extruder
G1 Z0.4 ; position nozzle
G1 E25 F300 ; purge nozzle
G1 X-140 Y-70 Z0.15 F1200 ; slow wipe
G1 X-135 Y-65 Z0.5 F1200 ; lift
G92 A0 ; zero extruder
M73 P1 ;@body (notify GPX body has started)
; **** end of start.gcode ****
; process Process1
; layer 1, Z = 0.200
M135 T0
G1 E-1.9000 F1200
; feature inner perimeter
; tool H0.200 W0.400
G1 Z0.500 F1200
G1 X33.405 Y-9.992 F9000
G1 Z0.200 F1200
G1 E1.9000 F1200
G1 X9.345 Y-9.992 E0.8002 F1800
G1 X8.933 Y-9.580 E0.0194
G1 X8.933 Y-1.434 E0.2710
G1 X1.574 Y-1.434 E0.2448
G1 X1.574 Y-14.758 E0.4432
G1 X33.405 Y-14.758 E1.0587
G1 X33.405 Y-9.992 E0.1585
; feature outer perimeter
G1 X33.805 Y-9.592 F9000
G1 X9.511 Y-9.592 E0.8080 F1200
G1 X9.333 Y-9.414 E0.0083
G1 X9.333 Y-1.034 E0.2787
G1 X1.174 Y-1.034 E0.2714
G1 X1.174 Y-15.158 E0.4698
G1 X33.805 Y-15.158 E1.0853
G1 X33.805 Y-9.592 E0.1851
G1 E-1.9000 F1200
; feature inner perimeter
G1 Z0.700 F1200
G1 X8.284 Y-5.716 F9000
G1 Z0.200 F1200
G1 E1.9000 F1200
G1 X8.108 Y-6.295 E0.0201 F1800
G1 X7.822 Y-6.829 E0.0201
G1 X7.438 Y-7.297 E0.0201
G1 X6.970 Y-7.682 E0.0201
G1 X6.436 Y-7.967 E0.0201
G1 X5.856 Y-8.143 E0.0201
G1 X5.253 Y-8.202 E0.0201
G1 X4.651 Y-8.143 E0.0201
G1 X4.071 Y-7.967 E0.0201
G1 X3.537 Y-7.682 E0.0201
G1 X3.069 Y-7.297 E0.0201
G1 X2.684 Y-6.829 E0.0201
G1 X2.399 Y-6.295 E0.0201
G1 X2.223 Y-5.715 E0.0201
G1 X2.164 Y-5.113 E0.0201
G1 X2.223 Y-4.510 E0.0201
G1 X2.399 Y-3.930 E0.0201
G1 X2.684 Y-3.396 E0.0201
G1 X3.069 Y-2.928 E0.0201
G1 X3.537 Y-2.544 E0.0201
G1 X4.071 Y-2.258 E0.0201
G1 X4.651 Y-2.082 E0.0201
G1 X5.253 Y-2.023 E0.0201
G1 X5.856 Y-2.082 E0.0201
G1 X6.436 Y-2.258 E0.0201
G1 X6.970 Y-2.544 E0.0201
G1 X7.438 Y-2.928 E0.0201
G1 X7.822 Y-3.396 E0.0201
G1 X8.108 Y-3.930 E0.0201
G1 X8.284 Y-4.510 E0.0201
G1 X8.343 Y-5.113 E0.0201
G1 X8.284 Y-5.716 E0.0201
; feature outer perimeter
G1 X7.890 Y-5.637 F9000
G1 X7.737 Y-6.141 E0.0175 F1200
G1 X7.488 Y-6.606 E0.0175
G1 X7.154 Y-7.013 E0.0175
G1 X6.747 Y-7.348 E0.0175
G1 X6.282 Y-7.596 E0.0175
G1 X5.778 Y-7.749 E0.0175
G1 X5.253 Y-7.801 E0.0175
G1 X4.729 Y-7.749 E0.0175
G1 X4.225 Y-7.596 E0.0175
G1 X3.760 Y-7.348 E0.0175
G1 X3.353 Y-7.013 E0.0175
G1 X3.019 Y-6.606 E0.0175
G1 X2.770 Y-6.141 E0.0175
G1 X2.617 Y-5.637 E0.0175
G1 X2.566 Y-5.113 E0.0175
G1 X2.617 Y-4.588 E0.0175
G1 X2.770 Y-4.084 E0.0175
G1 X3.019 Y-3.619 E0.0175
G1 X3.353 Y-3.212 E0.0175
G1 X3.760 Y-2.878 E0.0175
G1 X4.225 Y-2.630 E0.0175
G1 X4.729 Y-2.477 E0.0175
G1 X5.253 Y-2.425 E0.0175
G1 X5.778 Y-2.477 E0.0175
G1 X6.282 Y-2.630 E0.0175
G1 X6.747 Y-2.878 E0.0175
G1 X7.154 Y-3.212 E0.0175
G1 X7.488 Y-3.619 E0.0175
G1 X7.737 Y-4.084 E0.0175
G1 X7.890 Y-4.588 E0.0175
G1 X7.941 Y-5.113 E0.0175
G1 X7.890 Y-5.637 E0.0175
; feature solid layer
G1 X8.531 Y-6.002 F9000
G1 X8.613 Y-5.920 E0.0039 F2400
G1 X8.550 Y-4.286 F9000
G1 X8.613 Y-4.223 E0.0030 F2400
G1 X8.613 Y-3.657 E0.0188
G1 X8.419 Y-3.852 E0.0092
G1 X8.405 Y-3.807 E0.0016
G1 X8.228 Y-3.477 E0.0125
G1 X8.613 Y-3.092 E0.0181
G1 X8.613 Y-2.526 E0.0188
G1 X8.014 Y-3.125 E0.0282
G1 X7.759 Y-2.814 E0.0134
G1 X8.613 Y-1.960 E0.0402
G1 X8.613 Y-1.754 E0.0069
G1 X8.254 Y-1.754 E0.0119
G1 X7.469 Y-2.539 E0.0369
G1 X7.158 Y-2.284 E0.0134
G1 X7.688 Y-1.754 E0.0249
G1 X7.123 Y-1.754 E0.0188
G1 X6.791 Y-2.085 E0.0156
G1 X6.559 Y-1.961 E0.0088
G1 X6.398 Y-1.912 E0.0056
G1 X6.557 Y-1.754 E0.0075
G1 X5.991 Y-1.754 E0.0188
G1 X5.964 Y-1.781 E0.0013
G1 X2.032 Y-1.754 F9000
G1 X1.894 Y-1.891 E0.0065 F2400
G1 X1.894 Y-2.457 E0.0188
G1 X2.597 Y-1.754 E0.0331
G1 X3.163 Y-1.754 E0.0188
G1 X1.894 Y-3.023 E0.0597
G1 X1.894 Y-3.589 E0.0188
G1 X3.729 Y-1.754 E0.0863
G1 X4.294 Y-1.754 E0.0188
G1 X4.147 Y-1.901 E0.0069
G1 X3.948 Y-1.961 E0.0069
G1 X3.358 Y-2.276 E0.0222
G1 X2.841 Y-2.701 E0.0222
G1 X2.417 Y-3.218 E0.0222
G1 X2.102 Y-3.807 E0.0222
G1 X2.041 Y-4.006 E0.0069
G1 X1.894 Y-4.154 E0.0070
G1 X1.921 Y-5.823 F9000
G1 X1.894 Y-5.851 E0.0013 F2400
G1 X1.894 Y-6.417 E0.0188
G1 X2.053 Y-6.258 E0.0075
G1 X2.102 Y-6.418 E0.0056
G1 X2.226 Y-6.650 E0.0088
G1 X1.894 Y-6.983 E0.0156
G1 X1.894 Y-7.548 E0.0188
G1 X2.425 Y-7.017 E0.0250
G1 X2.680 Y-7.328 E0.0134
G1 X1.894 Y-8.114 E0.0370
G1 X1.894 Y-8.680 E0.0188
G1 X2.955 Y-7.618 E0.0499
G1 X3.266 Y-7.873 E0.0134
G1 X1.894 Y-9.245 E0.0645
G1 X1.894 Y-9.811 E0.0188
G1 X3.617 Y-8.088 E0.0811
G1 X3.948 Y-8.264 E0.0125
G1 X3.993 Y-8.278 E0.0015
G1 X1.894 Y-10.377 E0.0987
G1 X1.894 Y-10.942 E0.0188
G1 X4.427 Y-8.410 E0.1191
G1 X4.588 Y-8.458 E0.0056
G1 X4.911 Y-8.490 E0.0108
G1 X1.894 Y-11.508 E0.1419
G1 X1.894 Y-12.074 E0.0188
G1 X5.464 Y-8.503 E0.1680
G1 X5.919 Y-8.458 E0.0152
G1 X6.143 Y-8.391 E0.0078
G1 X1.894 Y-12.640 E0.1999
G1 X1.894 Y-13.205 E0.0188
G1 X7.155 Y-7.944 E0.2475
G1 X7.666 Y-7.525 E0.0220
G1 X8.085 Y-7.014 E0.0220
G1 X8.613 Y-6.486 E0.0249
G1 X8.613 Y-7.051 E0.0188
G1 X1.894 Y-13.771 E0.3161
G1 X1.894 Y-14.337 E0.0188
G1 X8.613 Y-7.617 E0.3161
G1 X8.613 Y-8.183 E0.0188
G1 X2.358 Y-14.438 E0.2942
G1 X2.924 Y-14.438 E0.0188
G1 X8.613 Y-8.748 E0.2676
G1 X8.613 Y-9.314 E0.0188
G1 X3.490 Y-14.438 E0.2410
G1 X4.055 Y-14.438 E0.0188
G1 X8.697 Y-9.796 E0.2183
G1 X8.980 Y-10.079 E0.0133
G1 X4.621 Y-14.438 E0.2050
G1 X5.187 Y-14.438 E0.0188
G1 X9.312 Y-10.312 E0.1941
G1 X9.878 Y-10.312 E0.0188
G1 X5.752 Y-14.438 E0.1941
G1 X6.318 Y-14.438 E0.0188
G1 X10.444 Y-10.312 E0.1941
G1 X11.010 Y-10.312 E0.0188
G1 X6.884 Y-14.438 E0.1941
G1 X7.449 Y-14.438 E0.0188
G1 X11.575 Y-10.312 E0.1941
G1 X12.141 Y-10.312 E0.0188
G1 X8.015 Y-14.438 E0.1941
G1 X8.581 Y-14.438 E0.0188
G1 X12.707 Y-10.312 E0.1941
G1 X13.272 Y-10.312 E0.0188
G1 X9.147 Y-14.438 E0.1941
G1 X9.712 Y-14.438 E0.0188
G1 X13.838 Y-10.312 E0.1941
G1 X14.404 Y-10.312 E0.0188
G1 X10.278 Y-14.438 E0.1941
G1 X10.844 Y-14.438 E0.0188
G1 X14.969 Y-10.312 E0.1941
G1 X15.535 Y-10.312 E0.0188
G1 X11.409 Y-14.438 E0.1941
G1 X11.975 Y-14.438 E0.0188
G1 X16.101 Y-10.312 E0.1941
G1 X16.666 Y-10.312 E0.0188
G1 X12.541 Y-14.438 E0.1941
G1 X13.106 Y-14.438 E0.0188
G1 X17.232 Y-10.312 E0.1941
G1 X17.798 Y-10.312 E0.0188
G1 X13.672 Y-14.438 E0.1941
G1 X14.238 Y-14.438 E0.0188
G1 X18.363 Y-10.312 E0.1941
G1 X18.929 Y-10.312 E0.0188
G1 X14.803 Y-14.438 E0.1941
G1 X15.369 Y-14.438 E0.0188
G1 X19.495 Y-10.312 E0.1941
G1 X20.060 Y-10.312 E0.0188
G1 X15.935 Y-14.438 E0.1941
G1 X16.500 Y-14.438 E0.0188
G1 X20.626 Y-10.312 E0.1941
G1 X21.192 Y-10.312 E0.0188
G1 X17.066 Y-14.438 E0.1941
G1 X17.632 Y-14.438 E0.0188
G1 X21.758 Y-10.312 E0.1941
G1 X22.323 Y-10.312 E0.0188
G1 X18.198 Y-14.438 E0.1941
G1 X18.763 Y-14.438 E0.0188
G1 X22.889 Y-10.312 E0.1941
G1 X23.455 Y-10.312 E0.0188
G1 X19.329 Y-14.438 E0.1941
G1 X19.895 Y-14.438 E0.0188
G1 X24.020 Y-10.312 E0.1941
G1 X24.586 Y-10.312 E0.0188
G1 X20.460 Y-14.438 E0.1941
G1 X21.026 Y-14.438 E0.0188
G1 X25.152 Y-10.312 E0.1941
G1 X25.717 Y-10.312 E0.0188
G1 X21.592 Y-14.438 E0.1941
G1 X22.157 Y-14.438 E0.0188
G1 X26.283 Y-10.312 E0.1941
G1 X26.849 Y-10.312 E0.0188
G1 X22.723 Y-14.438 E0.1941
G1 X23.289 Y-14.438 E0.0188
G1 X27.414 Y-10.312 E0.1941
G1 X27.980 Y-10.312 E0.0188
G1 X23.854 Y-14.438 E0.1941
G1 X24.420 Y-14.438 E0.0188
G1 X28.546 Y-10.312 E0.1941
G1 X29.111 Y-10.312 E0.0188
G1 X24.986 Y-14.438 E0.1941
G1 X25.551 Y-14.438 E0.0188
G1 X29.677 Y-10.312 E0.1941
G1 X30.243 Y-10.312 E0.0188
G1 X26.117 Y-14.438 E0.1941
G1 X26.683 Y-14.438 E0.0188
G1 X30.808 Y-10.312 E0.1941
G1 X31.374 Y-10.312 E0.0188
G1 X27.248 Y-14.438 E0.1941
G1 X27.814 Y-14.438 E0.0188
G1 X31.940 Y-10.312 E0.1941
G1 X32.506 Y-10.312 E0.0188
G1 X28.380 Y-14.438 E0.1941
G1 X28.946 Y-14.438 E0.0188
G1 X33.071 Y-10.312 E0.1941
G1 X33.085 Y-10.312 E0.0005
G1 X33.085 Y-10.864 E0.0184
G1 X29.511 Y-14.438 E0.1681
G1 X30.077 Y-14.438 E0.0188
G1 X33.085 Y-11.430 E0.1415
G1 X33.085 Y-11.995 E0.0188
G1 X30.643 Y-14.438 E0.1149
G1 X31.208 Y-14.438 E0.0188
G1 X33.085 Y-12.561 E0.0883
G1 X33.085 Y-13.127 E0.0188
G1 X31.774 Y-14.438 E0.0617
G1 X32.340 Y-14.438 E0.0188
G1 X33.085 Y-13.692 E0.0350
G1 X33.085 Y-14.258 E0.0188
G1 X32.905 Y-14.438 E0.0084
G1 E-1.9000 F1200
; feature inner perimeter
G1 Z0.700 F1200
G1 X43.766 Y-1.498 F9000
G1 Z0.200 F1200
G1 E1.9000 F1200
G1 X11.936 Y-1.498 E1.0587 F1800
G1 X11.935 Y-6.263 E0.1585
G1 X35.995 Y-6.263 E0.8002
G1 X36.407 Y-6.675 E0.0194
G1 X36.407 Y-14.822 E0.2710
G1 X43.766 Y-14.822 E0.2448
G1 X43.766 Y-1.498 E0.4432
; feature outer perimeter
G1 X44.166 Y-1.098 F9000
G1 X11.536 Y-1.098 E1.0853 F1200
G1 X11.535 Y-6.663 E0.1851
G1 X35.829 Y-6.663 E0.8080
G1 X36.007 Y-6.841 E0.0083
G1 X36.007 Y-15.222 E0.2787
G1 X44.166 Y-15.222 E0.2714
G1 X44.166 Y-1.098 E0.4698
G1 E-1.9000 F1200
; feature inner perimeter
G1 Z0.700 F1200
G1 X41.269 Y-8.288 F9000
G1 Z0.200 F1200
G1 E1.9000 F1200
G1 X41.803 Y-8.573 E0.0201 F1800
G1 X42.271 Y-8.958 E0.0201
G1 X42.655 Y-9.426 E0.0201
G1 X42.941 Y-9.960 E0.0201
G1 X43.117 Y-10.540 E0.0201
G1 X43.176 Y-11.142 E0.0201
