; G-Code generated by Simplify3D(R) Version 4.1.2
; May 20, 2020 at 1:49:32 PM
; Settings Summary
;   processName,Process1
;   applyToModels,ST drop bracket,ST drop bracket(2)
;   profileName,MakerBot Replicator 2 HBP (modified)
;   profileVersion,2020-04-21 14:45:34
;   baseProfile,MakerBot Replicator 2(2)
;   printMaterial,PLA
;   printQuality,Medium
;   printExtruders,
;   extruderName,Primary Extruder
;   extruderToolheadNumber,0
;   extruderDiameter,0.4
;   extruderAutoWidth,0
;   extruderWidth,0.4
;   extrusionMultiplier,1
;   extruderUseRetract,1
;   extruderRetractionDistance,1.9
;   extruderExtraRestartDistance,0
;   extruderRetractionZLift,0.5
;   extruderRetractionSpeed,1200
;   extruderUseCoasting,0
;   extruderCoastingDistance,0.2
;   extruderUseWipe,0
;   extruderWipeDistance,5
;   primaryExtruder,0
;   layerHeight,0.2
;   topSolidLayers,3
;   bottomSolidLayers,3
;   perimeterOutlines,2
;   printPerimetersInsideOut,1
;   startPointOption,3
;   startPointOriginX,140
;   startPointOriginY,0
;   sequentialIslands,0
;   spiralVaseMode,0
;   firstLayerHeightPercentage,100
;   firstLayerWidthPercentage,100
;   firstLayerUnderspeed,0.5
;   useRaft,0
;   raftExtruder,0
;   raftTopLayers,2
;   raftBaseLayers,1
;   raftOffset,1
;   raftSeparationDistance,0.14
;   raftTopInfill,90
;   aboveRaftSpeedMultiplier,0.3
;   useSkirt,0
;   skirtExtruder,0
;   skirtLayers,1
;   skirtOutlines,5
;   skirtOffset,0
;   usePrimePillar,0
;   primePillarExtruder,999
;   primePillarWidth,12
;   primePillarLocation,7
;   primePillarSpeedMultiplier,1
;   useOozeShield,0
;   oozeShieldExtruder,999
;   oozeShieldOffset,2
;   oozeShieldOutlines,1
;   oozeShieldSidewallShape,1
;   oozeShieldSidewallAngle,30
;   oozeShieldSpeedMultiplier,1
;   infillExtruder,0
;   internalInfillPattern,Rectilinear
;   externalInfillPattern,Rectilinear
;   infillPercentage,15
;   outlineOverlapPercentage,20
;   infillExtrusionWidthPercentage,100
;   minInfillLength,5
;   infillLayerInterval,1
;   internalInfillAngles,45,-45
;   overlapInternalInfillAngles,0
;   externalInfillAngles,45,-45
;   generateSupport,1
;   supportExtruder,0
;   supportInfillPercentage,30
;   supportExtraInflation,0.6
;   supportBaseLayers,0
;   denseSupportExtruder,0
;   denseSupportLayers,2
;   denseSupportInfillPercentage,70
;   supportLayerInterval,1
;   supportHorizontalPartOffset,0.3
;   supportUpperSeparationLayers,1
;   supportLowerSeparationLayers,1
;   supportType,0
;   supportGridSpacing,99
;   maxOverhangAngle,45
;   supportAngles,0
;   temperatureName,Primary Extruder,Heated Build Platform
;   temperatureNumber,0,0
;   temperatureSetpointCount,1,1
;   temperatureSetpointLayers,1,1
;   temperatureSetpointTemperatures,230,65
;   temperatureStabilizeAtStartup,1,1
;   temperatureHeatedBed,0,1
;   fanLayers,1,2
;   fanSpeeds,0,100
;   blipFanToFullPower,1
;   adjustSpeedForCooling,1
;   minSpeedLayerTime,15
;   minCoolingSpeedSlowdown,20
;   increaseFanForCooling,1
;   minFanLayerTime,45
;   maxCoolingFanSpeed,100
;   increaseFanForBridging,1
;   bridgingFanSpeed,100
;   use5D,1
;   relativeEdistances,1
;   allowEaxisZeroing,0
;   independentExtruderAxes,1
;   includeM10123,0
;   stickySupport,1
;   applyToolheadOffsets,0
;   gcodeXoffset,0
;   gcodeYoffset,0
;   gcodeZoffset,0
;   overrideMachineDefinition,1
;   machineTypeOverride,0
;   strokeXoverride,280
;   strokeYoverride,150
;   strokeZoverride,150
;   originOffsetXoverride,140
;   originOffsetYoverride,75
;   originOffsetZoverride,0
;   homeXdirOverride,1
;   homeYdirOverride,1
;   homeZdirOverride,-1
;   flipXoverride,1
;   flipYoverride,-1
;   flipZoverride,1
;   toolheadOffsets,0,0|0,0|0,0|0,0|0,0|0,0
;   overrideFirmwareConfiguration,1
;   firmwareTypeOverride,MakerBot/Sailfish Firmware
;   GPXconfigOverride,r2h
;   baudRateOverride,115200
;   overridePrinterModels,1
;   printerModelsOverride,MakerBot_Replicator2.stl
;   startingGcode,; **** Replicator 2 start.gcode ****,M73 P0 ; enable build progress,G162 X Y F3000 ; home XY maximum,G161 Z F1200 ; home Z minimum,G92 Z-5 ; set Z to -5,G1 Z0 ; move Z to 0,G28 ; better homing homie,M132 X Y Z A B ; recall home offsets,G1 X-145 Y-75 Z30 F9000 ; move to wait position off table,G130 X20 Y20 Z20 A20 B20 ; lower stepper Vrefs while heating,M126 S[fan_speed_pwm],M140 S[bed0_temperature] T0,M134 T0 ; stabilize bed temperature,M104 S[extruder0_temperature] T0,M133 T0 ; stabilize extruder temperature,G130 X127 Y127 Z40 A127 B127 ; default stepper Vrefs,G92 A0 ; zero extruder,G1 Z0.4 ; position nozzle,G1 E25 F300 ; purge nozzle,G1 X-140 Y-70 Z0.15 F1200 ; slow wipe,G1 X-135 Y-65 Z0.5 F1200 ; lift,G92 A0 ; zero extruder,M73 P1 ;@body (notify GPX body has started),; **** end of start.gcode ****
;   layerChangeGcode,
;   retractionGcode,
;   toolChangeGcode,
;   endingGcode,; **** Replicator 2 end.gcode ****,M73 P100 ; end build progress,G1 Z155 F1000 ; send Z axis to bottom of machine,M104 S0 T0 ; cool down extruder,M140 S0 T0 ; cool down HBP,M127 ; stop blower fan,G162 X Y F3000 ; home XY maximum,M18 ; disable stepper,M0 ; stop codes,M72 P1 ; play Ta-Da song,; **** end of end.gcode ****
;   exportFileFormat,gcode
;   celebration,0
;   celebrationSong,Random Song
;   postProcessing,
;   defaultSpeed,4800
;   outlineUnderspeed,0.5
;   solidInfillUnderspeed,1
;   supportUnderspeed,1
;   rapidXYspeed,9000
;   rapidZspeed,1200
;   minBridgingArea,50
;   bridgingExtraInflation,0
;   bridgingExtrusionMultiplier,1
;   bridgingSpeedMultiplier,0.8
;   useFixedBridgingAngle,0
;   fixedBridgingAngle,0
;   applyBridgingToPerimeters,0
;   filamentDiameters,1.75|1.75|1.75|1.75|1.75|1.75
;   filamentPricesPerKg,46|46|46|46|46|46
;   filamentDensities,1.25|1.25|1.25|1.25|1.25|1.25
;   useMinPrintHeight,0
;   minPrintHeight,0
;   useMaxPrintHeight,0
;   maxPrintHeight,4.84
;   useDiaphragm,0
;   diaphragmLayerInterval,20
;   robustSlicing,1
;   mergeAllIntoSolid,0
;   onlyRetractWhenCrossingOutline,0
;   retractBetweenLayers,0
;   useRetractionMinTravel,1
;   retractionMinTravel,7
;   retractWhileWiping,1
;   onlyWipeOutlines,1
;   avoidCrossingOutline,0
;   maxMovementDetourFactor,3
;   toolChangeRetractionDistance,12
;   toolChangeExtraRestartDistance,-0.5
;   toolChangeRetractionSpeed,600
;   externalThinWallType,0
;   internalThinWallType,0
;   thinWallAllowedOverlapPercentage,10
;   singleExtrusionMinLength,1
;   singleExtrusionMinPrintingWidthPercentage,50
;   singleExtrusionMaxPrintingWidthPercentage,200
;   singleExtrusionEndpointExtension,0.2
;   horizontalSizeCompensation,0
G90
M83
; **** Replicator 2 start.gcode ****
M73 P0 ; enable build progress
G162 X Y F3000 ; home XY maximum
G161 Z F1200 ; home Z minimum
G92 Z-5 ; set Z to -5
G1 Z0 ; move Z to 0
G28 ; better homing homie
M132 X Y Z A B ; recall home offsets
G1 X-145 Y-75 Z30 F9000 ; move to wait position off table
G130 X20 Y20 Z20 A20 B20 ; lower stepper Vrefs while heating
M126 S31
M140 S65 T0
M134 T0 ; stabilize bed temperature
M104 S230 T0
M133 T0 ; stabilize extruder temperature
G130 X127 Y127 Z40 A127 B127 ; default stepper Vrefs
G92 A0 ; zero extruder
G1 Z0.4 ; position nozzle
G1 E25 F300 ; purge nozzle
G1 X-140 Y-70 Z0.15 F1200 ; slow wipe
G1 X-135 Y-65 Z0.5 F1200 ; lift
G92 A0 ; zero extruder
M73 P1 ;@body (notify GPX body has started)
; **** end of start.gcode ****
; process Process1
; layer 1, Z = 0.200
M135 T0
G1 E-1.9000 F1200
; feature inner perimeter
; tool H0.200 W0.400
G1 Z0.500 F1200
G1 X26.277 Y6.598 F9000
G1 Z0.200 F1200
G1 E1.9000 F1200
G1 X-5.554 Y6.598 E1.0587 F1800
G1 X-5.554 Y1.832 E0.1585
G1 X18.506 Y1.832 E0.8002
G1 X18.918 Y1.421 E0.0194
G1 X18.918 Y-6.726 E0.2710
G1 X26.277 Y-6.726 E0.2448
G1 X26.277 Y6.598 E0.4432
; feature outer perimeter
G1 X26.677 Y6.998 F9000
G1 X-5.953 Y6.998 E1.0853 F1200
G1 X-5.954 Y1.432 E0.1851
G1 X18.340 Y1.432 E0.8080
G1 X18.517 Y1.255 E0.0083
G1 X18.517 Y-7.126 E0.2787
G1 X26.677 Y-7.126 E0.2714
G1 X26.677 Y6.998 E0.4698
G1 E-1.9000 F1200
; feature inner perimeter
G1 Z0.700 F1200
G1 X23.780 Y-0.192 F9000
G1 Z0.200 F1200
G1 E1.9000 F1200
G1 X24.314 Y-0.478 E0.0201 F1800
G1 X24.782 Y-0.862 E0.0201
G1 X25.166 Y-1.330 E0.0201
G1 X25.452 Y-1.864 E0.0201
G1 X25.628 Y-2.444 E0.0201
G1 X25.687 Y-3.047 E0.0201
G1 X25.628 Y-3.650 E0.0201
G1 X25.452 Y-4.229 E0.0201
G1 X25.166 Y-4.763 E0.0201
G1 X24.782 Y-5.232 E0.0201
G1 X24.314 Y-5.616 E0.0201
G1 X23.780 Y-5.901 E0.0201
G1 X23.200 Y-6.077 E0.0201
G1 X22.597 Y-6.137 E0.0201
G1 X21.994 Y-6.077 E0.0201
G1 X21.415 Y-5.901 E0.0201
G1 X20.881 Y-5.616 E0.0201
G1 X20.413 Y-5.232 E0.0201
G1 X20.028 Y-4.763 E0.0201
G1 X19.743 Y-4.229 E0.0201
G1 X19.567 Y-3.650 E0.0201
G1 X19.508 Y-3.047 E0.0201
G1 X19.567 Y-2.444 E0.0201
G1 X19.743 Y-1.864 E0.0201
G1 X20.028 Y-1.330 E0.0201
G1 X20.413 Y-0.862 E0.0201
G1 X20.881 Y-0.478 E0.0201
G1 X21.415 Y-0.192 E0.0201
G1 X21.994 Y-0.016 E0.0201
G1 X22.597 Y0.043 E0.0201
G1 X23.200 Y-0.016 E0.0201
G1 X23.780 Y-0.192 E0.0201
; feature outer perimeter
G1 X23.626 Y-0.564 F9000
G1 X24.091 Y-0.812 E0.0175 F1200
G1 X24.498 Y-1.146 E0.0175
G1 X24.832 Y-1.554 E0.0175
G1 X25.080 Y-2.018 E0.0175
G1 X25.233 Y-2.522 E0.0175
G1 X25.285 Y-3.047 E0.0175
G1 X25.233 Y-3.571 E0.0175
G1 X25.080 Y-4.075 E0.0175
G1 X24.832 Y-4.540 E0.0175
G1 X24.498 Y-4.947 E0.0175
G1 X24.091 Y-5.282 E0.0175
G1 X23.626 Y-5.530 E0.0175
G1 X23.122 Y-5.683 E0.0175
G1 X22.597 Y-5.735 E0.0175
G1 X22.073 Y-5.683 E0.0175
G1 X21.569 Y-5.530 E0.0175
G1 X21.104 Y-5.282 E0.0175
G1 X20.697 Y-4.947 E0.0175
G1 X20.362 Y-4.540 E0.0175
G1 X20.114 Y-4.075 E0.0175
G1 X19.961 Y-3.571 E0.0175
G1 X19.910 Y-3.047 E0.0175
G1 X19.961 Y-2.522 E0.0175
G1 X20.114 Y-2.018 E0.0175
G1 X20.362 Y-1.554 E0.0175
G1 X20.697 Y-1.146 E0.0175
G1 X21.104 Y-0.812 E0.0175
G1 X21.569 Y-0.564 E0.0175
G1 X22.073 Y-0.411 E0.0175
G1 X22.597 Y-0.359 E0.0175
G1 X23.122 Y-0.411 E0.0175
G1 X23.626 Y-0.564 E0.0175
; feature solid layer
G1 X25.950 Y-2.456 F9000
G1 X25.957 Y-2.449 E0.0003 F2400
G1 X25.957 Y-1.883 E0.0188
G1 X25.830 Y-2.010 E0.0060
G1 X25.749 Y-1.741 E0.0093
G1 X25.674 Y-1.601 E0.0053
G1 X25.957 Y-1.317 E0.0133
G1 X25.957 Y-0.752 E0.0188
G1 X25.477 Y-1.232 E0.0226
G1 X25.434 Y-1.152 E0.0030
G1 X25.234 Y-0.909 E0.0105
G1 X25.957 Y-0.186 E0.0340
G1 X25.957 Y0.380 E0.0188
G1 X24.973 Y-0.605 E0.0463
G1 X24.662 Y-0.350 E0.0134
G1 X25.957 Y0.945 E0.0609
G1 X25.957 Y1.511 E0.0188
G1 X24.325 Y-0.121 E0.0768
G1 X23.956 Y0.076 E0.0139
G1 X25.957 Y2.077 E0.0941
G1 X25.957 Y2.642 E0.0188
G1 X23.532 Y0.217 E0.1141
G1 X23.263 Y0.299 E0.0094
G1 X23.067 Y0.318 E0.0065
G1 X25.957 Y3.208 E0.1359
G1 X25.957 Y3.774 E0.0188
G1 X22.542 Y0.359 E0.1606
G1 X21.932 Y0.299 E0.0204
G1 X21.910 Y0.292 E0.0008
G1 X25.957 Y4.339 E0.1904
G1 X25.957 Y4.905 E0.0188
G1 X21.002 Y-0.050 E0.2331
G1 X20.702 Y-0.210 E0.0113
G1 X20.185 Y-0.635 E0.0222
G1 X19.761 Y-1.152 E0.0222
G1 X19.601 Y-1.451 E0.0113
G1 X19.238 Y-1.814 E0.0171
G1 X19.238 Y-2.380 E0.0188
G1 X19.258 Y-2.359 E0.0010
G1 X19.238 Y-1.249 F9000
G1 X25.957 Y5.471 E0.3161 F2400
G1 X25.957 Y6.036 E0.0188
G1 X19.238 Y-0.683 E0.3161
G1 X19.238 Y-0.117 E0.0188
G1 X25.633 Y6.278 E0.3008
G1 X25.067 Y6.278 E0.0188
G1 X19.238 Y0.448 E0.2742
G1 X19.238 Y1.014 E0.0188
G1 X24.502 Y6.278 E0.2476
G1 X23.936 Y6.278 E0.0188
G1 X19.224 Y1.566 E0.2216
G1 X18.941 Y1.849 E0.0133
G1 X23.370 Y6.278 E0.2083
G1 X22.804 Y6.278 E0.0188
G1 X18.659 Y2.132 E0.1950
G1 X18.638 Y2.152 E0.0010
G1 X18.113 Y2.152 E0.0175
G1 X22.239 Y6.278 E0.1941
G1 X21.673 Y6.278 E0.0188
G1 X17.547 Y2.152 E0.1941
G1 X16.982 Y2.152 E0.0188
G1 X21.107 Y6.278 E0.1941
G1 X20.542 Y6.278 E0.0188
G1 X16.416 Y2.152 E0.1941
G1 X15.850 Y2.152 E0.0188
G1 X19.976 Y6.278 E0.1941
G1 X19.410 Y6.278 E0.0188
G1 X15.285 Y2.152 E0.1941
G1 X14.719 Y2.152 E0.0188
G1 X18.845 Y6.278 E0.1941
G1 X18.279 Y6.278 E0.0188
G1 X14.153 Y2.152 E0.1941
G1 X13.588 Y2.152 E0.0188
G1 X17.713 Y6.278 E0.1941
G1 X17.148 Y6.278 E0.0188
G1 X13.022 Y2.152 E0.1941
G1 X12.456 Y2.152 E0.0188
G1 X16.582 Y6.278 E0.1941
G1 X16.016 Y6.278 E0.0188
G1 X11.891 Y2.152 E0.1941
G1 X11.325 Y2.152 E0.0188
G1 X15.451 Y6.278 E0.1941
G1 X14.885 Y6.278 E0.0188
G1 X10.759 Y2.152 E0.1941
G1 X10.193 Y2.152 E0.0188
G1 X14.319 Y6.278 E0.1941
G1 X13.753 Y6.278 E0.0188
G1 X9.628 Y2.152 E0.1941
G1 X9.062 Y2.152 E0.0188
G1 X13.188 Y6.278 E0.1941
G1 X12.622 Y6.278 E0.0188
G1 X8.496 Y2.152 E0.1941
G1 X7.931 Y2.152 E0.0188
G1 X12.056 Y6.278 E0.1941
G1 X11.491 Y6.278 E0.0188
G1 X7.365 Y2.152 E0.1941
G1 X6.799 Y2.152 E0.0188
G1 X10.925 Y6.278 E0.1941
G1 X10.359 Y6.278 E0.0188
G1 X6.234 Y2.152 E0.1941
G1 X5.668 Y2.152 E0.0188
G1 X9.794 Y6.278 E0.1941
G1 X9.228 Y6.278 E0.0188
G1 X5.102 Y2.152 E0.1941
G1 X4.537 Y2.152 E0.0188
G1 X8.662 Y6.278 E0.1941
G1 X8.097 Y6.278 E0.0188
G1 X3.971 Y2.152 E0.1941
G1 X3.405 Y2.152 E0.0188
G1 X7.531 Y6.278 E0.1941
G1 X6.965 Y6.278 E0.0188
G1 X2.840 Y2.152 E0.1941
G1 X2.274 Y2.152 E0.0188
G1 X6.400 Y6.278 E0.1941
G1 X5.834 Y6.278 E0.0188
G1 X1.708 Y2.152 E0.1941
G1 X1.142 Y2.152 E0.0188
G1 X5.268 Y6.278 E0.1941
G1 X4.703 Y6.278 E0.0188
G1 X0.577 Y2.152 E0.1941
G1 X0.011 Y2.152 E0.0188
G1 X4.137 Y6.278 E0.1941
G1 X3.571 Y6.278 E0.0188
G1 X-0.555 Y2.152 E0.1941
G1 X-1.120 Y2.152 E0.0188
G1 X3.005 Y6.278 E0.1941
G1 X2.440 Y6.278 E0.0188
G1 X-1.686 Y2.152 E0.1941
G1 X-2.252 Y2.152 E0.0188
G1 X1.874 Y6.278 E0.1941
G1 X1.308 Y6.278 E0.0188
G1 X-2.817 Y2.152 E0.1941
G1 X-3.383 Y2.152 E0.0188
G1 X0.743 Y6.278 E0.1941
G1 X0.177 Y6.278 E0.0188
G1 X-3.949 Y2.152 E0.1941
G1 X-4.514 Y2.152 E0.0188
G1 X-0.389 Y6.278 E0.1941
G1 X-0.954 Y6.278 E0.0188
G1 X-5.080 Y2.152 E0.1941
G1 X-5.234 Y2.152 E0.0051
G1 X-5.234 Y2.564 E0.0137
G1 X-1.520 Y6.278 E0.1747
G1 X-2.086 Y6.278 E0.0188
G1 X-5.234 Y3.130 E0.1481
G1 X-5.234 Y3.696 E0.0188
G1 X-2.651 Y6.278 E0.1215
G1 X-3.217 Y6.278 E0.0188
G1 X-5.234 Y4.261 E0.0949
G1 X-5.234 Y4.827 E0.0188
G1 X-3.783 Y6.278 E0.0682
G1 X-4.348 Y6.278 E0.0188
G1 X-5.234 Y5.393 E0.0416
G1 X-5.234 Y5.959 E0.0188
G1 X-4.914 Y6.278 E0.0150
G1 E-1.9000 F1200
G1 Z0.700 F1200
G1 X19.238 Y-4.077 F9000
G1 Z0.200 F1200
G1 E1.9000 F1200
G1 X19.333 Y-3.981 E0.0045 F2400
G1 X19.446 Y-4.352 E0.0129
G1 X19.474 Y-4.406 E0.0020
G1 X19.238 Y-4.643 E0.0111
G1 X19.238 Y-5.209 E0.0188
G1 X19.671 Y-4.775 E0.0204
G1 X19.761 Y-4.942 E0.0063
G1 X19.900 Y-5.112 E0.0073
G1 X19.238 Y-5.774 E0.0312
G1 X19.238 Y-6.340 E0.0188
G1 X20.155 Y-5.422 E0.0432
G1 X20.185 Y-5.459 E0.0016
G1 X20.459 Y-5.684 E0.0118
G1 X19.737 Y-6.406 E0.0340
G1 X20.303 Y-6.406 E0.0188
G1 X20.783 Y-5.926 E0.0226
G1 X21.151 Y-6.123 E0.0139
G1 X20.869 Y-6.406 E0.0133
G1 X21.434 Y-6.406 E0.0188
G1 X21.560 Y-6.280 E0.0059
G1 X21.932 Y-6.393 E0.0129
G1 X22.006 Y-6.400 E0.0025
G1 X22.000 Y-6.406 E0.0003
G1 X23.132 Y-6.405 F9000
G1 X23.697 Y-6.406 E0.0188 F2400
G1 X23.906 Y-6.196 E0.0099
G1 X24.492 Y-5.883 E0.0221
G1 X25.009 Y-5.459 E0.0222
G1 X25.434 Y-4.942 E0.0222
G1 X25.747 Y-4.356 E0.0221
G1 X25.957 Y-4.146 E0.0099
G1 X25.957 Y-4.712 E0.0188
G1 X24.263 Y-6.406 E0.0797
G1 X24.828 Y-6.406 E0.0188
G1 X25.957 Y-5.277 E0.0531
G1 X25.957 Y-5.843 E0.0188
G1 X25.394 Y-6.406 E0.0265
G1 X25.956 Y-3.581 F9000
G1 X25.957 Y-3.580 E0.0001 F2400
G1 E-1.9000 F1200
; feature inner perimeter
G1 Z0.700 F1200
G1 X15.916 Y-1.896 F9000
G1 Z0.200 F1200
G1 E1.9000 F1200
G1 X-8.144 Y-1.896 E0.8002 F1800
G1 X-8.556 Y-1.485 E0.0194
G1 X-8.556 Y6.662 E0.2710
G1 X-15.916 Y6.662 E0.2448
G1 X-15.916 Y-6.662 E0.4432
G1 X15.916 Y-6.662 E1.0587
G1 X15.916 Y-1.896 E0.1585
; feature outer perimeter
G1 X16.316 Y-1.496 F9000
G1 X-7.979 Y-1.496 E0.8080 F1200
G1 X-8.156 Y-1.319 E0.0083
G1 X-8.156 Y7.062 E0.2787
G1 X-16.316 Y7.062 E0.2714
G1 X-16.316 Y-7.062 E0.4698
G1 X16.316 Y-7.062 E1.0853
G1 X16.316 Y-1.496 E0.1851
G1 E-1.9000 F1200
; feature inner perimeter
G1 Z0.700 F1200
G1 X-9.205 Y2.380 F9000
G1 Z0.200 F1200
G1 E1.9000 F1200
G1 X-9.381 Y1.800 E0.0201 F1800
G1 X-9.667 Y1.266 E0.0201
G1 X-10.051 Y0.798 E0.0201
G1 X-10.519 Y0.414 E0.0201
G1 X-11.053 Y0.128 E0.0201
G1 X-11.633 Y-0.048 E0.0201
G1 X-12.236 Y-0.107 E0.0201
G1 X-12.839 Y-0.048 E0.0201
G1 X-13.418 Y0.128 E0.0201
G1 X-13.952 Y0.414 E0.0201
