; G-Code generated by Simplify3D(R) Version 4.1.2
; Apr 28, 2020 at 10:28:37 AM
; Settings Summary
;   processName,Process1
;   applyToModels,Splint,Splint(2),Splint(3),Splint(4),Splint(5),Splint(6),Splint(7),Splint(8),Splint(9),Splint(10)
;   profileName,MakerBot Replicator 2 HBP (modified)
;   profileVersion,2020-04-21 14:45:34
;   baseProfile,MakerBot Replicator 2(2)
;   printMaterial,PLA
;   printQuality,Medium
;   printExtruders,
;   extruderName,Primary Extruder
;   extruderToolheadNumber,0
;   extruderDiameter,0.4
;   extruderAutoWidth,0
;   extruderWidth,0.4
;   extrusionMultiplier,1
;   extruderUseRetract,1
;   extruderRetractionDistance,1.9
;   extruderExtraRestartDistance,0
;   extruderRetractionZLift,0.5
;   extruderRetractionSpeed,1200
;   extruderUseCoasting,0
;   extruderCoastingDistance,0.2
;   extruderUseWipe,0
;   extruderWipeDistance,5
;   primaryExtruder,0
;   layerHeight,0.2
;   topSolidLayers,3
;   bottomSolidLayers,2
;   perimeterOutlines,2
;   printPerimetersInsideOut,1
;   startPointOption,3
;   startPointOriginX,140
;   startPointOriginY,0
;   sequentialIslands,0
;   spiralVaseMode,0
;   firstLayerHeightPercentage,100
;   firstLayerWidthPercentage,100
;   firstLayerUnderspeed,0.5
;   useRaft,0
;   raftExtruder,0
;   raftTopLayers,2
;   raftBaseLayers,1
;   raftOffset,1
;   raftSeparationDistance,0.14
;   raftTopInfill,90
;   aboveRaftSpeedMultiplier,0.3
;   useSkirt,0
;   skirtExtruder,0
;   skirtLayers,1
;   skirtOutlines,5
;   skirtOffset,0
;   usePrimePillar,0
;   primePillarExtruder,999
;   primePillarWidth,12
;   primePillarLocation,7
;   primePillarSpeedMultiplier,1
;   useOozeShield,0
;   oozeShieldExtruder,999
;   oozeShieldOffset,2
;   oozeShieldOutlines,1
;   oozeShieldSidewallShape,1
;   oozeShieldSidewallAngle,30
;   oozeShieldSpeedMultiplier,1
;   infillExtruder,0
;   internalInfillPattern,Rectilinear
;   externalInfillPattern,Rectilinear
;   infillPercentage,15
;   outlineOverlapPercentage,20
;   infillExtrusionWidthPercentage,100
;   minInfillLength,5
;   infillLayerInterval,1
;   internalInfillAngles,45,-45
;   overlapInternalInfillAngles,0
;   externalInfillAngles,45,-45
;   generateSupport,0
;   supportExtruder,0
;   supportInfillPercentage,30
;   supportExtraInflation,0.6
;   supportBaseLayers,0
;   denseSupportExtruder,0
;   denseSupportLayers,2
;   denseSupportInfillPercentage,70
;   supportLayerInterval,1
;   supportHorizontalPartOffset,0.3
;   supportUpperSeparationLayers,1
;   supportLowerSeparationLayers,1
;   supportType,0
;   supportGridSpacing,2
;   maxOverhangAngle,45
;   supportAngles,0
;   temperatureName,Primary Extruder,Heated Build Platform
;   temperatureNumber,0,0
;   temperatureSetpointCount,1,1
;   temperatureSetpointLayers,1,1
;   temperatureSetpointTemperatures,230,60
;   temperatureStabilizeAtStartup,1,1
;   temperatureHeatedBed,0,1
;   fanLayers,1,2
;   fanSpeeds,0,100
;   blipFanToFullPower,1
;   adjustSpeedForCooling,1
;   minSpeedLayerTime,15
;   minCoolingSpeedSlowdown,20
;   increaseFanForCooling,1
;   minFanLayerTime,45
;   maxCoolingFanSpeed,100
;   increaseFanForBridging,1
;   bridgingFanSpeed,100
;   use5D,1
;   relativeEdistances,1
;   allowEaxisZeroing,0
;   independentExtruderAxes,1
;   includeM10123,0
;   stickySupport,1
;   applyToolheadOffsets,0
;   gcodeXoffset,0
;   gcodeYoffset,0
;   gcodeZoffset,0
;   overrideMachineDefinition,1
;   machineTypeOverride,0
;   strokeXoverride,280
;   strokeYoverride,150
;   strokeZoverride,150
;   originOffsetXoverride,140
;   originOffsetYoverride,75
;   originOffsetZoverride,0
;   homeXdirOverride,1
;   homeYdirOverride,1
;   homeZdirOverride,-1
;   flipXoverride,1
;   flipYoverride,-1
;   flipZoverride,1
;   toolheadOffsets,0,0|0,0|0,0|0,0|0,0|0,0
;   overrideFirmwareConfiguration,1
;   firmwareTypeOverride,MakerBot/Sailfish Firmware
;   GPXconfigOverride,r2h
;   baudRateOverride,115200
;   overridePrinterModels,1
;   printerModelsOverride,MakerBot_Replicator2.stl
;   startingGcode,; **** Replicator 2 start.gcode ****,M73 P0 ; enable build progress,G162 X Y F3000 ; home XY maximum,G161 Z F1200 ; home Z minimum,G92 Z-5 ; set Z to -5,G1 Z0 ; move Z to 0,G161 Z F100 ; home Z slowly,M132 X Y Z A B ; recall home offsets,G1 X-145 Y-75 Z30 F9000 ; move to wait position off table,G130 X20 Y20 Z20 A20 B20 ; lower stepper Vrefs while heating,M126 S[fan_speed_pwm],M140 S[bed0_temperature] T0,M134 T0 ; stabilize bed temperature,M104 S[extruder0_temperature] T0,M133 T0 ; stabilize extruder temperature,G130 X127 Y127 Z40 A127 B127 ; default stepper Vrefs,G92 A0 ; zero extruder,G1 Z0.4 ; position nozzle,G1 E25 F300 ; purge nozzle,G1 X-140 Y-70 Z0.15 F1200 ; slow wipe,G1 X-135 Y-65 Z0.5 F1200 ; lift,G92 A0 ; zero extruder,M73 P1 ;@body (notify GPX body has started),; **** end of start.gcode ****
;   layerChangeGcode,
;   retractionGcode,
;   toolChangeGcode,
;   endingGcode,; **** Replicator 2 end.gcode ****,M73 P100 ; end build progress,G1 Z155 F1000 ; send Z axis to bottom of machine,M104 S0 T0 ; cool down extruder,M140 S0 T0 ; cool down HBP,M127 ; stop blower fan,G162 X Y F3000 ; home XY maximum,M18 ; disable stepper,M0 ; stop codes,M72 P1 ; play Ta-Da song,; **** end of end.gcode ****
;   exportFileFormat,gcode
;   celebration,0
;   celebrationSong,Random Song
;   postProcessing,
;   defaultSpeed,4800
;   outlineUnderspeed,0.5
;   solidInfillUnderspeed,1
;   supportUnderspeed,1
;   rapidXYspeed,9000
;   rapidZspeed,1200
;   minBridgingArea,50
;   bridgingExtraInflation,0
;   bridgingExtrusionMultiplier,1
;   bridgingSpeedMultiplier,0.8
;   useFixedBridgingAngle,0
;   fixedBridgingAngle,0
;   applyBridgingToPerimeters,0
;   filamentDiameters,1.75|1.75|1.75|1.75|1.75|1.75
;   filamentPricesPerKg,46|46|46|46|46|46
;   filamentDensities,1.25|1.25|1.25|1.25|1.25|1.25
;   useMinPrintHeight,0
;   minPrintHeight,0
;   useMaxPrintHeight,0
;   maxPrintHeight,4.84
;   useDiaphragm,0
;   diaphragmLayerInterval,20
;   robustSlicing,1
;   mergeAllIntoSolid,0
;   onlyRetractWhenCrossingOutline,0
;   retractBetweenLayers,0
;   useRetractionMinTravel,1
;   retractionMinTravel,7
;   retractWhileWiping,1
;   onlyWipeOutlines,1
;   avoidCrossingOutline,0
;   maxMovementDetourFactor,3
;   toolChangeRetractionDistance,12
;   toolChangeExtraRestartDistance,-0.5
;   toolChangeRetractionSpeed,600
;   externalThinWallType,0
;   internalThinWallType,0
;   thinWallAllowedOverlapPercentage,10
;   singleExtrusionMinLength,1
;   singleExtrusionMinPrintingWidthPercentage,50
;   singleExtrusionMaxPrintingWidthPercentage,200
;   singleExtrusionEndpointExtension,0.2
;   horizontalSizeCompensation,0
G90
M83
; **** Replicator 2 start.gcode ****
M73 P0 ; enable build progress
G162 X Y F3000 ; home XY maximum
G161 Z F1200 ; home Z minimum
G92 Z-5 ; set Z to -5
G1 Z0 ; move Z to 0
G161 Z F100 ; home Z slowly
M132 X Y Z A B ; recall home offsets
G1 X-145 Y-75 Z30 F9000 ; move to wait position off table
G130 X20 Y20 Z20 A20 B20 ; lower stepper Vrefs while heating
M127
M140 S60 T0
M134 T0 ; stabilize bed temperature
M104 S230 T0
M133 T0 ; stabilize extruder temperature
G130 X127 Y127 Z40 A127 B127 ; default stepper Vrefs
G92 A0 ; zero extruder
G1 Z0.4 ; position nozzle
G1 E25 F300 ; purge nozzle
G1 X-140 Y-70 Z0.15 F1200 ; slow wipe
G1 X-135 Y-65 Z0.5 F1200 ; lift
G92 A0 ; zero extruder
M73 P1 ;@body (notify GPX body has started)
; **** end of start.gcode ****
; process Process1
; layer 1, Z = 0.200
M135 T0
G1 E-1.9000 F1200
; feature inner perimeter
; tool H0.200 W0.400
G1 Z0.500 F1200
G1 X20.900 Y-3.100 F9000
G1 Z0.200 F1200
G1 E1.9000 F1200
G1 X3.100 Y-3.100 E0.5920 F1800
G1 X3.100 Y-10.434 E0.2439
G1 X5.350 Y-15.597 E0.1873
G1 X5.350 Y-29.201 E0.4525
G1 X7.314 Y-29.201 E0.0653
G1 X8.080 Y-27.949 E0.0488
G1 X6.550 Y-27.949 E0.0509
G1 X6.550 Y-11.776 E0.5379
G1 X17.450 Y-11.776 E0.3625
G1 X17.450 Y-27.949 E0.5379
G1 X15.920 Y-27.949 E0.0509
G1 X16.686 Y-29.201 E0.0488
G1 X18.650 Y-29.201 E0.0653
G1 X18.650 Y-15.597 E0.4525
G1 X20.900 Y-10.434 E0.1873
G1 X20.900 Y-3.100 E0.2439
; feature outer perimeter
G1 X21.300 Y-2.700 F9000
G1 X2.700 Y-2.700 E0.6186 F1200
G1 X2.700 Y-10.518 E0.2600
G1 X4.950 Y-15.681 E0.1873
G1 X4.950 Y-29.601 E0.4630
G1 X7.538 Y-29.601 E0.0861
G1 X8.793 Y-27.549 E0.0800
G1 X6.950 Y-27.549 E0.0613
G1 X6.950 Y-12.176 E0.5113
G1 X17.050 Y-12.176 E0.3359
G1 X17.050 Y-27.549 E0.5113
G1 X15.207 Y-27.549 E0.0613
G1 X16.462 Y-29.601 E0.0800
G1 X19.050 Y-29.601 E0.0861
G1 X19.050 Y-15.681 E0.4630
G1 X21.300 Y-10.518 E0.1873
G1 X21.300 Y-2.700 E0.2600
; feature inner perimeter
G1 X18.576 Y-5.371 F9000
G1 X18.879 Y-5.674 E0.0142 F1800
G1 X19.124 Y-6.024 E0.0142
G1 X19.304 Y-6.411 E0.0142
G1 X19.416 Y-6.826 E0.0143
G1 X19.450 Y-7.255 E0.0143
G1 X19.441 Y-7.477 E0.0074
G1 X19.369 Y-7.885 E0.0138
G1 X19.223 Y-8.286 E0.0142
G1 X19.009 Y-8.657 E0.0142
G1 X18.743 Y-8.974 E0.0138
G1 X18.566 Y-9.136 E0.0080
G1 X18.237 Y-9.366 E0.0133
G1 X18.024 Y-9.477 E0.0080
G1 X17.635 Y-9.619 E0.0138
G1 X17.214 Y-9.693 E0.0142
G1 X16.786 Y-9.693 E0.0142
G1 X16.365 Y-9.619 E0.0142
G1 X15.976 Y-9.477 E0.0138
G1 X15.763 Y-9.366 E0.0080
G1 X15.424 Y-9.129 E0.0138
G1 X15.121 Y-8.826 E0.0142
G1 X14.876 Y-8.476 E0.0142
G1 X14.696 Y-8.089 E0.0142
G1 X14.585 Y-7.676 E0.0142
G1 X14.549 Y-7.263 E0.0138
G1 X14.559 Y-7.023 E0.0080
G1 X14.631 Y-6.615 E0.0138
G1 X14.777 Y-6.214 E0.0142
G1 X14.991 Y-5.843 E0.0142
G1 X15.257 Y-5.526 E0.0138
G1 X15.434 Y-5.364 E0.0080
G1 X15.765 Y-5.132 E0.0134
G1 X15.994 Y-5.016 E0.0085
G1 X16.366 Y-4.881 E0.0132
G1 X16.786 Y-4.807 E0.0142
G1 X17.214 Y-4.807 E0.0142
G1 X17.635 Y-4.881 E0.0142
G1 X18.024 Y-5.023 E0.0138
G1 X18.237 Y-5.134 E0.0080
G1 X18.576 Y-5.371 E0.0138
; feature outer perimeter
G1 X18.318 Y-5.679 F9000
G1 X18.571 Y-5.932 E0.0119 F1200
G1 X18.776 Y-6.225 E0.0119
G1 X18.927 Y-6.549 E0.0119
G1 X19.020 Y-6.894 E0.0119
G1 X19.050 Y-7.262 E0.0123
G1 X19.042 Y-7.433 E0.0057
G1 X18.981 Y-7.781 E0.0117
G1 X18.859 Y-8.117 E0.0119
G1 X18.680 Y-8.426 E0.0119
G1 X18.453 Y-8.697 E0.0117
G1 X18.315 Y-8.823 E0.0062
G1 X18.029 Y-9.023 E0.0116
G1 X17.863 Y-9.110 E0.0062
G1 X17.531 Y-9.231 E0.0117
G1 X17.179 Y-9.293 E0.0119
G1 X16.821 Y-9.293 E0.0119
G1 X16.469 Y-9.231 E0.0119
G1 X16.137 Y-9.110 E0.0117
G1 X15.971 Y-9.023 E0.0062
G1 X15.682 Y-8.821 E0.0117
G1 X15.429 Y-8.568 E0.0119
G1 X15.224 Y-8.275 E0.0119
G1 X15.073 Y-7.951 E0.0119
G1 X14.980 Y-7.606 E0.0119
G1 X14.950 Y-7.254 E0.0117
G1 X14.958 Y-7.067 E0.0062
G1 X15.019 Y-6.719 E0.0117
G1 X15.141 Y-6.383 E0.0119
G1 X15.320 Y-6.074 E0.0119
G1 X15.547 Y-5.803 E0.0117
G1 X15.685 Y-5.676 E0.0062
G1 X15.972 Y-5.476 E0.0116
G1 X16.153 Y-5.383 E0.0068
G1 X16.469 Y-5.269 E0.0112
G1 X16.821 Y-5.207 E0.0119
G1 X17.179 Y-5.207 E0.0119
G1 X17.531 Y-5.269 E0.0119
G1 X17.863 Y-5.390 E0.0117
G1 X18.029 Y-5.476 E0.0062
G1 X18.318 Y-5.679 E0.0117
G1 E-1.9000 F1200
; feature inner perimeter
G1 Z0.700 F1200
G1 X9.416 Y-6.826 F9000
G1 Z0.200 F1200
G1 E1.9000 F1200
G1 X9.450 Y-7.255 E0.0143 F1800
G1 X9.441 Y-7.477 E0.0074
G1 X9.369 Y-7.885 E0.0138
G1 X9.223 Y-8.286 E0.0142
G1 X9.009 Y-8.657 E0.0142
G1 X8.743 Y-8.974 E0.0138
G1 X8.566 Y-9.136 E0.0080
G1 X8.237 Y-9.366 E0.0133
G1 X8.024 Y-9.477 E0.0080
G1 X7.635 Y-9.619 E0.0138
G1 X7.214 Y-9.693 E0.0142
G1 X6.786 Y-9.693 E0.0142
G1 X6.365 Y-9.619 E0.0142
G1 X5.976 Y-9.477 E0.0138
G1 X5.763 Y-9.366 E0.0080
G1 X5.424 Y-9.129 E0.0138
G1 X5.121 Y-8.826 E0.0142
G1 X4.876 Y-8.476 E0.0142
G1 X4.696 Y-8.089 E0.0142
G1 X4.585 Y-7.676 E0.0142
G1 X4.549 Y-7.263 E0.0138
G1 X4.559 Y-7.023 E0.0080
G1 X4.631 Y-6.615 E0.0138
G1 X4.777 Y-6.214 E0.0142
G1 X4.991 Y-5.843 E0.0142
G1 X5.257 Y-5.526 E0.0138
G1 X5.434 Y-5.364 E0.0080
G1 X5.765 Y-5.132 E0.0134
G1 X5.994 Y-5.016 E0.0085
G1 X6.366 Y-4.881 E0.0132
G1 X6.786 Y-4.807 E0.0142
G1 X7.214 Y-4.807 E0.0142
G1 X7.635 Y-4.881 E0.0142
G1 X8.024 Y-5.023 E0.0138
G1 X8.237 Y-5.134 E0.0080
G1 X8.576 Y-5.371 E0.0138
G1 X8.879 Y-5.674 E0.0142
G1 X9.124 Y-6.024 E0.0142
G1 X9.304 Y-6.411 E0.0142
G1 X9.416 Y-6.826 E0.0143
; feature outer perimeter
G1 X9.020 Y-6.894 F9000
G1 X9.050 Y-7.262 E0.0123 F1200
G1 X9.042 Y-7.433 E0.0057
G1 X8.981 Y-7.781 E0.0117
G1 X8.859 Y-8.117 E0.0119
G1 X8.680 Y-8.426 E0.0119
G1 X8.453 Y-8.697 E0.0117
G1 X8.315 Y-8.823 E0.0062
G1 X8.029 Y-9.023 E0.0116
G1 X7.863 Y-9.110 E0.0062
G1 X7.531 Y-9.231 E0.0117
G1 X7.179 Y-9.293 E0.0119
G1 X6.821 Y-9.293 E0.0119
G1 X6.469 Y-9.231 E0.0119
G1 X6.137 Y-9.110 E0.0117
G1 X5.971 Y-9.023 E0.0062
G1 X5.682 Y-8.821 E0.0117
G1 X5.429 Y-8.568 E0.0119
G1 X5.224 Y-8.275 E0.0119
G1 X5.073 Y-7.951 E0.0119
G1 X4.980 Y-7.606 E0.0119
G1 X4.950 Y-7.254 E0.0117
G1 X4.958 Y-7.067 E0.0062
G1 X5.019 Y-6.719 E0.0117
G1 X5.141 Y-6.383 E0.0119
G1 X5.320 Y-6.074 E0.0119
G1 X5.547 Y-5.803 E0.0117
G1 X5.685 Y-5.676 E0.0062
G1 X5.972 Y-5.476 E0.0116
G1 X6.153 Y-5.383 E0.0068
G1 X6.469 Y-5.269 E0.0112
G1 X6.821 Y-5.207 E0.0119
G1 X7.179 Y-5.207 E0.0119
G1 X7.531 Y-5.269 E0.0119
G1 X7.863 Y-5.390 E0.0117
G1 X8.029 Y-5.476 E0.0062
G1 X8.318 Y-5.679 E0.0117
G1 X8.571 Y-5.932 E0.0119
G1 X8.776 Y-6.225 E0.0119
G1 X8.927 Y-6.549 E0.0119
G1 X9.020 Y-6.894 E0.0119
; feature solid layer
G1 X9.703 Y-7.834 F9000
G1 X14.116 Y-3.420 E0.2076 F2400
G1 X13.551 Y-3.420 E0.0188
G1 X9.767 Y-7.203 E0.1780
G1 X9.732 Y-6.771 E0.0144
G1 X9.711 Y-6.694 E0.0027
G1 X12.985 Y-3.420 E0.1540
G1 X12.419 Y-3.420 E0.0188
G1 X9.584 Y-6.255 E0.1333
G1 X9.405 Y-5.869 E0.0142
G1 X11.854 Y-3.420 E0.1152
G1 X11.288 Y-3.420 E0.0188
G1 X9.172 Y-5.535 E0.0995
G1 X9.125 Y-5.467 E0.0028
G1 X8.900 Y-5.242 E0.0106
G1 X10.722 Y-3.420 E0.0857
G1 X10.156 Y-3.420 E0.0188
G1 X8.588 Y-4.989 E0.0738
G1 X8.403 Y-4.860 E0.0075
G1 X8.237 Y-4.773 E0.0062
G1 X9.591 Y-3.420 E0.0637
G1 X9.025 Y-3.420 E0.0188
G1 X7.832 Y-4.613 E0.0561
G1 X7.718 Y-4.571 E0.0041
G1 X7.370 Y-4.510 E0.0118
G1 X8.459 Y-3.420 E0.0513
G1 X7.894 Y-3.420 E0.0188
G1 X6.827 Y-4.487 E0.0502
G1 X3.934 Y-3.420 F9000
G1 X3.420 Y-3.934 E0.0242 F2400
G1 X3.420 Y-4.500 E0.0188
G1 X4.500 Y-3.420 E0.0508
G1 X5.065 Y-3.420 E0.0188
G1 X3.420 Y-5.065 E0.0774
G1 X3.420 Y-5.631 E0.0188
G1 X5.631 Y-3.420 E0.1040
G1 X6.197 Y-3.420 E0.0188
G1 X3.420 Y-6.197 E0.1306
G1 X3.420 Y-6.762 E0.0188
G1 X6.762 Y-3.420 E0.1572
G1 X7.328 Y-3.420 E0.0188
G1 X6.117 Y-4.631 E0.0570
G1 X5.866 Y-4.722 E0.0089
G1 X5.600 Y-4.858 E0.0099
G1 X5.234 Y-5.114 E0.0149
G1 X5.026 Y-5.304 E0.0094
G1 X4.728 Y-5.659 E0.0154
G1 X4.486 Y-6.078 E0.0161
G1 X4.381 Y-6.367 E0.0102
G1 X3.420 Y-7.328 E0.0452
G1 X3.420 Y-7.894 E0.0188
G1 X4.237 Y-7.077 E0.0384
G1 X4.228 Y-7.270 E0.0064
G1 X4.259 Y-7.621 E0.0117
G1 X3.420 Y-8.459 E0.0395
G1 X3.420 Y-9.025 E0.0188
G1 X4.363 Y-8.082 E0.0443
G1 X4.394 Y-8.199 E0.0040
G1 X4.527 Y-8.484 E0.0105
G1 X3.420 Y-9.591 E0.0521
G1 X3.420 Y-10.156 E0.0188
G1 X4.739 Y-8.838 E0.0620
G1 X4.875 Y-9.033 E0.0079
G1 X4.992 Y-9.150 E0.0055
G1 X3.528 Y-10.614 E0.0689
G1 X3.699 Y-11.008 E0.0143
G1 X5.285 Y-9.422 E0.0746
G1 X5.597 Y-9.640 E0.0126
G1 X5.621 Y-9.653 E0.0009
G1 X3.871 Y-11.402 E0.0823
G1 X4.043 Y-11.796 E0.0143
G1 X6.009 Y-9.830 E0.0925
G1 X6.282 Y-9.929 E0.0097
G1 X6.447 Y-9.958 E0.0056
G1 X4.214 Y-12.190 E0.1050
G1 X4.386 Y-12.584 E0.0143
G1 X6.958 Y-10.013 E0.1210
G1 X7.242 Y-10.013 E0.0094
G1 X7.584 Y-9.953 E0.0115
G1 X4.558 Y-12.978 E0.1423
G1 E-1.9000 F1200
G1 Z0.700 F1200
G1 X15.291 Y-5.074 F9000
G1 Z0.200 F1200
G1 E1.9000 F1200
G1 X16.945 Y-3.420 E0.0778 F2400
G1 X17.510 Y-3.420 E0.0188
G1 X16.376 Y-4.554 E0.0534
G1 X16.758 Y-4.487 E0.0129
G1 X17.009 Y-4.487 E0.0083
G1 X18.076 Y-3.420 E0.0502
G1 X18.642 Y-3.420 E0.0188
G1 X17.525 Y-4.537 E0.0525
G1 X17.718 Y-4.571 E0.0065
G1 X17.966 Y-4.661 E0.0088
G1 X19.207 Y-3.420 E0.0584
G1 X19.773 Y-3.420 E0.0188
G1 X18.357 Y-4.836 E0.0666
G1 X18.403 Y-4.860 E0.0017
G1 X18.695 Y-5.064 E0.0118
G1 X20.339 Y-3.420 E0.0773
G1 X20.580 Y-3.420 E0.0080
G1 X20.580 Y-3.744 E0.0108
G1 X18.991 Y-5.334 E0.0747
G1 X19.125 Y-5.467 E0.0063
G1 X19.247 Y-5.643 E0.0071
G1 X20.580 Y-4.310 E0.0627
G1 X20.580 Y-4.876 E0.0188
G1 X19.463 Y-5.993 E0.0526
G1 X19.606 Y-6.301 E0.0113
G1 X19.630 Y-6.391 E0.0031
G1 X20.580 Y-5.442 E0.0447
