; G-Code generated by Simplify3D(R) Version 4.1.2
; Jun 17, 2020 at 11:23:23 AM
; Settings Summary
;   processName,Process1
;   applyToModels,Pisa Bracket Rework - BLJ
;   profileName,MakerBot Replicator 2 HBP (modified)
;   profileVersion,2020-04-21 14:45:34
;   baseProfile,MakerBot Replicator 2(2)
;   printMaterial,PLA
;   printQuality,Medium
;   printExtruders,
;   extruderName,Primary Extruder
;   extruderToolheadNumber,0
;   extruderDiameter,0.4
;   extruderAutoWidth,0
;   extruderWidth,0.4
;   extrusionMultiplier,1
;   extruderUseRetract,1
;   extruderRetractionDistance,1.9
;   extruderExtraRestartDistance,0
;   extruderRetractionZLift,0.5
;   extruderRetractionSpeed,1200
;   extruderUseCoasting,0
;   extruderCoastingDistance,0.2
;   extruderUseWipe,0
;   extruderWipeDistance,5
;   primaryExtruder,0
;   layerHeight,0.2
;   topSolidLayers,4
;   bottomSolidLayers,3
;   perimeterOutlines,2
;   printPerimetersInsideOut,1
;   startPointOption,3
;   startPointOriginX,140
;   startPointOriginY,0
;   sequentialIslands,0
;   spiralVaseMode,0
;   firstLayerHeightPercentage,100
;   firstLayerWidthPercentage,100
;   firstLayerUnderspeed,0.5
;   useRaft,0
;   raftExtruder,0
;   raftTopLayers,2
;   raftBaseLayers,1
;   raftOffset,1
;   raftSeparationDistance,0.14
;   raftTopInfill,90
;   aboveRaftSpeedMultiplier,0.3
;   useSkirt,0
;   skirtExtruder,0
;   skirtLayers,1
;   skirtOutlines,5
;   skirtOffset,0
;   usePrimePillar,0
;   primePillarExtruder,999
;   primePillarWidth,12
;   primePillarLocation,7
;   primePillarSpeedMultiplier,1
;   useOozeShield,0
;   oozeShieldExtruder,999
;   oozeShieldOffset,2
;   oozeShieldOutlines,1
;   oozeShieldSidewallShape,1
;   oozeShieldSidewallAngle,30
;   oozeShieldSpeedMultiplier,1
;   infillExtruder,0
;   internalInfillPattern,Rectilinear
;   externalInfillPattern,Rectilinear
;   infillPercentage,30
;   outlineOverlapPercentage,20
;   infillExtrusionWidthPercentage,100
;   minInfillLength,5
;   infillLayerInterval,1
;   internalInfillAngles,45,-45
;   overlapInternalInfillAngles,0
;   externalInfillAngles,45,-45
;   generateSupport,0
;   supportExtruder,0
;   supportInfillPercentage,30
;   supportExtraInflation,0.6
;   supportBaseLayers,0
;   denseSupportExtruder,0
;   denseSupportLayers,2
;   denseSupportInfillPercentage,70
;   supportLayerInterval,1
;   supportHorizontalPartOffset,0.3
;   supportUpperSeparationLayers,1
;   supportLowerSeparationLayers,1
;   supportType,0
;   supportGridSpacing,99
;   maxOverhangAngle,45
;   supportAngles,0
;   temperatureName,Primary Extruder,Heated Build Platform
;   temperatureNumber,0,0
;   temperatureSetpointCount,1,1
;   temperatureSetpointLayers,1,1
;   temperatureSetpointTemperatures,210,65
;   temperatureStabilizeAtStartup,1,1
;   temperatureHeatedBed,0,1
;   fanLayers,1,2
;   fanSpeeds,0,100
;   blipFanToFullPower,1
;   adjustSpeedForCooling,1
;   minSpeedLayerTime,15
;   minCoolingSpeedSlowdown,20
;   increaseFanForCooling,1
;   minFanLayerTime,45
;   maxCoolingFanSpeed,100
;   increaseFanForBridging,1
;   bridgingFanSpeed,100
;   use5D,1
;   relativeEdistances,1
;   allowEaxisZeroing,0
;   independentExtruderAxes,1
;   includeM10123,0
;   stickySupport,1
;   applyToolheadOffsets,0
;   gcodeXoffset,0
;   gcodeYoffset,0
;   gcodeZoffset,0
;   overrideMachineDefinition,1
;   machineTypeOverride,0
;   strokeXoverride,280
;   strokeYoverride,150
;   strokeZoverride,150
;   originOffsetXoverride,140
;   originOffsetYoverride,75
;   originOffsetZoverride,0
;   homeXdirOverride,1
;   homeYdirOverride,1
;   homeZdirOverride,-1
;   flipXoverride,1
;   flipYoverride,-1
;   flipZoverride,1
;   toolheadOffsets,0,0|0,0|0,0|0,0|0,0|0,0
;   overrideFirmwareConfiguration,1
;   firmwareTypeOverride,MakerBot/Sailfish Firmware
;   GPXconfigOverride,r2h
;   baudRateOverride,115200
;   overridePrinterModels,1
;   printerModelsOverride,MakerBot_Replicator2.stl
;   startingGcode,; **** Replicator 2 start.gcode ****,M73 P0 ; enable build progress,G162 X Y F3000 ; home XY maximum,G161 Z F1200 ; home Z minimum,G92 Z-5 ; set Z to -5,G1 Z0 ; move Z to 0,G28 ; better homing homie,M132 X Y Z A B ; recall home offsets,G1 X-145 Y-75 Z30 F9000 ; move to wait position off table,G130 X20 Y20 Z20 A20 B20 ; lower stepper Vrefs while heating,M126 S[fan_speed_pwm],M140 S[bed0_temperature] T0,M134 T0 ; stabilize bed temperature,M104 S[extruder0_temperature] T0,M133 T0 ; stabilize extruder temperature,G130 X127 Y127 Z40 A127 B127 ; default stepper Vrefs,G92 A0 ; zero extruder,G1 Z0.4 ; position nozzle,G1 E25 F300 ; purge nozzle,G1 X-140 Y-70 Z0.15 F1200 ; slow wipe,G1 X-135 Y-65 Z0.5 F1200 ; lift,G92 A0 ; zero extruder,M73 P1 ;@body (notify GPX body has started),; **** end of start.gcode ****
;   layerChangeGcode,
;   retractionGcode,
;   toolChangeGcode,
;   endingGcode,; **** Replicator 2 end.gcode ****,M73 P100 ; end build progress,G1 Z155 F1000 ; send Z axis to bottom of machine,M104 S0 T0 ; cool down extruder,M140 S0 T0 ; cool down HBP,M127 ; stop blower fan,G162 X Y F3000 ; home XY maximum,M18 ; disable stepper,M0 ; stop codes,M72 P1 ; play Ta-Da song,; **** end of end.gcode ****
;   exportFileFormat,gcode
;   celebration,0
;   celebrationSong,Random Song
;   postProcessing,
;   defaultSpeed,4800
;   outlineUnderspeed,0.5
;   solidInfillUnderspeed,1
;   supportUnderspeed,1
;   rapidXYspeed,9000
;   rapidZspeed,1200
;   minBridgingArea,50
;   bridgingExtraInflation,0
;   bridgingExtrusionMultiplier,1
;   bridgingSpeedMultiplier,0.8
;   useFixedBridgingAngle,0
;   fixedBridgingAngle,0
;   applyBridgingToPerimeters,0
;   filamentDiameters,1.75|1.75|1.75|1.75|1.75|1.75
;   filamentPricesPerKg,46|46|46|46|46|46
;   filamentDensities,1.25|1.25|1.25|1.25|1.25|1.25
;   useMinPrintHeight,0
;   minPrintHeight,0
;   useMaxPrintHeight,0
;   maxPrintHeight,4.84
;   useDiaphragm,0
;   diaphragmLayerInterval,20
;   robustSlicing,1
;   mergeAllIntoSolid,0
;   onlyRetractWhenCrossingOutline,0
;   retractBetweenLayers,0
;   useRetractionMinTravel,1
;   retractionMinTravel,7
;   retractWhileWiping,1
;   onlyWipeOutlines,1
;   avoidCrossingOutline,0
;   maxMovementDetourFactor,3
;   toolChangeRetractionDistance,12
;   toolChangeExtraRestartDistance,-0.5
;   toolChangeRetractionSpeed,600
;   externalThinWallType,0
;   internalThinWallType,0
;   thinWallAllowedOverlapPercentage,10
;   singleExtrusionMinLength,1
;   singleExtrusionMinPrintingWidthPercentage,50
;   singleExtrusionMaxPrintingWidthPercentage,200
;   singleExtrusionEndpointExtension,0.2
;   horizontalSizeCompensation,0
G90
M83
; **** Replicator 2 start.gcode ****
M73 P0 ; enable build progress
G162 X Y F3000 ; home XY maximum
G161 Z F1200 ; home Z minimum
G92 Z-5 ; set Z to -5
G1 Z0 ; move Z to 0
G28 ; better homing homie
M132 X Y Z A B ; recall home offsets
G1 X-145 Y-75 Z30 F9000 ; move to wait position off table
G130 X20 Y20 Z20 A20 B20 ; lower stepper Vrefs while heating
M127
M140 S65 T0
M134 T0 ; stabilize bed temperature
M104 S210 T0
M133 T0 ; stabilize extruder temperature
G130 X127 Y127 Z40 A127 B127 ; default stepper Vrefs
G92 A0 ; zero extruder
G1 Z0.4 ; position nozzle
G1 E25 F300 ; purge nozzle
G1 X-140 Y-70 Z0.15 F1200 ; slow wipe
G1 X-135 Y-65 Z0.5 F1200 ; lift
G92 A0 ; zero extruder
M73 P1 ;@body (notify GPX body has started)
; **** end of start.gcode ****
; process Process1
; layer 1, Z = 0.200
M135 T0
G1 E-1.9000 F1200
; feature inner perimeter
; tool H0.200 W0.400
G1 Z0.500 F1200
G1 X7.590 Y38.900 F9000
G1 Z0.200 F1200
G1 E1.9000 F1200
G1 X-7.590 Y38.900 E0.5049 F1800
G1 X-7.590 Y-38.900 E2.5876
G1 X7.590 Y-38.900 E0.5049
G1 X7.590 Y38.900 E2.5876
; feature outer perimeter
G1 X7.990 Y39.300 F9000
G1 X-7.990 Y39.300 E0.5315 F1200
G1 X-7.990 Y-39.300 E2.6142
G1 X7.990 Y-39.300 E0.5315
G1 X7.990 Y39.300 E2.6142
; feature inner perimeter
G1 X3.055 Y36.324 F9000
G1 X3.315 Y35.766 E0.0205 F1800
G1 X3.474 Y35.172 E0.0205
G1 X3.527 Y34.560 E0.0204
G1 X3.474 Y33.947 E0.0204
G1 X3.315 Y33.354 E0.0205
G1 X3.055 Y32.796 E0.0204
G1 X2.702 Y32.293 E0.0204
G1 X2.267 Y31.858 E0.0205
G1 X1.764 Y31.505 E0.0205
G1 X1.206 Y31.245 E0.0204
G1 X0.611 Y31.086 E0.0205
G1 X-0.022 Y31.035 E0.0211
G1 X-0.613 Y31.086 E0.0197
G1 X-1.206 Y31.245 E0.0204
G1 X-1.764 Y31.505 E0.0205
G1 X-2.267 Y31.858 E0.0204
G1 X-2.702 Y32.293 E0.0205
G1 X-3.055 Y32.796 E0.0204
G1 X-3.315 Y33.354 E0.0204
G1 X-3.474 Y33.947 E0.0205
G1 X-3.527 Y34.560 E0.0204
G1 X-3.474 Y35.172 E0.0204
G1 X-3.315 Y35.766 E0.0205
G1 X-3.055 Y36.324 E0.0205
G1 X-2.702 Y36.827 E0.0205
G1 X-2.267 Y37.262 E0.0204
G1 X-1.764 Y37.615 E0.0205
G1 X-1.206 Y37.875 E0.0205
G1 X-0.613 Y38.034 E0.0205
G1 X0.000 Y38.087 E0.0204
G1 X0.613 Y38.034 E0.0204
G1 X1.206 Y37.875 E0.0205
G1 X1.764 Y37.615 E0.0204
G1 X2.267 Y37.262 E0.0205
G1 X2.702 Y36.827 E0.0204
G1 X3.055 Y36.324 E0.0205
; feature outer perimeter
G1 X2.707 Y36.123 F9000
G1 X2.937 Y35.629 E0.0181 F1200
G1 X3.078 Y35.103 E0.0181
G1 X3.126 Y34.560 E0.0181
G1 X3.078 Y34.017 E0.0181
G1 X2.937 Y33.491 E0.0181
G1 X2.707 Y32.997 E0.0181
G1 X2.394 Y32.551 E0.0181
G1 X2.009 Y32.166 E0.0181
G1 X1.563 Y31.853 E0.0181
G1 X1.069 Y31.623 E0.0181
G1 X0.542 Y31.482 E0.0181
G1 X-0.021 Y31.436 E0.0188
G1 X-0.543 Y31.482 E0.0174
G1 X-1.069 Y31.623 E0.0181
G1 X-1.563 Y31.853 E0.0181
G1 X-2.009 Y32.166 E0.0181
G1 X-2.394 Y32.551 E0.0181
G1 X-2.707 Y32.997 E0.0181
G1 X-2.937 Y33.491 E0.0181
G1 X-3.078 Y34.017 E0.0181
G1 X-3.126 Y34.560 E0.0181
G1 X-3.078 Y35.103 E0.0181
G1 X-2.937 Y35.629 E0.0181
G1 X-2.707 Y36.123 E0.0181
G1 X-2.394 Y36.569 E0.0181
G1 X-2.009 Y36.954 E0.0181
G1 X-1.563 Y37.267 E0.0181
G1 X-1.069 Y37.497 E0.0181
G1 X-0.543 Y37.638 E0.0181
G1 X0.000 Y37.686 E0.0181
G1 X0.543 Y37.638 E0.0181
G1 X1.069 Y37.497 E0.0181
G1 X1.563 Y37.267 E0.0181
G1 X2.009 Y36.954 E0.0181
G1 X2.394 Y36.569 E0.0181
G1 X2.707 Y36.123 E0.0181
; feature solid layer
G1 X3.746 Y33.727 F9000
G1 X7.270 Y37.251 E0.1658 F2400
G1 X7.270 Y37.817 E0.0188
G1 X3.833 Y34.380 E0.1617
G1 X3.849 Y34.560 E0.0060
G1 X3.816 Y34.929 E0.0123
G1 X7.270 Y38.383 E0.1625
G1 X7.270 Y38.580 E0.0066
G1 X6.902 Y38.580 E0.0123
G1 X3.739 Y35.418 E0.1487
G1 X3.620 Y35.864 E0.0154
G1 X6.336 Y38.580 E0.1278
G1 X5.770 Y38.580 E0.0188
G1 X3.442 Y36.251 E0.1095
G1 X3.333 Y36.484 E0.0085
G1 X3.241 Y36.616 E0.0054
G1 X5.205 Y38.580 E0.0924
G1 X4.639 Y38.580 E0.0188
G1 X3.008 Y36.949 E0.0767
G1 X2.948 Y37.034 E0.0035
G1 X2.738 Y37.244 E0.0099
G1 X4.073 Y38.580 E0.0628
G1 X3.508 Y38.580 E0.0188
G1 X2.451 Y37.524 E0.0497
G1 X2.119 Y37.757 E0.0135
G1 X2.942 Y38.580 E0.0387
G1 X2.376 Y38.580 E0.0188
G1 X1.764 Y37.968 E0.0288
G1 X1.378 Y38.148 E0.0142
G1 X1.810 Y38.580 E0.0203
G1 X1.245 Y38.580 E0.0188
G1 X0.942 Y38.277 E0.0143
G1 X0.668 Y38.350 E0.0094
G1 X0.467 Y38.368 E0.0067
G1 X0.679 Y38.580 E0.0100
G1 X0.113 Y38.580 E0.0188
G1 X-0.064 Y38.403 E0.0083
G1 X-0.668 Y38.350 E0.0202
G1 X-0.687 Y38.345 E0.0007
G1 X-0.452 Y38.580 E0.0111
G1 X-1.018 Y38.580 E0.0188
G1 X-1.514 Y38.084 E0.0233
G1 X-7.241 Y38.580 F9000
G1 X-7.270 Y38.551 E0.0014 F2400
G1 X-7.270 Y37.985 E0.0188
G1 X-6.675 Y38.580 E0.0280
G1 X-6.109 Y38.580 E0.0188
G1 X-7.270 Y37.419 E0.0546
G1 X-7.270 Y36.853 E0.0188
G1 X-5.543 Y38.580 E0.0812
G1 X-4.978 Y38.580 E0.0188
G1 X-7.270 Y36.288 E0.1078
G1 X-7.270 Y35.722 E0.0188
G1 X-4.412 Y38.580 E0.1344
G1 X-3.846 Y38.580 E0.0188
G1 X-7.270 Y35.156 E0.1610
G1 X-7.270 Y34.591 E0.0188
G1 X-3.281 Y38.580 E0.1876
G1 X-2.715 Y38.580 E0.0188
G1 X-7.270 Y34.025 E0.2143
G1 X-7.270 Y33.459 E0.0188
G1 X-2.149 Y38.580 E0.2409
G1 X-1.584 Y38.580 E0.0188
G1 X-7.270 Y32.894 E0.2675
G1 X-7.270 Y32.328 E0.0188
G1 X-3.524 Y36.074 E0.1762
G1 X-3.616 Y35.876 E0.0072
G1 X-3.785 Y35.247 E0.0217
G1 X-7.270 Y31.762 E0.1639
G1 X-7.270 Y31.197 E0.0188
G1 X-3.843 Y34.624 E0.1612
G1 X-3.849 Y34.560 E0.0021
G1 X-3.808 Y34.093 E0.0156
G1 X-7.270 Y30.631 E0.1629
G1 X-7.270 Y30.065 E0.0188
G1 X-3.717 Y33.618 E0.1671
G1 X-3.616 Y33.244 E0.0129
G1 X-3.588 Y33.182 E0.0023
G1 X-7.270 Y29.500 E0.1732
G1 X-7.270 Y28.934 E0.0188
G1 X-3.408 Y32.796 E0.1817
G1 X-3.333 Y32.636 E0.0059
G1 X-3.197 Y32.441 E0.0079
G1 X-7.270 Y28.368 E0.1916
G1 X-7.270 Y27.802 E0.0188
G1 X-2.964 Y32.109 E0.2025
G1 X-2.948 Y32.086 E0.0009
G1 X-2.684 Y31.822 E0.0124
G1 X-7.270 Y27.237 E0.2157
G1 X-7.270 Y26.671 E0.0188
G1 X-2.389 Y31.552 E0.2296
G1 X-2.056 Y31.319 E0.0135
G1 X-7.270 Y26.105 E0.2452
G1 X-7.270 Y25.540 E0.0188
G1 X-1.691 Y31.118 E0.2624
G1 X-1.316 Y30.944 E0.0138
G1 X-1.304 Y30.940 E0.0004
G1 X-7.270 Y24.974 E0.2806
G1 X-7.270 Y24.408 E0.0188
G1 X-0.858 Y30.821 E0.3016
G1 X-0.668 Y30.770 E0.0065
G1 X-0.369 Y30.744 E0.0100
G1 X-7.270 Y23.843 E0.3246
G1 X-7.270 Y23.277 E0.0188
G1 X0.183 Y30.730 E0.3506
G1 X0.665 Y30.769 E0.0161
G1 X0.833 Y30.814 E0.0058
G1 X-7.270 Y22.711 E0.3811
G1 X-7.270 Y22.146 E0.0188
G1 X1.713 Y31.129 E0.4225
G1 X1.924 Y31.227 E0.0078
G1 X2.474 Y31.612 E0.0223
G1 X2.948 Y32.086 E0.0223
G1 X3.333 Y32.636 E0.0223
G1 X3.431 Y32.847 E0.0078
G1 X7.270 Y36.686 E0.1806
G1 X7.270 Y36.120 E0.0188
G1 X-7.270 Y21.580 E0.6839
G1 X-7.270 Y21.014 E0.0188
G1 X7.270 Y35.554 E0.6839
G1 X7.270 Y34.989 E0.0188
G1 X-7.270 Y20.449 E0.6839
G1 X-7.270 Y19.883 E0.0188
G1 X7.270 Y34.423 E0.6839
G1 X7.270 Y33.857 E0.0188
G1 X-7.270 Y19.317 E0.6839
G1 X-7.270 Y18.752 E0.0188
G1 X7.270 Y33.292 E0.6839
G1 X7.270 Y32.726 E0.0188
G1 X-7.270 Y18.186 E0.6839
G1 X-7.270 Y17.620 E0.0188
G1 X7.270 Y32.160 E0.6839
G1 X7.270 Y31.594 E0.0188
G1 X-7.270 Y17.054 E0.6839
G1 X-7.270 Y16.489 E0.0188
G1 X7.270 Y31.029 E0.6839
G1 X7.270 Y30.463 E0.0188
G1 X-7.270 Y15.923 E0.6839
G1 X-7.270 Y15.357 E0.0188
G1 X7.270 Y29.897 E0.6839
G1 X7.270 Y29.332 E0.0188
G1 X-7.270 Y14.792 E0.6839
G1 X-7.270 Y14.226 E0.0188
G1 X7.270 Y28.766 E0.6839
G1 X7.270 Y28.200 E0.0188
G1 X-7.270 Y13.660 E0.6839
G1 X-7.270 Y13.095 E0.0188
G1 X7.270 Y27.635 E0.6839
G1 X7.270 Y27.069 E0.0188
G1 X-7.270 Y12.529 E0.6839
G1 X-7.270 Y11.963 E0.0188
G1 X7.270 Y26.503 E0.6839
G1 X7.270 Y25.938 E0.0188
G1 X-7.270 Y11.398 E0.6839
G1 X-7.270 Y10.832 E0.0188
G1 X7.270 Y25.372 E0.6839
G1 X7.270 Y24.806 E0.0188
G1 X-7.270 Y10.266 E0.6839
G1 X-7.270 Y9.701 E0.0188
G1 X7.270 Y24.241 E0.6839
G1 X7.270 Y23.675 E0.0188
G1 X-7.270 Y9.135 E0.6839
G1 X-7.270 Y8.569 E0.0188
G1 X7.270 Y23.109 E0.6839
G1 X7.270 Y22.543 E0.0188
G1 X-7.270 Y8.003 E0.6839
G1 X-7.270 Y7.438 E0.0188
G1 X7.270 Y21.978 E0.6839
G1 X7.270 Y21.412 E0.0188
G1 X-7.270 Y6.872 E0.6839
G1 X-7.270 Y6.306 E0.0188
G1 X7.270 Y20.846 E0.6839
G1 X7.270 Y20.281 E0.0188
G1 X-7.270 Y5.741 E0.6839
G1 X-7.270 Y5.175 E0.0188
G1 X7.270 Y19.715 E0.6839
G1 X7.270 Y19.149 E0.0188
G1 X-7.270 Y4.609 E0.6839
G1 X-7.270 Y4.044 E0.0188
G1 X7.270 Y18.584 E0.6839
G1 X7.270 Y18.018 E0.0188
G1 X-7.270 Y3.478 E0.6839
G1 X-7.270 Y2.912 E0.0188
G1 X7.270 Y17.452 E0.6839
G1 X7.270 Y16.887 E0.0188
G1 X-7.270 Y2.347 E0.6839
G1 X-7.270 Y1.781 E0.0188
G1 X7.270 Y16.321 E0.6839
G1 X7.270 Y15.755 E0.0188
G1 X-7.270 Y1.215 E0.6839
G1 X-7.270 Y0.650 E0.0188
G1 X7.270 Y15.190 E0.6839
G1 X7.270 Y14.624 E0.0188
G1 X-7.270 Y0.084 E0.6839
G1 X-7.270 Y-0.482 E0.0188
G1 X7.270 Y14.058 E0.6839
G1 X7.270 Y13.493 E0.0188
G1 X-7.270 Y-1.047 E0.6839
G1 X-7.270 Y-1.613 E0.0188
G1 X7.270 Y12.927 E0.6839
G1 X7.270 Y12.361 E0.0188
G1 X-7.270 Y-2.179 E0.6839
G1 X-7.270 Y-2.745 E0.0188
G1 X7.270 Y11.795 E0.6839
G1 X7.270 Y11.230 E0.0188
G1 X-7.270 Y-3.310 E0.6839
G1 X-7.270 Y-3.876 E0.0188
G1 X7.270 Y10.664 E0.6839
G1 X7.270 Y10.098 E0.0188
G1 X-7.270 Y-4.442 E0.6839
G1 X-7.270 Y-5.007 E0.0188
G1 X7.270 Y9.533 E0.6839
G1 X7.270 Y8.967 E0.0188
G1 X-7.270 Y-5.573 E0.6839
G1 X-7.270 Y-6.139 E0.0188
G1 X7.270 Y8.401 E0.6839
G1 X7.270 Y7.836 E0.0188
G1 X-7.270 Y-6.704 E0.6839
G1 X-7.270 Y-7.270 E0.0188
G1 X7.270 Y7.270 E0.6839
G1 X7.270 Y6.704 E0.0188
G1 X-7.270 Y-7.836 E0.6839
G1 X-7.270 Y-8.401 E0.0188
G1 X7.270 Y6.139 E0.6839
G1 X7.270 Y5.573 E0.0188
G1 X-7.270 Y-8.967 E0.6839
G1 X-7.270 Y-9.533 E0.0188
G1 X7.270 Y5.007 E0.6839
G1 X7.270 Y4.442 E0.0188
G1 X-7.270 Y-10.098 E0.6839
G1 X-7.270 Y-10.664 E0.0188
G1 X7.270 Y3.876 E0.6839
G1 X7.270 Y3.310 E0.0188
G1 X-7.270 Y-11.230 E0.6839
