; G-Code generated by Simplify3D(R) Version 4.1.2
; Jun 17, 2020 at 1:56:29 PM
; Settings Summary
;   processName,Process1
;   applyToModels,Pisa Bracket Rework
;   profileName,MakerBot Replicator 2 HBP (modified)
;   profileVersion,2020-04-21 14:45:34
;   baseProfile,MakerBot Replicator 2(2)
;   printMaterial,PLA
;   printQuality,Medium
;   printExtruders,
;   extruderName,Primary Extruder
;   extruderToolheadNumber,0
;   extruderDiameter,0.4
;   extruderAutoWidth,0
;   extruderWidth,0.4
;   extrusionMultiplier,1
;   extruderUseRetract,1
;   extruderRetractionDistance,1.9
;   extruderExtraRestartDistance,0
;   extruderRetractionZLift,0.5
;   extruderRetractionSpeed,1200
;   extruderUseCoasting,0
;   extruderCoastingDistance,0.2
;   extruderUseWipe,0
;   extruderWipeDistance,5
;   primaryExtruder,0
;   layerHeight,0.2
;   topSolidLayers,4
;   bottomSolidLayers,3
;   perimeterOutlines,2
;   printPerimetersInsideOut,1
;   startPointOption,3
;   startPointOriginX,140
;   startPointOriginY,0
;   sequentialIslands,0
;   spiralVaseMode,0
;   firstLayerHeightPercentage,100
;   firstLayerWidthPercentage,100
;   firstLayerUnderspeed,0.5
;   useRaft,0
;   raftExtruder,0
;   raftTopLayers,2
;   raftBaseLayers,1
;   raftOffset,1
;   raftSeparationDistance,0.14
;   raftTopInfill,90
;   aboveRaftSpeedMultiplier,0.3
;   useSkirt,0
;   skirtExtruder,0
;   skirtLayers,1
;   skirtOutlines,5
;   skirtOffset,0
;   usePrimePillar,0
;   primePillarExtruder,999
;   primePillarWidth,12
;   primePillarLocation,7
;   primePillarSpeedMultiplier,1
;   useOozeShield,0
;   oozeShieldExtruder,999
;   oozeShieldOffset,2
;   oozeShieldOutlines,1
;   oozeShieldSidewallShape,1
;   oozeShieldSidewallAngle,30
;   oozeShieldSpeedMultiplier,1
;   infillExtruder,0
;   internalInfillPattern,Rectilinear
;   externalInfillPattern,Rectilinear
;   infillPercentage,30
;   outlineOverlapPercentage,20
;   infillExtrusionWidthPercentage,100
;   minInfillLength,5
;   infillLayerInterval,1
;   internalInfillAngles,45,-45
;   overlapInternalInfillAngles,0
;   externalInfillAngles,45,-45
;   generateSupport,0
;   supportExtruder,0
;   supportInfillPercentage,30
;   supportExtraInflation,0.6
;   supportBaseLayers,0
;   denseSupportExtruder,0
;   denseSupportLayers,2
;   denseSupportInfillPercentage,70
;   supportLayerInterval,1
;   supportHorizontalPartOffset,0.3
;   supportUpperSeparationLayers,1
;   supportLowerSeparationLayers,1
;   supportType,0
;   supportGridSpacing,99
;   maxOverhangAngle,45
;   supportAngles,0
;   temperatureName,Primary Extruder,Heated Build Platform
;   temperatureNumber,0,0
;   temperatureSetpointCount,1,1
;   temperatureSetpointLayers,1,1
;   temperatureSetpointTemperatures,210,65
;   temperatureStabilizeAtStartup,1,1
;   temperatureHeatedBed,0,1
;   fanLayers,1,2
;   fanSpeeds,0,100
;   blipFanToFullPower,1
;   adjustSpeedForCooling,1
;   minSpeedLayerTime,15
;   minCoolingSpeedSlowdown,20
;   increaseFanForCooling,1
;   minFanLayerTime,45
;   maxCoolingFanSpeed,100
;   increaseFanForBridging,1
;   bridgingFanSpeed,100
;   use5D,1
;   relativeEdistances,1
;   allowEaxisZeroing,0
;   independentExtruderAxes,1
;   includeM10123,0
;   stickySupport,1
;   applyToolheadOffsets,0
;   gcodeXoffset,0
;   gcodeYoffset,0
;   gcodeZoffset,0
;   overrideMachineDefinition,1
;   machineTypeOverride,0
;   strokeXoverride,280
;   strokeYoverride,150
;   strokeZoverride,150
;   originOffsetXoverride,140
;   originOffsetYoverride,75
;   originOffsetZoverride,0
;   homeXdirOverride,1
;   homeYdirOverride,1
;   homeZdirOverride,-1
;   flipXoverride,1
;   flipYoverride,-1
;   flipZoverride,1
;   toolheadOffsets,0,0|0,0|0,0|0,0|0,0|0,0
;   overrideFirmwareConfiguration,1
;   firmwareTypeOverride,MakerBot/Sailfish Firmware
;   GPXconfigOverride,r2h
;   baudRateOverride,115200
;   overridePrinterModels,1
;   printerModelsOverride,MakerBot_Replicator2.stl
;   startingGcode,; **** Replicator 2 start.gcode ****,M73 P0 ; enable build progress,G162 X Y F3000 ; home XY maximum,G161 Z F1200 ; home Z minimum,G92 Z-5 ; set Z to -5,G1 Z0 ; move Z to 0,G28 ; better homing homie,M132 X Y Z A B ; recall home offsets,G1 X-145 Y-75 Z30 F9000 ; move to wait position off table,G130 X20 Y20 Z20 A20 B20 ; lower stepper Vrefs while heating,M126 S[fan_speed_pwm],M140 S[bed0_temperature] T0,M134 T0 ; stabilize bed temperature,M104 S[extruder0_temperature] T0,M133 T0 ; stabilize extruder temperature,G130 X127 Y127 Z40 A127 B127 ; default stepper Vrefs,G92 A0 ; zero extruder,G1 Z0.4 ; position nozzle,G1 E25 F300 ; purge nozzle,G1 X-140 Y-70 Z0.15 F1200 ; slow wipe,G1 X-135 Y-65 Z0.5 F1200 ; lift,G92 A0 ; zero extruder,M73 P1 ;@body (notify GPX body has started),; **** end of start.gcode ****
;   layerChangeGcode,
;   retractionGcode,
;   toolChangeGcode,
;   endingGcode,; **** Replicator 2 end.gcode ****,M73 P100 ; end build progress,G1 Z155 F1000 ; send Z axis to bottom of machine,M104 S0 T0 ; cool down extruder,M140 S0 T0 ; cool down HBP,M127 ; stop blower fan,G162 X Y F3000 ; home XY maximum,M18 ; disable stepper,M0 ; stop codes,M72 P1 ; play Ta-Da song,; **** end of end.gcode ****
;   exportFileFormat,gcode
;   celebration,0
;   celebrationSong,Random Song
;   postProcessing,
;   defaultSpeed,4800
;   outlineUnderspeed,0.5
;   solidInfillUnderspeed,1
;   supportUnderspeed,1
;   rapidXYspeed,9000
;   rapidZspeed,1200
;   minBridgingArea,50
;   bridgingExtraInflation,0
;   bridgingExtrusionMultiplier,1
;   bridgingSpeedMultiplier,0.8
;   useFixedBridgingAngle,0
;   fixedBridgingAngle,0
;   applyBridgingToPerimeters,0
;   filamentDiameters,1.75|1.75|1.75|1.75|1.75|1.75
;   filamentPricesPerKg,46|46|46|46|46|46
;   filamentDensities,1.25|1.25|1.25|1.25|1.25|1.25
;   useMinPrintHeight,0
;   minPrintHeight,0
;   useMaxPrintHeight,0
;   maxPrintHeight,4.84
;   useDiaphragm,0
;   diaphragmLayerInterval,20
;   robustSlicing,1
;   mergeAllIntoSolid,0
;   onlyRetractWhenCrossingOutline,0
;   retractBetweenLayers,0
;   useRetractionMinTravel,1
;   retractionMinTravel,7
;   retractWhileWiping,1
;   onlyWipeOutlines,1
;   avoidCrossingOutline,0
;   maxMovementDetourFactor,3
;   toolChangeRetractionDistance,12
;   toolChangeExtraRestartDistance,-0.5
;   toolChangeRetractionSpeed,600
;   externalThinWallType,0
;   internalThinWallType,0
;   thinWallAllowedOverlapPercentage,10
;   singleExtrusionMinLength,1
;   singleExtrusionMinPrintingWidthPercentage,50
;   singleExtrusionMaxPrintingWidthPercentage,200
;   singleExtrusionEndpointExtension,0.2
;   horizontalSizeCompensation,0
G90
M83
; **** Replicator 2 start.gcode ****
M73 P0 ; enable build progress
G162 X Y F3000 ; home XY maximum
G161 Z F1200 ; home Z minimum
G92 Z-5 ; set Z to -5
G1 Z0 ; move Z to 0
G28 ; better homing homie
M132 X Y Z A B ; recall home offsets
G1 X-145 Y-75 Z30 F9000 ; move to wait position off table
G130 X20 Y20 Z20 A20 B20 ; lower stepper Vrefs while heating
M127
M140 S65 T0
M134 T0 ; stabilize bed temperature
M104 S210 T0
M133 T0 ; stabilize extruder temperature
G130 X127 Y127 Z40 A127 B127 ; default stepper Vrefs
G92 A0 ; zero extruder
G1 Z0.4 ; position nozzle
G1 E25 F300 ; purge nozzle
G1 X-140 Y-70 Z0.15 F1200 ; slow wipe
G1 X-135 Y-65 Z0.5 F1200 ; lift
G92 A0 ; zero extruder
M73 P1 ;@body (notify GPX body has started)
; **** end of start.gcode ****
; process Process1
; layer 1, Z = 0.200
M135 T0
G1 E-1.9000 F1200
; feature inner perimeter
; tool H0.200 W0.400
G1 Z0.500 F1200
G1 X4.324 Y-34.880 F9000
G1 Z0.200 F1200
G1 E1.9000 F1200
G1 X4.324 Y42.920 E2.5876 F1800
G1 X-10.856 Y42.920 E0.5049
G1 X-10.856 Y-34.880 E2.5876
G1 X4.324 Y-34.880 E0.5049
; feature outer perimeter
G1 X4.724 Y-35.280 F9000
G1 X4.724 Y43.320 E2.6142 F1200
G1 X-11.256 Y43.320 E0.5315
G1 X-11.256 Y-35.280 E2.6142
G1 X4.724 Y-35.280 E0.5315
G1 E-1.9000 F1200
; feature inner perimeter
G1 Z0.700 F1200
G1 X-2.655 Y35.105 F9000
G1 Z0.200 F1200
G1 E1.9000 F1200
G1 X-3.288 Y35.054 E0.0211 F1800
G1 X-3.879 Y35.106 E0.0197
G1 X-4.472 Y35.265 E0.0205
G1 X-5.030 Y35.525 E0.0204
G1 X-5.533 Y35.877 E0.0204
G1 X-5.968 Y36.312 E0.0205
G1 X-6.321 Y36.816 E0.0204
G1 X-6.581 Y37.373 E0.0204
G1 X-6.740 Y37.967 E0.0205
G1 X-6.793 Y38.580 E0.0204
G1 X-6.740 Y39.192 E0.0204
G1 X-6.581 Y39.786 E0.0204
G1 X-6.321 Y40.343 E0.0204
G1 X-5.968 Y40.847 E0.0205
G1 X-5.533 Y41.282 E0.0204
G1 X-5.030 Y41.634 E0.0205
G1 X-4.472 Y41.894 E0.0204
G1 X-3.879 Y42.053 E0.0205
G1 X-3.266 Y42.107 E0.0204
G1 X-2.654 Y42.053 E0.0204
G1 X-2.060 Y41.894 E0.0205
G1 X-1.502 Y41.634 E0.0204
G1 X-0.999 Y41.282 E0.0205
G1 X-0.564 Y40.847 E0.0204
G1 X-0.211 Y40.343 E0.0205
G1 X0.049 Y39.786 E0.0205
G1 X0.208 Y39.192 E0.0204
G1 X0.261 Y38.580 E0.0204
G1 X0.208 Y37.967 E0.0204
G1 X0.049 Y37.373 E0.0204
G1 X-0.211 Y36.816 E0.0204
G1 X-0.564 Y36.312 E0.0205
G1 X-0.999 Y35.877 E0.0205
G1 X-1.502 Y35.525 E0.0205
G1 X-2.060 Y35.265 E0.0204
G1 X-2.655 Y35.105 E0.0205
; feature outer perimeter
G1 X-2.724 Y35.501 F9000
G1 X-3.287 Y35.456 E0.0188 F1200
G1 X-3.809 Y35.501 E0.0174
G1 X-4.335 Y35.642 E0.0181
G1 X-4.829 Y35.873 E0.0181
G1 X-5.275 Y36.185 E0.0181
G1 X-5.660 Y36.570 E0.0181
G1 X-5.973 Y37.017 E0.0181
G1 X-6.203 Y37.510 E0.0181
G1 X-6.344 Y38.037 E0.0181
G1 X-6.392 Y38.580 E0.0181
G1 X-6.344 Y39.122 E0.0181
G1 X-6.203 Y39.649 E0.0181
G1 X-5.973 Y40.142 E0.0181
G1 X-5.660 Y40.589 E0.0181
G1 X-5.275 Y40.974 E0.0181
G1 X-4.829 Y41.287 E0.0181
G1 X-4.335 Y41.517 E0.0181
G1 X-3.809 Y41.658 E0.0181
G1 X-3.266 Y41.705 E0.0181
G1 X-2.723 Y41.658 E0.0181
G1 X-2.197 Y41.517 E0.0181
G1 X-1.703 Y41.287 E0.0181
G1 X-1.257 Y40.974 E0.0181
G1 X-0.872 Y40.589 E0.0181
G1 X-0.559 Y40.142 E0.0181
G1 X-0.329 Y39.649 E0.0181
G1 X-0.188 Y39.122 E0.0181
G1 X-0.140 Y38.580 E0.0181
G1 X-0.188 Y38.037 E0.0181
G1 X-0.329 Y37.510 E0.0181
G1 X-0.559 Y37.017 E0.0181
G1 X-0.872 Y36.570 E0.0181
G1 X-1.257 Y36.185 E0.0181
G1 X-1.703 Y35.873 E0.0181
G1 X-2.197 Y35.642 E0.0181
G1 X-2.724 Y35.501 E0.0181
; feature solid layer
G1 X0.505 Y37.840 F9000
G1 X4.004 Y41.339 E0.1646 F2400
G1 X4.004 Y41.905 E0.0188
G1 X0.573 Y38.474 E0.1614
G1 X0.583 Y38.580 E0.0035
G1 X0.545 Y39.011 E0.0144
G1 X4.004 Y42.471 E0.1627
G1 X4.004 Y42.600 E0.0043
G1 X3.567 Y42.600 E0.0145
G1 X0.459 Y39.491 E0.1462
G1 X0.350 Y39.896 E0.0139
G1 X0.334 Y39.932 E0.0013
G1 X3.002 Y42.600 E0.1255
G1 X2.436 Y42.600 E0.0188
G1 X0.154 Y40.317 E0.1073
G1 X0.067 Y40.504 E0.0068
G1 X-0.054 Y40.676 E0.0070
G1 X1.870 Y42.600 E0.0905
G1 X1.305 Y42.600 E0.0188
G1 X-0.287 Y41.009 E0.0748
G1 X-0.318 Y41.053 E0.0018
G1 X-0.563 Y41.298 E0.0115
G1 X0.739 Y42.600 E0.0612
G1 X0.173 Y42.600 E0.0188
G1 X-0.855 Y41.572 E0.0484
G1 X-1.188 Y41.805 E0.0135
G1 X-0.393 Y42.600 E0.0374
G1 X-0.958 Y42.600 E0.0188
G1 X-1.549 Y42.009 E0.0278
G1 X-1.935 Y42.189 E0.0142
G1 X-1.524 Y42.600 E0.0193
G1 X-2.090 Y42.600 E0.0188
G1 X-2.378 Y42.311 E0.0136
G1 X-2.598 Y42.370 E0.0076
G1 X-2.862 Y42.393 E0.0088
G1 X-2.655 Y42.600 E0.0097
G1 X-3.221 Y42.600 E0.0188
G1 X-3.405 Y42.416 E0.0086
G1 X-3.934 Y42.370 E0.0177
G1 X-4.047 Y42.339 E0.0039
G1 X-3.787 Y42.600 E0.0122
G1 X-4.352 Y42.600 E0.0188
G1 X-4.908 Y42.044 E0.0261
G1 X-10.536 Y42.073 F9000
G1 X-10.009 Y42.600 E0.0248 F2400
G1 X-9.443 Y42.600 E0.0188
G1 X-10.536 Y41.507 E0.0514
G1 X-10.536 Y40.941 E0.0188
G1 X-8.878 Y42.600 E0.0780
G1 X-8.312 Y42.600 E0.0188
G1 X-10.536 Y40.376 E0.1046
G1 X-10.536 Y39.810 E0.0188
G1 X-7.746 Y42.600 E0.1312
G1 X-7.181 Y42.600 E0.0188
G1 X-10.536 Y39.244 E0.1578
G1 X-10.536 Y38.679 E0.0188
G1 X-6.615 Y42.600 E0.1844
G1 X-6.049 Y42.600 E0.0188
G1 X-10.536 Y38.113 E0.2110
G1 X-10.536 Y37.547 E0.0188
G1 X-5.484 Y42.600 E0.2376
G1 X-4.918 Y42.600 E0.0188
G1 X-10.536 Y36.982 E0.2643
G1 X-10.536 Y36.416 E0.0188
G1 X-6.731 Y40.221 E0.1790
G1 X-6.882 Y39.896 E0.0119
G1 X-7.026 Y39.360 E0.0184
G1 X-10.536 Y35.850 E0.1651
G1 X-10.536 Y35.284 E0.0188
G1 X-7.102 Y38.718 E0.1615
G1 X-7.115 Y38.580 E0.0046
G1 X-7.079 Y38.176 E0.0135
G1 X-10.536 Y34.719 E0.1626
G1 X-10.536 Y34.153 E0.0188
G1 X-6.997 Y37.692 E0.1665
G1 X-6.882 Y37.263 E0.0148
G1 X-6.875 Y37.248 E0.0006
G1 X-10.536 Y33.587 E0.1722
G1 X-10.536 Y33.022 E0.0188
G1 X-6.695 Y36.862 E0.1806
G1 X-6.599 Y36.655 E0.0076
G1 X-6.491 Y36.501 E0.0063
G1 X-10.536 Y32.456 E0.1903
G1 X-10.536 Y31.890 E0.0188
G1 X-6.258 Y36.168 E0.2012
G1 X-6.214 Y36.106 E0.0025
G1 X-5.985 Y35.876 E0.0108
G1 X-10.536 Y31.325 E0.2141
G1 X-10.536 Y30.759 E0.0188
G1 X-5.695 Y35.600 E0.2277
G1 X-5.362 Y35.367 E0.0135
G1 X-10.536 Y30.193 E0.2434
G1 X-10.536 Y29.628 E0.0188
G1 X-5.004 Y35.160 E0.2602
G1 X-4.618 Y34.980 E0.0142
G1 X-10.536 Y29.062 E0.2784
G1 X-10.536 Y28.496 E0.0188
G1 X-4.178 Y34.855 E0.2991
G1 X-3.934 Y34.789 E0.0084
G1 X-3.698 Y34.769 E0.0079
G1 X-10.536 Y27.931 E0.3216
G1 X-10.536 Y27.365 E0.0188
G1 X-3.157 Y34.744 E0.3471
G1 X-2.601 Y34.789 E0.0186
G1 X-2.527 Y34.809 E0.0025
G1 X-10.536 Y26.799 E0.3767
G1 X-10.536 Y26.234 E0.0188
G1 X-1.681 Y35.088 E0.4165
G1 X-1.342 Y35.247 E0.0125
G1 X-0.792 Y35.631 E0.0223
G1 X-0.318 Y36.106 E0.0223
G1 X0.067 Y36.655 E0.0223
G1 X0.225 Y36.995 E0.0125
G1 X4.004 Y40.774 E0.1777
G1 X4.004 Y40.208 E0.0188
G1 X-10.536 Y25.668 E0.6839
G1 X-10.536 Y25.102 E0.0188
G1 X4.004 Y39.642 E0.6839
G1 X4.004 Y39.076 E0.0188
G1 X-10.536 Y24.536 E0.6839
G1 X-10.536 Y23.971 E0.0188
G1 X4.004 Y38.511 E0.6839
G1 X4.004 Y37.945 E0.0188
G1 X-10.536 Y23.405 E0.6839
G1 X-10.536 Y22.839 E0.0188
G1 X4.004 Y37.379 E0.6839
G1 X4.004 Y36.814 E0.0188
G1 X-10.536 Y22.274 E0.6839
G1 X-10.536 Y21.708 E0.0188
G1 X4.004 Y36.248 E0.6839
G1 X4.004 Y35.682 E0.0188
G1 X-10.536 Y21.142 E0.6839
G1 X-10.536 Y20.577 E0.0188
G1 X4.004 Y35.117 E0.6839
G1 X4.004 Y34.551 E0.0188
G1 X-10.536 Y20.011 E0.6839
G1 X-10.536 Y19.445 E0.0188
G1 X4.004 Y33.985 E0.6839
G1 X4.004 Y33.420 E0.0188
G1 X-10.536 Y18.880 E0.6839
G1 X-10.536 Y18.314 E0.0188
G1 X4.004 Y32.854 E0.6839
G1 X4.004 Y32.288 E0.0188
G1 X-10.536 Y17.748 E0.6839
G1 X-10.536 Y17.183 E0.0188
G1 X4.004 Y31.723 E0.6839
G1 X4.004 Y31.157 E0.0188
G1 X-10.536 Y16.617 E0.6839
G1 X-10.536 Y16.051 E0.0188
G1 X4.004 Y30.591 E0.6839
G1 X4.004 Y30.025 E0.0188
G1 X-10.536 Y15.486 E0.6839
G1 X-10.536 Y14.920 E0.0188
G1 X4.004 Y29.460 E0.6839
G1 X4.004 Y28.894 E0.0188
G1 X-10.536 Y14.354 E0.6839
G1 X-10.536 Y13.788 E0.0188
G1 X4.004 Y28.328 E0.6839
G1 X4.004 Y27.763 E0.0188
G1 X-10.536 Y13.223 E0.6839
G1 X-10.536 Y12.657 E0.0188
G1 X4.004 Y27.197 E0.6839
G1 X4.004 Y26.631 E0.0188
G1 X-10.536 Y12.091 E0.6839
G1 X-10.536 Y11.526 E0.0188
G1 X4.004 Y26.066 E0.6839
G1 X4.004 Y25.500 E0.0188
G1 X-10.536 Y10.960 E0.6839
G1 X-10.536 Y10.394 E0.0188
G1 X4.004 Y24.934 E0.6839
G1 X4.004 Y24.369 E0.0188
G1 X-10.536 Y9.829 E0.6839
G1 X-10.536 Y9.263 E0.0188
G1 X4.004 Y23.803 E0.6839
G1 X4.004 Y23.237 E0.0188
G1 X-10.536 Y8.697 E0.6839
G1 X-10.536 Y8.132 E0.0188
G1 X4.004 Y22.672 E0.6839
G1 X4.004 Y22.106 E0.0188
G1 X-10.536 Y7.566 E0.6839
G1 X-10.536 Y7.000 E0.0188
G1 X4.004 Y21.540 E0.6839
G1 X4.004 Y20.975 E0.0188
G1 X-10.536 Y6.435 E0.6839
G1 X-10.536 Y5.869 E0.0188
G1 X4.004 Y20.409 E0.6839
G1 X4.004 Y19.843 E0.0188
G1 X-10.536 Y5.303 E0.6839
G1 X-10.536 Y4.737 E0.0188
G1 X4.004 Y19.277 E0.6839
G1 X4.004 Y18.712 E0.0188
G1 X-10.536 Y4.172 E0.6839
G1 X-10.536 Y3.606 E0.0188
G1 X4.004 Y18.146 E0.6839
G1 X4.004 Y17.580 E0.0188
G1 X-10.536 Y3.040 E0.6839
G1 X-10.536 Y2.475 E0.0188
G1 X4.004 Y17.015 E0.6839
G1 X4.004 Y16.449 E0.0188
G1 X-10.536 Y1.909 E0.6839
G1 X-10.536 Y1.343 E0.0188
G1 X4.004 Y15.883 E0.6839
G1 X4.004 Y15.318 E0.0188
G1 X-10.536 Y0.778 E0.6839
G1 X-10.536 Y0.212 E0.0188
G1 X4.004 Y14.752 E0.6839
G1 X4.004 Y14.186 E0.0188
G1 X-10.536 Y-0.354 E0.6839
G1 X-10.536 Y-0.919 E0.0188
G1 X4.004 Y13.621 E0.6839
G1 X4.004 Y13.055 E0.0188
G1 X-10.536 Y-1.485 E0.6839
G1 X-10.536 Y-2.051 E0.0188
G1 X4.004 Y12.489 E0.6839
G1 X4.004 Y11.924 E0.0188
G1 X-10.536 Y-2.616 E0.6839
G1 X-10.536 Y-3.182 E0.0188
G1 X4.004 Y11.358 E0.6839
G1 X4.004 Y10.792 E0.0188
G1 X-10.536 Y-3.748 E0.6839
G1 X-10.536 Y-4.313 E0.0188
G1 X4.004 Y10.227 E0.6839
G1 X4.004 Y9.661 E0.0188
G1 X-10.536 Y-4.879 E0.6839
G1 X-10.536 Y-5.445 E0.0188
G1 X4.004 Y9.095 E0.6839
