; G-Code generated by Simplify3D(R) Version 4.1.2
; Jun 26, 2020 at 11:21:14 AM
; Settings Summary
;   processName,Process1
;   applyToModels,firehouseFancy,firehouseFront,firehouseRoof,firehouseFancy(2)
;   profileName,MakerBot Replicator 2 HBP (modified)
;   profileVersion,2020-04-21 14:45:34
;   baseProfile,MakerBot Replicator 2(2)
;   printMaterial,PLA
;   printQuality,Medium
;   printExtruders,
;   extruderName,Primary Extruder
;   extruderToolheadNumber,0
;   extruderDiameter,0.4
;   extruderAutoWidth,0
;   extruderWidth,0.4
;   extrusionMultiplier,1
;   extruderUseRetract,1
;   extruderRetractionDistance,1.9
;   extruderExtraRestartDistance,0
;   extruderRetractionZLift,0.5
;   extruderRetractionSpeed,1200
;   extruderUseCoasting,0
;   extruderCoastingDistance,0.2
;   extruderUseWipe,0
;   extruderWipeDistance,5
;   primaryExtruder,0
;   layerHeight,0.2
;   topSolidLayers,4
;   bottomSolidLayers,3
;   perimeterOutlines,2
;   printPerimetersInsideOut,1
;   startPointOption,3
;   startPointOriginX,140
;   startPointOriginY,0
;   sequentialIslands,0
;   spiralVaseMode,0
;   firstLayerHeightPercentage,100
;   firstLayerWidthPercentage,100
;   firstLayerUnderspeed,0.5
;   useRaft,0
;   raftExtruder,0
;   raftTopLayers,2
;   raftBaseLayers,1
;   raftOffset,1
;   raftSeparationDistance,0.14
;   raftTopInfill,90
;   aboveRaftSpeedMultiplier,0.3
;   useSkirt,0
;   skirtExtruder,0
;   skirtLayers,1
;   skirtOutlines,5
;   skirtOffset,0
;   usePrimePillar,0
;   primePillarExtruder,999
;   primePillarWidth,12
;   primePillarLocation,7
;   primePillarSpeedMultiplier,1
;   useOozeShield,0
;   oozeShieldExtruder,999
;   oozeShieldOffset,2
;   oozeShieldOutlines,1
;   oozeShieldSidewallShape,1
;   oozeShieldSidewallAngle,30
;   oozeShieldSpeedMultiplier,1
;   infillExtruder,0
;   internalInfillPattern,Rectilinear
;   externalInfillPattern,Rectilinear
;   infillPercentage,15
;   outlineOverlapPercentage,20
;   infillExtrusionWidthPercentage,100
;   minInfillLength,5
;   infillLayerInterval,1
;   internalInfillAngles,45,-45
;   overlapInternalInfillAngles,0
;   externalInfillAngles,45,-45
;   generateSupport,1
;   supportExtruder,0
;   supportInfillPercentage,30
;   supportExtraInflation,0.6
;   supportBaseLayers,0
;   denseSupportExtruder,0
;   denseSupportLayers,2
;   denseSupportInfillPercentage,70
;   supportLayerInterval,1
;   supportHorizontalPartOffset,0.3
;   supportUpperSeparationLayers,1
;   supportLowerSeparationLayers,1
;   supportType,0
;   supportGridSpacing,99
;   maxOverhangAngle,45
;   supportAngles,0
;   temperatureName,Primary Extruder,Heated Build Platform
;   temperatureNumber,0,0
;   temperatureSetpointCount,1,1
;   temperatureSetpointLayers,1,1
;   temperatureSetpointTemperatures,210,65
;   temperatureStabilizeAtStartup,1,1
;   temperatureHeatedBed,0,1
;   fanLayers,1,2
;   fanSpeeds,0,100
;   blipFanToFullPower,1
;   adjustSpeedForCooling,1
;   minSpeedLayerTime,15
;   minCoolingSpeedSlowdown,20
;   increaseFanForCooling,1
;   minFanLayerTime,45
;   maxCoolingFanSpeed,100
;   increaseFanForBridging,1
;   bridgingFanSpeed,100
;   use5D,1
;   relativeEdistances,1
;   allowEaxisZeroing,0
;   independentExtruderAxes,1
;   includeM10123,0
;   stickySupport,1
;   applyToolheadOffsets,0
;   gcodeXoffset,0
;   gcodeYoffset,0
;   gcodeZoffset,0
;   overrideMachineDefinition,1
;   machineTypeOverride,0
;   strokeXoverride,280
;   strokeYoverride,150
;   strokeZoverride,150
;   originOffsetXoverride,140
;   originOffsetYoverride,75
;   originOffsetZoverride,0
;   homeXdirOverride,1
;   homeYdirOverride,1
;   homeZdirOverride,-1
;   flipXoverride,1
;   flipYoverride,-1
;   flipZoverride,1
;   toolheadOffsets,0,0|0,0|0,0|0,0|0,0|0,0
;   overrideFirmwareConfiguration,1
;   firmwareTypeOverride,MakerBot/Sailfish Firmware
;   GPXconfigOverride,r2h
;   baudRateOverride,115200
;   overridePrinterModels,1
;   printerModelsOverride,MakerBot_Replicator2.stl
;   startingGcode,; **** Replicator 2 start.gcode ****,M73 P0 ; enable build progress,G162 X Y F3000 ; home XY maximum,G161 Z F1200 ; home Z minimum,G92 Z-5 ; set Z to -5,G1 Z0 ; move Z to 0,G28 ; better homing homie,M132 X Y Z A B ; recall home offsets,G1 X-145 Y-75 Z30 F9000 ; move to wait position off table,G130 X20 Y20 Z20 A20 B20 ; lower stepper Vrefs while heating,M126 S[fan_speed_pwm],M140 S[bed0_temperature] T0,M134 T0 ; stabilize bed temperature,M104 S[extruder0_temperature] T0,M133 T0 ; stabilize extruder temperature,G130 X127 Y127 Z40 A127 B127 ; default stepper Vrefs,G92 A0 ; zero extruder,G1 Z0.4 ; position nozzle,G1 E25 F300 ; purge nozzle,G1 X-140 Y-70 Z0.15 F1200 ; slow wipe,G1 X-135 Y-65 Z0.5 F1200 ; lift,G92 A0 ; zero extruder,M73 P1 ;@body (notify GPX body has started),; **** end of start.gcode ****
;   layerChangeGcode,
;   retractionGcode,
;   toolChangeGcode,
;   endingGcode,; **** Replicator 2 end.gcode ****,M73 P100 ; end build progress,G1 Z155 F1000 ; send Z axis to bottom of machine,M104 S0 T0 ; cool down extruder,M140 S0 T0 ; cool down HBP,M127 ; stop blower fan,G162 X Y F3000 ; home XY maximum,M18 ; disable stepper,M0 ; stop codes,M72 P1 ; play Ta-Da song,; **** end of end.gcode ****
;   exportFileFormat,gcode
;   celebration,0
;   celebrationSong,Random Song
;   postProcessing,
;   defaultSpeed,4800
;   outlineUnderspeed,0.5
;   solidInfillUnderspeed,1
;   supportUnderspeed,1
;   rapidXYspeed,9000
;   rapidZspeed,1200
;   minBridgingArea,50
;   bridgingExtraInflation,0
;   bridgingExtrusionMultiplier,1
;   bridgingSpeedMultiplier,0.8
;   useFixedBridgingAngle,0
;   fixedBridgingAngle,0
;   applyBridgingToPerimeters,0
;   filamentDiameters,1.75|1.75|1.75|1.75|1.75|1.75
;   filamentPricesPerKg,46|46|46|46|46|46
;   filamentDensities,1.25|1.25|1.25|1.25|1.25|1.25
;   useMinPrintHeight,0
;   minPrintHeight,0
;   useMaxPrintHeight,0
;   maxPrintHeight,4.84
;   useDiaphragm,0
;   diaphragmLayerInterval,20
;   robustSlicing,1
;   mergeAllIntoSolid,0
;   onlyRetractWhenCrossingOutline,0
;   retractBetweenLayers,0
;   useRetractionMinTravel,1
;   retractionMinTravel,7
;   retractWhileWiping,1
;   onlyWipeOutlines,1
;   avoidCrossingOutline,0
;   maxMovementDetourFactor,3
;   toolChangeRetractionDistance,12
;   toolChangeExtraRestartDistance,-0.5
;   toolChangeRetractionSpeed,600
;   externalThinWallType,0
;   internalThinWallType,0
;   thinWallAllowedOverlapPercentage,10
;   singleExtrusionMinLength,1
;   singleExtrusionMinPrintingWidthPercentage,50
;   singleExtrusionMaxPrintingWidthPercentage,200
;   singleExtrusionEndpointExtension,0.2
;   horizontalSizeCompensation,0
G90
M83
; **** Replicator 2 start.gcode ****
M73 P0 ; enable build progress
G162 X Y F3000 ; home XY maximum
G161 Z F1200 ; home Z minimum
G92 Z-5 ; set Z to -5
G1 Z0 ; move Z to 0
G28 ; better homing homie
M132 X Y Z A B ; recall home offsets
G1 X-145 Y-75 Z30 F9000 ; move to wait position off table
G130 X20 Y20 Z20 A20 B20 ; lower stepper Vrefs while heating
M127
M140 S65 T0
M134 T0 ; stabilize bed temperature
M104 S210 T0
M133 T0 ; stabilize extruder temperature
G130 X127 Y127 Z40 A127 B127 ; default stepper Vrefs
G92 A0 ; zero extruder
G1 Z0.4 ; position nozzle
G1 E25 F300 ; purge nozzle
G1 X-140 Y-70 Z0.15 F1200 ; slow wipe
G1 X-135 Y-65 Z0.5 F1200 ; lift
G92 A0 ; zero extruder
M73 P1 ;@body (notify GPX body has started)
; **** end of start.gcode ****
; process Process1
; layer 1, Z = 0.200
M135 T0
G1 E-1.9000 F1200
; feature inner perimeter
; tool H0.200 W0.400
G1 Z0.500 F1200
G1 X17.906 Y-3.448 F9000
G1 Z0.200 F1200
G1 E1.9000 F1200
G1 X15.106 Y-3.448 E0.0931 F1800
G1 X15.106 Y5.009 E0.2813
G1 X17.906 Y5.009 E0.0931
G1 X17.906 Y9.906 E0.1629
G1 X15.106 Y9.906 E0.0931
G1 X15.106 Y18.218 E0.2765
G1 X17.906 Y18.218 E0.0931
G1 X17.906 Y23.546 E0.1772
G1 X15.106 Y23.546 E0.0931
G1 X15.106 Y31.840 E0.2759
G1 X17.906 Y31.840 E0.0931
G1 X17.906 Y37.083 E0.1744
G1 X15.106 Y37.083 E0.0931
G1 X15.106 Y45.427 E0.2775
G1 X17.906 Y45.427 E0.0931
G1 X17.906 Y50.825 E0.1796
G1 X15.106 Y50.825 E0.0931
G1 X15.106 Y71.956 E0.7028
G1 X-59.745 Y71.956 E2.4896
G1 X-59.745 Y50.733 E0.7059
G1 X-62.514 Y50.733 E0.0921
G1 X-62.514 Y45.233 E0.1829
G1 X-59.745 Y45.233 E0.0921
G1 X-59.745 Y37.011 E0.2735
G1 X-62.514 Y37.011 E0.0921
G1 X-62.514 Y31.696 E0.1768
G1 X-59.745 Y31.696 E0.0921
G1 X-59.745 Y23.256 E0.2807
G1 X-62.514 Y23.256 E0.0921
G1 X-62.514 Y18.218 E0.1676
G1 X-59.745 Y18.218 E0.0921
G1 X-59.745 Y9.906 E0.2765
G1 X-62.514 Y9.906 E0.0921
G1 X-62.514 Y5.009 E0.1629
G1 X-59.745 Y5.009 E0.0921
G1 X-59.745 Y-3.448 E0.2813
G1 X-62.514 Y-3.448 E0.0921
G1 X-62.514 Y-8.749 E0.1763
G1 X-59.745 Y-8.749 E0.0921
G1 X-59.745 Y-16.899 E0.2710
G1 X-62.514 Y-16.899 E0.0921
G1 X-62.514 Y-22.420 E0.1837
G1 X-59.745 Y-22.420 E0.0921
G1 X-59.745 Y-30.704 E0.2755
G1 X-62.514 Y-30.704 E0.0921
G1 X-62.514 Y-36.102 E0.1796
G1 X-59.745 Y-36.102 E0.0921
G1 X-59.745 Y-42.088 E0.1991
G1 X-64.918 Y-42.088 E0.1721
G1 X-64.918 Y-69.761 E0.9204
G1 X-20.477 Y-69.761 E1.4781
G1 X-20.477 Y-46.439 E0.7757
G1 X-35.221 Y-46.439 E0.4904
G1 X-35.221 Y-7.531 E1.2941
G1 X-12.045 Y-7.531 E0.7708
G1 X-12.045 Y-35.152 E0.9187
G1 X-8.902 Y-35.152 E0.1045
G1 X-8.902 Y-7.531 E0.9187
G1 X11.256 Y-7.531 E0.6705
G1 X11.256 Y-35.152 E0.9187
G1 X17.906 Y-35.152 E0.2211
G1 X17.906 Y-30.506 E0.1545
G1 X15.106 Y-30.506 E0.0931
G1 X15.106 Y-21.902 E0.2861
G1 X17.906 Y-21.902 E0.0931
G1 X17.906 Y-17.078 E0.1605
G1 X15.106 Y-17.078 E0.0931
G1 X15.106 Y-8.683 E0.2792
G1 X17.906 Y-8.683 E0.0931
G1 X17.906 Y-3.448 E0.1741
; feature outer perimeter
G1 X18.306 Y-3.048 F9000
G1 X15.506 Y-3.048 E0.0931 F1200
G1 X15.506 Y4.609 E0.2547
G1 X18.306 Y4.609 E0.0931
G1 X18.306 Y10.306 E0.1895
G1 X15.506 Y10.306 E0.0931
G1 X15.506 Y17.818 E0.2499
G1 X18.306 Y17.818 E0.0931
G1 X18.306 Y23.946 E0.2038
G1 X15.506 Y23.946 E0.0931
G1 X15.506 Y31.440 E0.2493
G1 X18.306 Y31.440 E0.0931
G1 X18.306 Y37.483 E0.2010
G1 X15.506 Y37.483 E0.0931
G1 X15.506 Y45.027 E0.2509
G1 X18.306 Y45.027 E0.0931
G1 X18.306 Y51.225 E0.2062
G1 X15.506 Y51.225 E0.0931
G1 X15.506 Y72.356 E0.7028
G1 X-60.145 Y72.356 E2.5162
G1 X-60.145 Y51.133 E0.7059
G1 X-62.914 Y51.133 E0.0921
G1 X-62.914 Y44.833 E0.2095
G1 X-60.145 Y44.833 E0.0921
G1 X-60.145 Y37.411 E0.2469
G1 X-62.914 Y37.411 E0.0921
G1 X-62.914 Y31.296 E0.2034
G1 X-60.145 Y31.296 E0.0921
G1 X-60.145 Y23.656 E0.2541
G1 X-62.914 Y23.656 E0.0921
G1 X-62.914 Y17.818 E0.1942
G1 X-60.145 Y17.818 E0.0921
G1 X-60.145 Y10.306 E0.2499
G1 X-62.914 Y10.306 E0.0921
G1 X-62.914 Y4.609 E0.1895
G1 X-60.145 Y4.609 E0.0921
G1 X-60.145 Y-3.048 E0.2547
G1 X-62.914 Y-3.048 E0.0921
G1 X-62.914 Y-9.149 E0.2029
G1 X-60.145 Y-9.149 E0.0921
G1 X-60.145 Y-16.499 E0.2444
G1 X-62.914 Y-16.499 E0.0921
G1 X-62.914 Y-22.820 E0.2103
G1 X-60.145 Y-22.820 E0.0921
G1 X-60.145 Y-30.304 E0.2489
G1 X-62.914 Y-30.304 E0.0921
G1 X-62.914 Y-36.502 E0.2062
G1 X-60.145 Y-36.502 E0.0921
G1 X-60.145 Y-41.688 E0.1725
G1 X-65.318 Y-41.688 E0.1721
G1 X-65.318 Y-70.161 E0.9470
G1 X-20.077 Y-70.161 E1.5047
G1 X-20.077 Y-46.039 E0.8023
G1 X-34.821 Y-46.039 E0.4904
G1 X-34.821 Y-7.931 E1.2675
G1 X-12.445 Y-7.931 E0.7442
G1 X-12.445 Y-35.552 E0.9187
G1 X-8.502 Y-35.552 E0.1312
G1 X-8.502 Y-7.931 E0.9187
G1 X10.856 Y-7.931 E0.6439
G1 X10.856 Y-35.552 E0.9187
G1 X18.306 Y-35.552 E0.2478
G1 X18.306 Y-30.106 E0.1811
G1 X15.506 Y-30.106 E0.0931
G1 X15.506 Y-22.302 E0.2595
G1 X18.306 Y-22.302 E0.0931
G1 X18.306 Y-16.678 E0.1871
G1 X15.506 Y-16.678 E0.0931
G1 X15.506 Y-9.083 E0.2526
G1 X18.306 Y-9.083 E0.0931
G1 X18.306 Y-3.048 E0.2007
G1 E-1.9000 F1200
; feature inner perimeter
G1 Z0.700 F1200
G1 X11.256 Y21.808 F9000
G1 Z0.200 F1200
G1 E1.9000 F1200
G1 X-8.902 Y21.808 E0.6705 F1800
G1 X-8.902 Y60.074 E1.2727
G1 X11.256 Y60.074 E0.6705
G1 X11.256 Y21.808 E1.2727
; feature outer perimeter
G1 X10.856 Y22.208 F9000
G1 X-8.502 Y22.208 E0.6439 F1200
G1 X-8.502 Y59.674 E1.2461
G1 X10.856 Y59.674 E0.6439
G1 X10.856 Y22.208 E1.2461
G1 E-1.9000 F1200
; feature inner perimeter
G1 Z0.700 F1200
G1 X-12.045 Y21.808 F9000
G1 Z0.200 F1200
G1 E1.9000 F1200
G1 X-35.221 Y21.808 E0.7708 F1800
G1 X-35.221 Y60.074 E1.2727
G1 X-12.045 Y60.074 E0.7708
G1 X-12.045 Y21.808 E1.2727
; feature outer perimeter
G1 X-12.445 Y22.208 F9000
G1 X-34.821 Y22.208 E0.7442 F1200
G1 X-34.821 Y59.674 E1.2461
G1 X-12.445 Y59.674 E0.7442
G1 X-12.445 Y22.208 E1.2461
G1 E-1.9000 F1200
; feature inner perimeter
G1 Z0.700 F1200
G1 X-38.727 Y21.808 F9000
G1 Z0.200 F1200
G1 E1.9000 F1200
G1 X-58.665 Y21.808 E0.6631 F1800
G1 X-58.665 Y60.074 E1.2727
G1 X-38.727 Y60.074 E0.6631
G1 X-38.727 Y21.808 E1.2727
; feature outer perimeter
G1 X-39.127 Y22.208 F9000
G1 X-58.265 Y22.208 E0.6365 F1200
G1 X-58.265 Y59.674 E1.2461
G1 X-39.127 Y59.674 E0.6365
G1 X-39.127 Y22.208 E1.2461
G1 E-1.9000 F1200
; feature inner perimeter
G1 Z0.700 F1200
G1 X-38.727 Y-7.531 F9000
G1 Z0.200 F1200
G1 E1.9000 F1200
G1 X-38.727 Y-46.439 E1.2941 F1800
G1 X-58.665 Y-46.439 E0.6631
G1 X-58.665 Y-7.531 E1.2941
G1 X-38.727 Y-7.531 E0.6631
; feature outer perimeter
G1 X-39.127 Y-7.931 F9000
G1 X-39.127 Y-46.039 E1.2675 F1200
G1 X-58.265 Y-46.039 E0.6365
G1 X-58.265 Y-7.931 E1.2675
G1 X-39.127 Y-7.931 E0.6365
; feature solid layer
G1 X-34.953 Y-7.211 F9000
G1 X-6.254 Y21.488 E1.3500 F2400
G1 X-5.688 Y21.488 E0.0188
G1 X-34.388 Y-7.211 E1.3500
G1 X-33.822 Y-7.211 E0.0188
G1 X-5.122 Y21.488 E1.3500
G1 X-4.557 Y21.488 E0.0188
G1 X-33.256 Y-7.211 E1.3500
G1 X-32.691 Y-7.211 E0.0188
G1 X-3.991 Y21.488 E1.3500
G1 X-3.425 Y21.488 E0.0188
G1 X-32.125 Y-7.211 E1.3500
G1 X-31.559 Y-7.211 E0.0188
G1 X-2.860 Y21.488 E1.3500
G1 X-2.294 Y21.488 E0.0188
G1 X-30.994 Y-7.211 E1.3500
G1 X-30.428 Y-7.211 E0.0188
G1 X-1.728 Y21.488 E1.3500
G1 X-1.162 Y21.488 E0.0188
G1 X-29.862 Y-7.211 E1.3500
G1 X-29.297 Y-7.211 E0.0188
G1 X-0.597 Y21.488 E1.3500
G1 X-0.031 Y21.488 E0.0188
G1 X-28.731 Y-7.211 E1.3500
G1 X-28.165 Y-7.211 E0.0188
G1 X0.535 Y21.488 E1.3500
G1 X1.100 Y21.488 E0.0188
G1 X-27.600 Y-7.211 E1.3500
G1 X-27.034 Y-7.211 E0.0188
G1 X1.666 Y21.488 E1.3500
G1 X2.232 Y21.488 E0.0188
G1 X-26.468 Y-7.211 E1.3500
G1 X-25.903 Y-7.211 E0.0188
G1 X2.797 Y21.488 E1.3500
G1 X3.363 Y21.488 E0.0188
G1 X-25.337 Y-7.211 E1.3500
G1 X-24.771 Y-7.211 E0.0188
G1 X3.929 Y21.488 E1.3500
G1 X4.494 Y21.488 E0.0188
G1 X-24.205 Y-7.211 E1.3500
G1 X-23.640 Y-7.211 E0.0188
G1 X5.060 Y21.488 E1.3500
G1 X5.626 Y21.488 E0.0188
G1 X-23.074 Y-7.211 E1.3500
G1 X-22.508 Y-7.211 E0.0188
G1 X6.191 Y21.488 E1.3500
G1 X6.757 Y21.488 E0.0188
G1 X-21.943 Y-7.211 E1.3500
G1 X-21.377 Y-7.211 E0.0188
G1 X7.323 Y21.488 E1.3500
G1 X7.888 Y21.488 E0.0188
G1 X-20.811 Y-7.211 E1.3500
G1 X-20.246 Y-7.211 E0.0188
G1 X8.454 Y21.488 E1.3500
G1 X9.020 Y21.488 E0.0188
G1 X-19.680 Y-7.211 E1.3500
G1 X-19.114 Y-7.211 E0.0188
G1 X9.586 Y21.488 E1.3500
G1 X10.151 Y21.488 E0.0188
G1 X-18.549 Y-7.211 E1.3500
G1 X-17.983 Y-7.211 E0.0188
G1 X10.717 Y21.488 E1.3500
G1 X11.283 Y21.488 E0.0188
G1 X-17.417 Y-7.211 E1.3500
G1 X-16.852 Y-7.211 E0.0188
G1 X14.786 Y24.427 E1.4882
G1 X14.786 Y23.861 E0.0188
G1 X-16.286 Y-7.211 E1.4615
G1 X-15.720 Y-7.211 E0.0188
G1 X14.786 Y23.295 E1.4349
G1 X14.786 Y23.226 E0.0023
G1 X15.283 Y23.226 E0.0165
G1 X-15.155 Y-7.211 E1.4317
G1 X-14.589 Y-7.211 E0.0188
G1 X15.848 Y23.226 E1.4317
G1 X16.414 Y23.226 E0.0188
G1 X-14.023 Y-7.211 E1.4317
G1 X-13.457 Y-7.211 E0.0188
G1 X16.980 Y23.226 E1.4317
G1 X17.546 Y23.226 E0.0188
G1 X-12.892 Y-7.211 E1.4317
G1 X-12.326 Y-7.211 E0.0188
G1 X17.586 Y22.700 E1.4069
G1 X17.586 Y22.134 E0.0188
G1 X-11.760 Y-7.211 E1.3803
G1 E-1.9000 F1200
G1 Z0.700 F1200
G1 X-9.399 Y-34.832 F9000
G1 Z0.200 F1200
G1 E1.9000 F1200
G1 X-9.222 Y-34.654 E0.0084 F2400
G1 X-9.222 Y-34.089 E0.0188
G1 X-9.965 Y-34.832 E0.0350
G1 X-10.531 Y-34.832 E0.0188
G1 X-9.222 Y-33.523 E0.0616
G1 X-9.222 Y-32.957 E0.0188
G1 X-11.097 Y-34.832 E0.0882
G1 X-11.662 Y-34.832 E0.0188
G1 X-9.222 Y-32.392 E0.1148
G1 X-9.222 Y-31.826 E0.0188
G1 X-11.725 Y-34.329 E0.1177
G1 X-11.725 Y-33.763 E0.0188
G1 X-9.222 Y-31.260 E0.1177
G1 X-9.222 Y-30.695 E0.0188
G1 X-11.725 Y-33.198 E0.1177
G1 X-11.725 Y-32.632 E0.0188
