; G-Code generated by Simplify3D(R) Version 4.1.2
; Jun 8, 2020 at 4:36:42 PM
; Settings Summary
;   processName,Process1
;   applyToModels,firehouseFancy,firehouseFront,firehouseRoof,firehouseFancy(2)
;   profileName,MakerBot Replicator 2 HBP (modified)
;   profileVersion,2020-04-21 14:45:34
;   baseProfile,MakerBot Replicator 2(2)
;   printMaterial,PLA
;   printQuality,Medium
;   printExtruders,
;   extruderName,Primary Extruder
;   extruderToolheadNumber,0
;   extruderDiameter,0.4
;   extruderAutoWidth,0
;   extruderWidth,0.4
;   extrusionMultiplier,1
;   extruderUseRetract,1
;   extruderRetractionDistance,1.9
;   extruderExtraRestartDistance,0
;   extruderRetractionZLift,0.5
;   extruderRetractionSpeed,1200
;   extruderUseCoasting,0
;   extruderCoastingDistance,0.2
;   extruderUseWipe,0
;   extruderWipeDistance,5
;   primaryExtruder,0
;   layerHeight,0.2
;   topSolidLayers,4
;   bottomSolidLayers,3
;   perimeterOutlines,2
;   printPerimetersInsideOut,1
;   startPointOption,3
;   startPointOriginX,140
;   startPointOriginY,0
;   sequentialIslands,0
;   spiralVaseMode,0
;   firstLayerHeightPercentage,100
;   firstLayerWidthPercentage,100
;   firstLayerUnderspeed,0.5
;   useRaft,0
;   raftExtruder,0
;   raftTopLayers,2
;   raftBaseLayers,1
;   raftOffset,1
;   raftSeparationDistance,0.14
;   raftTopInfill,90
;   aboveRaftSpeedMultiplier,0.3
;   useSkirt,0
;   skirtExtruder,0
;   skirtLayers,1
;   skirtOutlines,5
;   skirtOffset,0
;   usePrimePillar,0
;   primePillarExtruder,999
;   primePillarWidth,12
;   primePillarLocation,7
;   primePillarSpeedMultiplier,1
;   useOozeShield,0
;   oozeShieldExtruder,999
;   oozeShieldOffset,2
;   oozeShieldOutlines,1
;   oozeShieldSidewallShape,1
;   oozeShieldSidewallAngle,30
;   oozeShieldSpeedMultiplier,1
;   infillExtruder,0
;   internalInfillPattern,Rectilinear
;   externalInfillPattern,Rectilinear
;   infillPercentage,30
;   outlineOverlapPercentage,20
;   infillExtrusionWidthPercentage,100
;   minInfillLength,5
;   infillLayerInterval,1
;   internalInfillAngles,45,-45
;   overlapInternalInfillAngles,0
;   externalInfillAngles,45,-45
;   generateSupport,0
;   supportExtruder,0
;   supportInfillPercentage,30
;   supportExtraInflation,0.6
;   supportBaseLayers,0
;   denseSupportExtruder,0
;   denseSupportLayers,2
;   denseSupportInfillPercentage,70
;   supportLayerInterval,1
;   supportHorizontalPartOffset,0.3
;   supportUpperSeparationLayers,1
;   supportLowerSeparationLayers,1
;   supportType,0
;   supportGridSpacing,99
;   maxOverhangAngle,45
;   supportAngles,0
;   temperatureName,Primary Extruder,Heated Build Platform
;   temperatureNumber,0,0
;   temperatureSetpointCount,1,1
;   temperatureSetpointLayers,1,1
;   temperatureSetpointTemperatures,230,65
;   temperatureStabilizeAtStartup,1,1
;   temperatureHeatedBed,0,1
;   fanLayers,1,2
;   fanSpeeds,0,100
;   blipFanToFullPower,1
;   adjustSpeedForCooling,1
;   minSpeedLayerTime,15
;   minCoolingSpeedSlowdown,20
;   increaseFanForCooling,1
;   minFanLayerTime,45
;   maxCoolingFanSpeed,100
;   increaseFanForBridging,1
;   bridgingFanSpeed,100
;   use5D,1
;   relativeEdistances,1
;   allowEaxisZeroing,0
;   independentExtruderAxes,1
;   includeM10123,0
;   stickySupport,1
;   applyToolheadOffsets,0
;   gcodeXoffset,0
;   gcodeYoffset,0
;   gcodeZoffset,0
;   overrideMachineDefinition,1
;   machineTypeOverride,0
;   strokeXoverride,280
;   strokeYoverride,150
;   strokeZoverride,150
;   originOffsetXoverride,140
;   originOffsetYoverride,75
;   originOffsetZoverride,0
;   homeXdirOverride,1
;   homeYdirOverride,1
;   homeZdirOverride,-1
;   flipXoverride,1
;   flipYoverride,-1
;   flipZoverride,1
;   toolheadOffsets,0,0|0,0|0,0|0,0|0,0|0,0
;   overrideFirmwareConfiguration,1
;   firmwareTypeOverride,MakerBot/Sailfish Firmware
;   GPXconfigOverride,r2h
;   baudRateOverride,115200
;   overridePrinterModels,1
;   printerModelsOverride,MakerBot_Replicator2.stl
;   startingGcode,; **** Replicator 2 start.gcode ****,M73 P0 ; enable build progress,G162 X Y F3000 ; home XY maximum,G161 Z F1200 ; home Z minimum,G92 Z-5 ; set Z to -5,G1 Z0 ; move Z to 0,G28 ; better homing homie,M132 X Y Z A B ; recall home offsets,G1 X-145 Y-75 Z30 F9000 ; move to wait position off table,G130 X20 Y20 Z20 A20 B20 ; lower stepper Vrefs while heating,M126 S[fan_speed_pwm],M140 S[bed0_temperature] T0,M134 T0 ; stabilize bed temperature,M104 S[extruder0_temperature] T0,M133 T0 ; stabilize extruder temperature,G130 X127 Y127 Z40 A127 B127 ; default stepper Vrefs,G92 A0 ; zero extruder,G1 Z0.4 ; position nozzle,G1 E25 F300 ; purge nozzle,G1 X-140 Y-70 Z0.15 F1200 ; slow wipe,G1 X-135 Y-65 Z0.5 F1200 ; lift,G92 A0 ; zero extruder,M73 P1 ;@body (notify GPX body has started),; **** end of start.gcode ****
;   layerChangeGcode,
;   retractionGcode,
;   toolChangeGcode,
;   endingGcode,; **** Replicator 2 end.gcode ****,M73 P100 ; end build progress,G1 Z155 F1000 ; send Z axis to bottom of machine,M104 S0 T0 ; cool down extruder,M140 S0 T0 ; cool down HBP,M127 ; stop blower fan,G162 X Y F3000 ; home XY maximum,M18 ; disable stepper,M0 ; stop codes,M72 P1 ; play Ta-Da song,; **** end of end.gcode ****
;   exportFileFormat,gcode
;   celebration,0
;   celebrationSong,Random Song
;   postProcessing,
;   defaultSpeed,4800
;   outlineUnderspeed,0.5
;   solidInfillUnderspeed,1
;   supportUnderspeed,1
;   rapidXYspeed,9000
;   rapidZspeed,1200
;   minBridgingArea,50
;   bridgingExtraInflation,0
;   bridgingExtrusionMultiplier,1
;   bridgingSpeedMultiplier,0.8
;   useFixedBridgingAngle,0
;   fixedBridgingAngle,0
;   applyBridgingToPerimeters,0
;   filamentDiameters,1.75|1.75|1.75|1.75|1.75|1.75
;   filamentPricesPerKg,46|46|46|46|46|46
;   filamentDensities,1.25|1.25|1.25|1.25|1.25|1.25
;   useMinPrintHeight,0
;   minPrintHeight,0
;   useMaxPrintHeight,0
;   maxPrintHeight,4.84
;   useDiaphragm,0
;   diaphragmLayerInterval,20
;   robustSlicing,1
;   mergeAllIntoSolid,0
;   onlyRetractWhenCrossingOutline,0
;   retractBetweenLayers,0
;   useRetractionMinTravel,1
;   retractionMinTravel,7
;   retractWhileWiping,1
;   onlyWipeOutlines,1
;   avoidCrossingOutline,0
;   maxMovementDetourFactor,3
;   toolChangeRetractionDistance,12
;   toolChangeExtraRestartDistance,-0.5
;   toolChangeRetractionSpeed,600
;   externalThinWallType,0
;   internalThinWallType,0
;   thinWallAllowedOverlapPercentage,10
;   singleExtrusionMinLength,1
;   singleExtrusionMinPrintingWidthPercentage,50
;   singleExtrusionMaxPrintingWidthPercentage,200
;   singleExtrusionEndpointExtension,0.2
;   horizontalSizeCompensation,0
G90
M83
; **** Replicator 2 start.gcode ****
M73 P0 ; enable build progress
G162 X Y F3000 ; home XY maximum
G161 Z F1200 ; home Z minimum
G92 Z-5 ; set Z to -5
G1 Z0 ; move Z to 0
G28 ; better homing homie
M132 X Y Z A B ; recall home offsets
G1 X-145 Y-75 Z30 F9000 ; move to wait position off table
G130 X20 Y20 Z20 A20 B20 ; lower stepper Vrefs while heating
M127
M140 S65 T0
M134 T0 ; stabilize bed temperature
M104 S230 T0
M133 T0 ; stabilize extruder temperature
G130 X127 Y127 Z40 A127 B127 ; default stepper Vrefs
G92 A0 ; zero extruder
G1 Z0.4 ; position nozzle
G1 E25 F300 ; purge nozzle
G1 X-140 Y-70 Z0.15 F1200 ; slow wipe
G1 X-135 Y-65 Z0.5 F1200 ; lift
G92 A0 ; zero extruder
M73 P1 ;@body (notify GPX body has started)
; **** end of start.gcode ****
; process Process1
; layer 1, Z = 0.200
M135 T0
G1 E-1.9000 F1200
; feature inner perimeter
; tool H0.200 W0.400
G1 Z0.500 F1200
G1 X10.759 Y3.736 F9000
G1 Z0.200 F1200
G1 E1.9000 F1200
G1 X10.759 Y8.633 E0.1629 F1800
G1 X7.960 Y8.633 E0.0931
G1 X7.960 Y16.945 E0.2765
G1 X10.759 Y16.945 E0.0931
G1 X10.759 Y22.273 E0.1772
G1 X7.960 Y22.273 E0.0931
G1 X7.960 Y30.567 E0.2759
G1 X10.759 Y30.567 E0.0931
G1 X10.759 Y35.811 E0.1744
G1 X7.960 Y35.811 E0.0931
G1 X7.960 Y44.154 E0.2775
G1 X10.759 Y44.154 E0.0931
G1 X10.759 Y49.552 E0.1796
G1 X7.960 Y49.552 E0.0931
G1 X7.960 Y70.683 E0.7028
G1 X-66.892 Y70.683 E2.4896
G1 X-66.892 Y49.460 E0.7059
G1 X-69.660 Y49.460 E0.0921
G1 X-69.660 Y43.960 E0.1829
G1 X-66.892 Y43.960 E0.0921
G1 X-66.892 Y35.738 E0.2735
G1 X-69.660 Y35.738 E0.0921
G1 X-69.660 Y30.423 E0.1768
G1 X-66.892 Y30.423 E0.0921
G1 X-66.892 Y21.983 E0.2807
G1 X-69.660 Y21.983 E0.0921
G1 X-69.660 Y16.945 E0.1676
G1 X-66.892 Y16.945 E0.0921
G1 X-66.892 Y8.633 E0.2765
G1 X-69.660 Y8.633 E0.0921
G1 X-69.660 Y3.736 E0.1629
G1 X-66.892 Y3.736 E0.0921
G1 X-66.892 Y-4.721 E0.2813
G1 X-69.660 Y-4.721 E0.0921
G1 X-69.660 Y-10.022 E0.1763
G1 X-66.892 Y-10.022 E0.0921
G1 X-66.892 Y-18.172 E0.2710
G1 X-69.660 Y-18.172 E0.0921
G1 X-69.660 Y-23.693 E0.1837
G1 X-66.892 Y-23.693 E0.0921
G1 X-66.892 Y-31.977 E0.2755
G1 X-69.660 Y-31.977 E0.0921
G1 X-69.660 Y-37.375 E0.1796
G1 X-66.892 Y-37.375 E0.0921
G1 X-66.892 Y-43.361 E0.1991
G1 X-72.065 Y-43.361 E0.1721
G1 X-72.065 Y-71.034 E0.9204
G1 X-27.623 Y-71.034 E1.4781
G1 X-27.623 Y-47.712 E0.7757
G1 X-42.368 Y-47.712 E0.4904
G1 X-42.368 Y-8.804 E1.2941
G1 X-19.192 Y-8.804 E0.7708
G1 X-19.192 Y-36.425 E0.9187
G1 X-16.048 Y-36.425 E0.1045
G1 X-16.048 Y-8.804 E0.9187
G1 X4.110 Y-8.804 E0.6705
G1 X4.110 Y-36.425 E0.9187
G1 X10.759 Y-36.425 E0.2211
G1 X10.759 Y-31.779 E0.1545
G1 X7.960 Y-31.779 E0.0931
G1 X7.960 Y-23.175 E0.2861
G1 X10.759 Y-23.175 E0.0931
G1 X10.759 Y-18.351 E0.1605
G1 X7.960 Y-18.351 E0.0931
G1 X7.960 Y-9.956 E0.2792
G1 X10.759 Y-9.956 E0.0931
G1 X10.759 Y-4.721 E0.1741
G1 X7.960 Y-4.721 E0.0931
G1 X7.960 Y3.736 E0.2813
G1 X10.759 Y3.736 E0.0931
; feature outer perimeter
G1 X11.159 Y3.336 F9000
G1 X11.159 Y9.033 E0.1895 F1200
G1 X8.360 Y9.033 E0.0931
G1 X8.360 Y16.545 E0.2499
G1 X11.159 Y16.545 E0.0931
G1 X11.159 Y22.673 E0.2038
G1 X8.360 Y22.673 E0.0931
G1 X8.360 Y30.168 E0.2493
G1 X11.159 Y30.168 E0.0931
G1 X11.159 Y36.211 E0.2010
G1 X8.360 Y36.211 E0.0931
G1 X8.360 Y43.754 E0.2509
G1 X11.159 Y43.754 E0.0931
G1 X11.159 Y49.952 E0.2062
G1 X8.360 Y49.952 E0.0931
G1 X8.360 Y71.083 E0.7028
G1 X-67.292 Y71.083 E2.5162
G1 X-67.292 Y49.860 E0.7059
G1 X-70.060 Y49.860 E0.0921
G1 X-70.060 Y43.560 E0.2095
G1 X-67.292 Y43.560 E0.0921
G1 X-67.292 Y36.138 E0.2469
G1 X-70.060 Y36.138 E0.0921
G1 X-70.060 Y30.023 E0.2034
G1 X-67.292 Y30.023 E0.0921
G1 X-67.292 Y22.383 E0.2541
G1 X-70.060 Y22.383 E0.0921
G1 X-70.060 Y16.545 E0.1942
G1 X-67.292 Y16.545 E0.0921
G1 X-67.292 Y9.033 E0.2499
G1 X-70.060 Y9.033 E0.0921
G1 X-70.060 Y3.336 E0.1895
G1 X-67.292 Y3.336 E0.0921
G1 X-67.292 Y-4.321 E0.2547
G1 X-70.060 Y-4.321 E0.0921
G1 X-70.060 Y-10.422 E0.2029
G1 X-67.292 Y-10.422 E0.0921
G1 X-67.292 Y-17.772 E0.2444
G1 X-70.060 Y-17.772 E0.0921
G1 X-70.060 Y-24.093 E0.2103
G1 X-67.292 Y-24.093 E0.0921
G1 X-67.292 Y-31.576 E0.2489
G1 X-70.060 Y-31.576 E0.0921
G1 X-70.060 Y-37.775 E0.2062
G1 X-67.292 Y-37.775 E0.0921
G1 X-67.292 Y-42.961 E0.1725
G1 X-72.465 Y-42.961 E0.1721
G1 X-72.465 Y-71.434 E0.9470
G1 X-27.223 Y-71.434 E1.5047
G1 X-27.223 Y-47.312 E0.8023
G1 X-41.968 Y-47.312 E0.4904
G1 X-41.968 Y-9.204 E1.2675
G1 X-19.592 Y-9.204 E0.7442
G1 X-19.592 Y-36.825 E0.9187
G1 X-15.648 Y-36.825 E0.1312
G1 X-15.648 Y-9.204 E0.9187
G1 X3.710 Y-9.204 E0.6439
G1 X3.710 Y-36.825 E0.9187
G1 X11.159 Y-36.825 E0.2478
G1 X11.159 Y-31.379 E0.1811
G1 X8.360 Y-31.379 E0.0931
G1 X8.360 Y-23.575 E0.2595
G1 X11.159 Y-23.575 E0.0931
G1 X11.159 Y-17.951 E0.1871
G1 X8.360 Y-17.951 E0.0931
G1 X8.360 Y-10.356 E0.2526
G1 X11.159 Y-10.356 E0.0931
G1 X11.159 Y-4.321 E0.2007
G1 X8.360 Y-4.321 E0.0931
G1 X8.360 Y3.336 E0.2547
G1 X11.159 Y3.336 E0.0931
G1 E-1.9000 F1200
; feature inner perimeter
G1 Z0.700 F1200
G1 X4.110 Y20.535 F9000
G1 Z0.200 F1200
G1 E1.9000 F1200
G1 X-16.048 Y20.535 E0.6705 F1800
G1 X-16.048 Y58.801 E1.2727
G1 X4.110 Y58.801 E0.6705
G1 X4.110 Y20.535 E1.2727
; feature outer perimeter
G1 X3.710 Y20.935 F9000
G1 X-15.648 Y20.935 E0.6439 F1200
G1 X-15.648 Y58.401 E1.2461
G1 X3.710 Y58.401 E0.6439
G1 X3.710 Y20.935 E1.2461
G1 E-1.9000 F1200
; feature inner perimeter
G1 Z0.700 F1200
G1 X-19.192 Y20.535 F9000
G1 Z0.200 F1200
G1 E1.9000 F1200
G1 X-42.368 Y20.535 E0.7708 F1800
G1 X-42.368 Y58.801 E1.2727
G1 X-19.192 Y58.801 E0.7708
G1 X-19.192 Y20.535 E1.2727
; feature outer perimeter
G1 X-19.592 Y20.935 F9000
G1 X-41.968 Y20.935 E0.7442 F1200
G1 X-41.968 Y58.401 E1.2461
G1 X-19.592 Y58.401 E0.7442
G1 X-19.592 Y20.935 E1.2461
G1 E-1.9000 F1200
; feature inner perimeter
G1 Z0.700 F1200
G1 X-45.874 Y20.535 F9000
G1 Z0.200 F1200
G1 E1.9000 F1200
G1 X-65.811 Y20.535 E0.6631 F1800
G1 X-65.811 Y58.801 E1.2727
G1 X-45.874 Y58.801 E0.6631
G1 X-45.874 Y20.535 E1.2727
; feature outer perimeter
G1 X-46.274 Y20.935 F9000
G1 X-65.411 Y20.935 E0.6365 F1200
G1 X-65.411 Y58.401 E1.2461
G1 X-46.274 Y58.401 E0.6365
G1 X-46.274 Y20.935 E1.2461
G1 E-1.9000 F1200
; feature inner perimeter
G1 Z0.700 F1200
G1 X-45.874 Y-8.804 F9000
G1 Z0.200 F1200
G1 E1.9000 F1200
G1 X-45.874 Y-47.712 E1.2941 F1800
G1 X-65.811 Y-47.712 E0.6631
G1 X-65.811 Y-8.804 E1.2941
G1 X-45.874 Y-8.804 E0.6631
; feature outer perimeter
G1 X-46.274 Y-9.204 F9000
G1 X-46.274 Y-47.312 E1.2675 F1200
G1 X-65.411 Y-47.312 E0.6365
G1 X-65.411 Y-9.204 E1.2675
G1 X-46.274 Y-9.204 E0.6365
; feature solid layer
G1 X-42.392 Y-8.484 F9000
G1 X-13.693 Y20.215 E1.3500 F2400
G1 X-13.127 Y20.215 E0.0188
G1 X-41.827 Y-8.484 E1.3500
G1 X-41.261 Y-8.484 E0.0188
G1 X-12.561 Y20.215 E1.3500
G1 X-11.995 Y20.215 E0.0188
G1 X-40.695 Y-8.484 E1.3500
G1 X-40.130 Y-8.484 E0.0188
G1 X-11.430 Y20.215 E1.3500
G1 X-10.864 Y20.215 E0.0188
G1 X-39.564 Y-8.484 E1.3500
G1 X-38.998 Y-8.484 E0.0188
G1 X-10.298 Y20.215 E1.3500
G1 X-9.733 Y20.215 E0.0188
G1 X-38.433 Y-8.484 E1.3500
G1 X-37.867 Y-8.484 E0.0188
G1 X-9.167 Y20.215 E1.3500
G1 X-8.601 Y20.215 E0.0188
G1 X-37.301 Y-8.484 E1.3500
G1 X-36.736 Y-8.484 E0.0188
G1 X-8.036 Y20.215 E1.3500
G1 X-7.470 Y20.215 E0.0188
G1 X-36.170 Y-8.484 E1.3500
G1 X-35.604 Y-8.484 E0.0188
G1 X-6.904 Y20.215 E1.3500
G1 X-6.339 Y20.215 E0.0188
G1 X-35.038 Y-8.484 E1.3500
G1 X-34.473 Y-8.484 E0.0188
G1 X-5.773 Y20.215 E1.3500
G1 X-5.207 Y20.215 E0.0188
G1 X-33.907 Y-8.484 E1.3500
G1 X-33.341 Y-8.484 E0.0188
G1 X-4.642 Y20.215 E1.3500
G1 X-4.076 Y20.215 E0.0188
G1 X-32.776 Y-8.484 E1.3500
G1 X-32.210 Y-8.484 E0.0188
G1 X-3.510 Y20.215 E1.3500
G1 X-2.945 Y20.215 E0.0188
G1 X-31.644 Y-8.484 E1.3500
G1 X-31.079 Y-8.484 E0.0188
G1 X-2.379 Y20.215 E1.3500
G1 X-1.813 Y20.215 E0.0188
G1 X-30.513 Y-8.484 E1.3500
G1 X-29.947 Y-8.484 E0.0188
G1 X-1.247 Y20.215 E1.3500
G1 X-0.682 Y20.215 E0.0188
G1 X-29.382 Y-8.484 E1.3500
G1 X-28.816 Y-8.484 E0.0188
G1 X-0.116 Y20.215 E1.3500
G1 X0.450 Y20.215 E0.0188
G1 X-28.250 Y-8.484 E1.3500
G1 X-27.685 Y-8.484 E0.0188
G1 X1.015 Y20.215 E1.3500
G1 X1.581 Y20.215 E0.0188
G1 X-27.119 Y-8.484 E1.3500
G1 X-26.553 Y-8.484 E0.0188
G1 X2.147 Y20.215 E1.3500
G1 X2.712 Y20.215 E0.0188
G1 X-25.988 Y-8.484 E1.3500
G1 X-25.422 Y-8.484 E0.0188
G1 X3.278 Y20.215 E1.3500
G1 X3.844 Y20.215 E0.0188
G1 X-24.856 Y-8.484 E1.3500
G1 X-24.290 Y-8.484 E0.0188
G1 X4.409 Y20.215 E1.3500
G1 X4.430 Y20.215 E0.0007
G1 X4.430 Y20.236 E0.0007
G1 X7.640 Y23.446 E0.1510
G1 X7.640 Y22.881 E0.0188
G1 X-23.725 Y-8.484 E1.4753
G1 X-23.159 Y-8.484 E0.0188
G1 X7.640 Y22.315 E1.4487
G1 X7.640 Y21.953 E0.0120
G1 X7.844 Y21.953 E0.0068
G1 X-22.593 Y-8.484 E1.4317
G1 X-22.028 Y-8.484 E0.0188
G1 X8.410 Y21.953 E1.4317
G1 X8.975 Y21.953 E0.0188
G1 X-21.462 Y-8.484 E1.4317
G1 X-20.896 Y-8.484 E0.0188
G1 X9.541 Y21.953 E1.4317
G1 X10.107 Y21.953 E0.0188
G1 X-20.331 Y-8.484 E1.4317
G1 X-19.765 Y-8.484 E0.0188
G1 X10.439 Y21.720 E1.4207
G1 X10.439 Y21.154 E0.0188
G1 X-19.199 Y-8.484 E1.3941
G1 X-18.872 Y-10.985 F9000
G1 X7.640 Y15.527 E1.2470 F2400
G1 X7.640 Y16.092 E0.0188
G1 X-18.872 Y-10.419 E1.2470
G1 X-18.872 Y-9.854 E0.0188
G1 X7.640 Y16.658 E1.2470
G1 X7.640 Y17.224 E0.0188
G1 X-18.872 Y-9.288 E1.2470
G1 X-18.872 Y-8.722 E0.0188
G1 X10.439 Y20.588 E1.3787
G1 X10.439 Y20.023 E0.0188
G1 X7.682 Y17.265 E0.1297
G1 X8.248 Y17.265 E0.0188
G1 X10.439 Y19.457 E0.1031
G1 X10.439 Y18.891 E0.0188
G1 X8.813 Y17.265 E0.0765
G1 X9.379 Y17.265 E0.0188
G1 X10.439 Y18.326 E0.0499
