; G-Code generated by Simplify3D(R) Version 4.1.2
; Jun 8, 2020 at 1:23:33 PM
; Settings Summary
;   processName,Process1
;   applyToModels,Final PKE insert bracket
;   profileName,MakerBot Replicator 2 HBP (modified)
;   profileVersion,2020-04-21 14:45:34
;   baseProfile,MakerBot Replicator 2(2)
;   printMaterial,PLA
;   printQuality,Medium
;   printExtruders,
;   extruderName,Primary Extruder
;   extruderToolheadNumber,0
;   extruderDiameter,0.4
;   extruderAutoWidth,0
;   extruderWidth,0.4
;   extrusionMultiplier,1
;   extruderUseRetract,1
;   extruderRetractionDistance,1.9
;   extruderExtraRestartDistance,0
;   extruderRetractionZLift,0.5
;   extruderRetractionSpeed,1200
;   extruderUseCoasting,0
;   extruderCoastingDistance,0.2
;   extruderUseWipe,0
;   extruderWipeDistance,5
;   primaryExtruder,0
;   layerHeight,0.2
;   topSolidLayers,4
;   bottomSolidLayers,3
;   perimeterOutlines,2
;   printPerimetersInsideOut,1
;   startPointOption,3
;   startPointOriginX,140
;   startPointOriginY,0
;   sequentialIslands,0
;   spiralVaseMode,0
;   firstLayerHeightPercentage,100
;   firstLayerWidthPercentage,100
;   firstLayerUnderspeed,0.5
;   useRaft,0
;   raftExtruder,0
;   raftTopLayers,2
;   raftBaseLayers,1
;   raftOffset,1
;   raftSeparationDistance,0.14
;   raftTopInfill,90
;   aboveRaftSpeedMultiplier,0.3
;   useSkirt,1
;   skirtExtruder,0
;   skirtLayers,1
;   skirtOutlines,5
;   skirtOffset,0
;   usePrimePillar,0
;   primePillarExtruder,999
;   primePillarWidth,12
;   primePillarLocation,7
;   primePillarSpeedMultiplier,1
;   useOozeShield,0
;   oozeShieldExtruder,999
;   oozeShieldOffset,2
;   oozeShieldOutlines,1
;   oozeShieldSidewallShape,1
;   oozeShieldSidewallAngle,30
;   oozeShieldSpeedMultiplier,1
;   infillExtruder,0
;   internalInfillPattern,Rectilinear
;   externalInfillPattern,Rectilinear
;   infillPercentage,15
;   outlineOverlapPercentage,20
;   infillExtrusionWidthPercentage,100
;   minInfillLength,5
;   infillLayerInterval,1
;   internalInfillAngles,45,-45
;   overlapInternalInfillAngles,0
;   externalInfillAngles,45,-45
;   generateSupport,1
;   supportExtruder,0
;   supportInfillPercentage,30
;   supportExtraInflation,0.6
;   supportBaseLayers,0
;   denseSupportExtruder,0
;   denseSupportLayers,2
;   denseSupportInfillPercentage,70
;   supportLayerInterval,1
;   supportHorizontalPartOffset,0.3
;   supportUpperSeparationLayers,1
;   supportLowerSeparationLayers,1
;   supportType,0
;   supportGridSpacing,99
;   maxOverhangAngle,45
;   supportAngles,0
;   temperatureName,Primary Extruder,Heated Build Platform
;   temperatureNumber,0,0
;   temperatureSetpointCount,1,1
;   temperatureSetpointLayers,1,1
;   temperatureSetpointTemperatures,230,65
;   temperatureStabilizeAtStartup,1,1
;   temperatureHeatedBed,0,1
;   fanLayers,1,2
;   fanSpeeds,0,100
;   blipFanToFullPower,1
;   adjustSpeedForCooling,1
;   minSpeedLayerTime,15
;   minCoolingSpeedSlowdown,20
;   increaseFanForCooling,1
;   minFanLayerTime,45
;   maxCoolingFanSpeed,100
;   increaseFanForBridging,1
;   bridgingFanSpeed,100
;   use5D,1
;   relativeEdistances,1
;   allowEaxisZeroing,0
;   independentExtruderAxes,1
;   includeM10123,0
;   stickySupport,1
;   applyToolheadOffsets,0
;   gcodeXoffset,0
;   gcodeYoffset,0
;   gcodeZoffset,0
;   overrideMachineDefinition,1
;   machineTypeOverride,0
;   strokeXoverride,280
;   strokeYoverride,150
;   strokeZoverride,150
;   originOffsetXoverride,140
;   originOffsetYoverride,75
;   originOffsetZoverride,0
;   homeXdirOverride,1
;   homeYdirOverride,1
;   homeZdirOverride,-1
;   flipXoverride,1
;   flipYoverride,-1
;   flipZoverride,1
;   toolheadOffsets,0,0|0,0|0,0|0,0|0,0|0,0
;   overrideFirmwareConfiguration,1
;   firmwareTypeOverride,MakerBot/Sailfish Firmware
;   GPXconfigOverride,r2h
;   baudRateOverride,115200
;   overridePrinterModels,1
;   printerModelsOverride,MakerBot_Replicator2.stl
;   startingGcode,; **** Replicator 2 start.gcode ****,M73 P0 ; enable build progress,G162 X Y F3000 ; home XY maximum,G161 Z F1200 ; home Z minimum,G92 Z-5 ; set Z to -5,G1 Z0 ; move Z to 0,G28 ; better homing homie,M132 X Y Z A B ; recall home offsets,G1 X-145 Y-75 Z30 F9000 ; move to wait position off table,G130 X20 Y20 Z20 A20 B20 ; lower stepper Vrefs while heating,M126 S[fan_speed_pwm],M140 S[bed0_temperature] T0,M134 T0 ; stabilize bed temperature,M104 S[extruder0_temperature] T0,M133 T0 ; stabilize extruder temperature,G130 X127 Y127 Z40 A127 B127 ; default stepper Vrefs,G92 A0 ; zero extruder,G1 Z0.4 ; position nozzle,G1 E25 F300 ; purge nozzle,G1 X-140 Y-70 Z0.15 F1200 ; slow wipe,G1 X-135 Y-65 Z0.5 F1200 ; lift,G92 A0 ; zero extruder,M73 P1 ;@body (notify GPX body has started),; **** end of start.gcode ****
;   layerChangeGcode,
;   retractionGcode,
;   toolChangeGcode,
;   endingGcode,; **** Replicator 2 end.gcode ****,M73 P100 ; end build progress,G1 Z155 F1000 ; send Z axis to bottom of machine,M104 S0 T0 ; cool down extruder,M140 S0 T0 ; cool down HBP,M127 ; stop blower fan,G162 X Y F3000 ; home XY maximum,M18 ; disable stepper,M0 ; stop codes,M72 P1 ; play Ta-Da song,; **** end of end.gcode ****
;   exportFileFormat,gcode
;   celebration,0
;   celebrationSong,Random Song
;   postProcessing,
;   defaultSpeed,4800
;   outlineUnderspeed,0.5
;   solidInfillUnderspeed,1
;   supportUnderspeed,1
;   rapidXYspeed,9000
;   rapidZspeed,1200
;   minBridgingArea,50
;   bridgingExtraInflation,0
;   bridgingExtrusionMultiplier,1
;   bridgingSpeedMultiplier,0.8
;   useFixedBridgingAngle,0
;   fixedBridgingAngle,0
;   applyBridgingToPerimeters,0
;   filamentDiameters,1.75|1.75|1.75|1.75|1.75|1.75
;   filamentPricesPerKg,46|46|46|46|46|46
;   filamentDensities,1.25|1.25|1.25|1.25|1.25|1.25
;   useMinPrintHeight,0
;   minPrintHeight,0
;   useMaxPrintHeight,0
;   maxPrintHeight,4.84
;   useDiaphragm,0
;   diaphragmLayerInterval,20
;   robustSlicing,1
;   mergeAllIntoSolid,0
;   onlyRetractWhenCrossingOutline,0
;   retractBetweenLayers,0
;   useRetractionMinTravel,1
;   retractionMinTravel,7
;   retractWhileWiping,1
;   onlyWipeOutlines,1
;   avoidCrossingOutline,0
;   maxMovementDetourFactor,3
;   toolChangeRetractionDistance,12
;   toolChangeExtraRestartDistance,-0.5
;   toolChangeRetractionSpeed,600
;   externalThinWallType,0
;   internalThinWallType,0
;   thinWallAllowedOverlapPercentage,10
;   singleExtrusionMinLength,1
;   singleExtrusionMinPrintingWidthPercentage,50
;   singleExtrusionMaxPrintingWidthPercentage,200
;   singleExtrusionEndpointExtension,0.2
;   horizontalSizeCompensation,0
G90
M83
; **** Replicator 2 start.gcode ****
M73 P0 ; enable build progress
G162 X Y F3000 ; home XY maximum
G161 Z F1200 ; home Z minimum
G92 Z-5 ; set Z to -5
G1 Z0 ; move Z to 0
G28 ; better homing homie
M132 X Y Z A B ; recall home offsets
G1 X-145 Y-75 Z30 F9000 ; move to wait position off table
G130 X20 Y20 Z20 A20 B20 ; lower stepper Vrefs while heating
M126 S170
M140 S65 T0
M134 T0 ; stabilize bed temperature
M104 S230 T0
M133 T0 ; stabilize extruder temperature
G130 X127 Y127 Z40 A127 B127 ; default stepper Vrefs
G92 A0 ; zero extruder
G1 Z0.4 ; position nozzle
G1 E25 F300 ; purge nozzle
G1 X-140 Y-70 Z0.15 F1200 ; slow wipe
G1 X-135 Y-65 Z0.5 F1200 ; lift
G92 A0 ; zero extruder
M73 P1 ;@body (notify GPX body has started)
; **** end of start.gcode ****
; process Process1
; layer 1, Z = 0.200
M135 T0
G1 E-1.9000 F1200
; feature skirt
; tool H0.200 W0.400
G1 Z0.500 F1200
G1 X9.908 Y-0.299 F9000
G1 Z0.200 F1200
G1 E1.9000 F1200
G1 X9.899 Y0.673 E0.0323 F1888
G1 X5.054 Y8.824 E0.3154
G1 X5.054 Y11.077 E0.0749
G1 X3.999 Y12.132 E0.0496
G1 X-6.902 Y12.132 E0.3626
G1 X-7.887 Y11.345 E0.0419
G1 X-9.897 Y2.490 E0.3020
G1 X-9.919 Y2.288 E0.0068
G1 X-9.910 Y-1.948 E0.1409
G1 X-9.889 Y-2.137 E0.0063
G1 X-7.896 Y-11.334 E0.3130
G1 X-6.907 Y-12.132 E0.0423
G1 X3.999 Y-12.132 E0.3627
G1 X5.054 Y-11.077 E0.0496
G1 X5.054 Y-8.807 E0.0755
G1 X9.908 Y-0.299 E0.3258
G1 X9.507 Y-0.195 F9000
G1 X9.500 Y0.561 E0.0251 F1888
G1 X4.654 Y8.715 E0.3155
G1 X4.654 Y10.912 E0.0731
G1 X3.834 Y11.732 E0.0386
G1 X-6.762 Y11.732 E0.3524
G1 X-7.528 Y11.120 E0.0326
G1 X-9.502 Y2.423 E0.2966
G1 X-9.519 Y2.266 E0.0053
G1 X-9.510 Y-1.926 E0.1394
G1 X-9.494 Y-2.073 E0.0049
G1 X-7.535 Y-11.111 E0.3076
G1 X-6.765 Y-11.732 E0.0329
G1 X3.834 Y-11.732 E0.3525
G1 X4.654 Y-10.912 E0.0386
G1 X4.654 Y-8.701 E0.0735
G1 X9.507 Y-0.195 E0.3257
G1 X9.106 Y-0.090 F9000
G1 X9.101 Y0.450 E0.0180 F1888
G1 X4.254 Y8.605 E0.3155
G1 X4.254 Y10.746 E0.0712
G1 X3.668 Y11.332 E0.0276
G1 X-6.621 Y11.332 E0.3422
G1 X-7.169 Y10.895 E0.0233
G1 X-9.107 Y2.357 E0.2912
G1 X-9.119 Y2.244 E0.0038
G1 X-9.110 Y-1.904 E0.1380
G1 X-9.098 Y-2.009 E0.0035
G1 X-7.174 Y-10.889 E0.3022
G1 X-6.624 Y-11.332 E0.0235
G1 X3.668 Y-11.332 E0.3423
G1 X4.254 Y-10.746 E0.0276
G1 X4.254 Y-8.595 E0.0715
G1 X9.106 Y-0.090 E0.3257
G1 X8.705 Y0.014 F9000
G1 X8.702 Y0.338 E0.0108 F1888
G1 X3.854 Y8.495 E0.3156
G1 X3.854 Y10.580 E0.0694
G1 X3.502 Y10.932 E0.0165
G1 X-6.481 Y10.932 E0.3321
G1 X-6.810 Y10.670 E0.0140
G1 X-8.712 Y2.290 E0.2858
G1 X-8.719 Y2.223 E0.0023
G1 X-8.710 Y-1.881 E0.1365
G1 X-8.703 Y-1.945 E0.0021
G1 X-6.813 Y-10.666 E0.2968
G1 X-6.483 Y-10.932 E0.0141
G1 X3.502 Y-10.932 E0.3321
G1 X3.854 Y-10.580 E0.0165
G1 X3.854 Y-8.489 E0.0696
G1 X8.705 Y0.014 E0.3256
G1 X8.304 Y0.119 F9000
G1 X8.303 Y0.227 E0.0036 F1888
G1 X3.454 Y8.385 E0.3157
G1 X3.454 Y10.415 E0.0675
G1 X3.337 Y10.532 E0.0055
G1 X-6.341 Y10.532 E0.3219
G1 X-6.451 Y10.444 E0.0047
G1 X-8.317 Y2.224 E0.2804
G1 X-8.319 Y2.201 E0.0008
G1 X-8.310 Y-1.859 E0.1351
G1 X-8.307 Y-1.880 E0.0007
G1 X-6.452 Y-10.443 E0.2914
G1 X-6.342 Y-10.532 E0.0047
G1 X3.337 Y-10.532 E0.3219
G1 X3.454 Y-10.415 E0.0055
G1 X3.454 Y-8.383 E0.0676
G1 X8.304 Y0.119 E0.3255
; feature inner perimeter
G1 X7.409 Y0.165 F9000
G1 X2.654 Y8.165 E0.3095 F1416
G1 X2.654 Y9.732 E0.0521
G1 X-5.792 Y9.732 E0.2809
G1 X-7.519 Y2.124 E0.2595
G1 X-7.510 Y-1.783 E0.1300
G1 X-5.787 Y-9.732 E0.2705
G1 X2.654 Y-9.732 E0.2808
G1 X2.654 Y-8.171 E0.0519
G1 X7.409 Y0.165 E0.3192
; feature outer perimeter
G1 X7.872 Y0.169 F9000
G1 X3.054 Y8.275 E0.3136 F944
G1 X3.054 Y10.132 E0.0618
G1 X-6.112 Y10.132 E0.3048
G1 X-7.919 Y2.168 E0.2716
G1 X-7.910 Y-1.827 E0.1329
G1 X-6.110 Y-10.132 E0.2826
G1 X3.054 Y-10.132 E0.3048
G1 X3.054 Y-8.277 E0.0617
G1 X7.872 Y0.169 E0.3234
; feature inner perimeter
G1 X6.435 Y0.176 F9000
G1 X2.235 Y-6.575 E0.2644 F1416
G1 X2.235 Y-9.003 E0.0808
G1 X-5.401 Y-9.003 E0.2540
G1 X-5.401 Y9.144 E0.6036
G1 X2.235 Y9.144 E0.2540
G1 X2.235 Y6.720 E0.0806
G1 X6.435 Y0.176 E0.2586
; feature outer perimeter
G1 X5.962 Y0.173 F9000
G1 X1.835 Y-6.461 E0.2598 F944
G1 X1.835 Y-8.603 E0.0713
G1 X-5.001 Y-8.603 E0.2274
G1 X-5.001 Y8.744 E0.5770
G1 X1.835 Y8.744 E0.2274
G1 X1.835 Y6.602 E0.0712
G1 X5.962 Y0.173 E0.2541
G1 E-1.9000 F1200
; feature solid layer
G1 Z0.700 F1200
G1 X2.555 Y7.646 F9000
G1 Z0.200 F1200
G1 E1.9000 F1200
G1 X2.577 Y7.668 E0.0010 F1888
G1 X2.788 Y7.313 E0.0137
G1 X2.555 Y7.080 E0.0110
G1 X2.555 Y6.814 E0.0089
G1 X2.672 Y6.631 E0.0072
G1 X2.999 Y6.959 E0.0154
G1 X3.210 Y6.604 E0.0137
G1 X2.893 Y6.287 E0.0149
G1 X3.114 Y5.942 E0.0136
G1 X3.421 Y6.249 E0.0144
G1 X3.631 Y5.894 E0.0137
G1 X3.335 Y5.598 E0.0139
G1 X3.556 Y5.253 E0.0136
G1 X3.842 Y5.539 E0.0135
G1 X4.053 Y5.185 E0.0137
G1 X3.777 Y4.909 E0.0130
G1 X3.999 Y4.564 E0.0136
G1 X4.264 Y4.830 E0.0125
G1 X4.475 Y4.475 E0.0137
G1 X4.220 Y4.220 E0.0120
G1 X4.441 Y3.875 E0.0136
G1 X4.686 Y4.120 E0.0115
G1 X4.897 Y3.765 E0.0137
G1 X4.662 Y3.531 E0.0110
G1 X4.883 Y3.186 E0.0136
G1 X5.108 Y3.411 E0.0106
G1 X5.319 Y3.056 E0.0137
G1 X5.104 Y2.842 E0.0101
G1 X5.326 Y2.497 E0.0136
G1 X5.529 Y2.701 E0.0096
G1 X5.740 Y2.346 E0.0137
G1 X5.547 Y2.153 E0.0091
G1 X5.768 Y1.808 E0.0136
G1 X5.951 Y1.991 E0.0086
G1 X6.162 Y1.637 E0.0137
G1 X5.989 Y1.463 E0.0081
G1 X6.210 Y1.119 E0.0136
G1 X6.373 Y1.282 E0.0077
G1 X6.584 Y0.927 E0.0137
G1 X6.431 Y0.774 E0.0072
G1 X6.652 Y0.430 E0.0136
G1 X6.795 Y0.572 E0.0067
G1 X7.006 Y0.217 E0.0137
G1 X6.562 Y-0.227 E0.0209
G1 X5.630 Y-1.724 E0.0587
G1 X6.406 Y-0.948 E0.0365
G1 X5.655 Y-2.265 E0.0504
G1 X4.698 Y-3.221 E0.0450
G1 X3.767 Y-4.718 E0.0587
G1 X4.903 Y-3.582 E0.0535
G1 X4.152 Y-4.899 E0.0504
G1 X2.835 Y-6.216 E0.0619
G1 X2.555 Y-6.666 E0.0177
G1 X2.555 Y-7.062 E0.0132
G1 X3.401 Y-6.216 E0.0398
G1 X2.649 Y-7.533 E0.0504
G1 X2.555 Y-7.627 E0.0044
G1 X1.902 Y-9.412 F9000
G1 X1.990 Y-9.323 E0.0042 F1888
G1 X1.425 Y-9.323 E0.0188
G1 X1.336 Y-9.412 E0.0042
G1 X0.771 Y-9.412 E0.0188
G1 X0.859 Y-9.323 E0.0042
G1 X0.293 Y-9.323 E0.0188
G1 X0.205 Y-9.412 E0.0042
G1 X-0.361 Y-9.412 E0.0188
G1 X-0.272 Y-9.323 E0.0042
G1 X-0.838 Y-9.323 E0.0188
G1 X-0.926 Y-9.412 E0.0042
G1 X-1.492 Y-9.412 E0.0188
G1 X-1.404 Y-9.323 E0.0042
G1 X-1.970 Y-9.323 E0.0188
G1 X-2.058 Y-9.412 E0.0042
G1 X-2.623 Y-9.412 E0.0188
G1 X-2.535 Y-9.323 E0.0042
G1 X-3.101 Y-9.323 E0.0188
G1 X-3.189 Y-9.412 E0.0042
G1 X-3.755 Y-9.412 E0.0188
G1 X-3.667 Y-9.323 E0.0042
G1 X-4.232 Y-9.323 E0.0188
G1 X-4.321 Y-9.412 E0.0042
G1 X-4.886 Y-9.412 E0.0188
G1 X-4.798 Y-9.323 E0.0042
G1 X-5.364 Y-9.323 E0.0188
G1 X-5.452 Y-9.412 E0.0042
G1 X-5.818 Y-8.081 F9000
G1 X-5.721 Y-7.984 E0.0045 F1888
G1 X-5.721 Y-7.418 E0.0188
G1 X-5.919 Y-7.616 E0.0093
G1 X-6.019 Y-7.151 E0.0158
G1 X-5.721 Y-6.853 E0.0140
G1 X-5.721 Y-6.287 E0.0188
G1 X-6.120 Y-6.686 E0.0188
G1 X-6.221 Y-6.221 E0.0158
G1 X-5.721 Y-5.721 E0.0235
G1 X-5.721 Y-5.155 E0.0188
G1 X-6.322 Y-5.756 E0.0282
G1 X-6.422 Y-5.291 E0.0158
G1 X-5.721 Y-4.590 E0.0330
G1 X-5.721 Y-4.024 E0.0188
G1 X-6.523 Y-4.826 E0.0377
G1 X-6.624 Y-4.361 E0.0158
G1 X-5.721 Y-3.458 E0.0425
G1 X-5.721 Y-2.893 E0.0188
G1 X-6.725 Y-3.896 E0.0472
G1 X-6.825 Y-3.431 E0.0158
G1 X-5.721 Y-2.327 E0.0519
G1 X-5.721 Y-1.761 E0.0188
G1 X-6.926 Y-2.966 E0.0567
G1 X-7.027 Y-2.501 E0.0158
G1 X-5.721 Y-1.196 E0.0614
G1 X-5.721 Y-0.630 E0.0188
G1 X-7.128 Y-2.036 E0.0662
G1 X-7.190 Y-1.749 E0.0098
G1 X-7.190 Y-1.534 E0.0072
G1 X-5.721 Y-0.064 E0.0691
G1 X-5.721 Y0.501 E0.0188
G1 X-7.192 Y-0.969 E0.0692
G1 X-7.193 Y-0.405 E0.0188
G1 X-5.721 Y1.067 E0.0692
G1 X-5.721 Y1.633 E0.0188
G1 X-7.194 Y0.159 E0.0693
G1 X-7.196 Y0.724 E0.0188
G1 X-5.721 Y2.198 E0.0694
G1 X-5.721 Y2.764 E0.0188
G1 X-7.197 Y1.288 E0.0694
G1 X-7.198 Y1.853 E0.0188
G1 X-5.721 Y3.330 E0.0695
G1 X-5.721 Y3.896 E0.0188
G1 X-7.102 Y2.514 E0.0650
G1 X-6.936 Y3.246 E0.0250
G1 X-5.721 Y4.461 E0.0571
G1 X-5.721 Y5.027 E0.0188
G1 X-6.770 Y3.978 E0.0493
G1 X-6.604 Y4.710 E0.0250
G1 X-5.721 Y5.593 E0.0415
G1 X-5.721 Y6.158 E0.0188
G1 X-6.438 Y5.442 E0.0337
G1 X-6.272 Y6.173 E0.0250
G1 X-5.721 Y6.724 E0.0259
G1 X-5.721 Y7.290 E0.0188
G1 X-6.106 Y6.905 E0.0181
G1 X-5.939 Y7.637 E0.0250
G1 X-5.721 Y7.855 E0.0103
G1 X-5.721 Y8.421 E0.0188
G1 X-5.773 Y8.369 E0.0025
G1 E-1.9000 F1200
; layer 2, Z = 0.400
M126 S255
; feature inner perimeter
G1 Z0.700 F1200
G1 X7.409 Y0.165 F9000
G1 Z0.400 F1200
G1 E1.9000 F1200
G1 X2.654 Y8.165 E0.3095 F1419
G1 X2.654 Y9.732 E0.0521
G1 X-5.792 Y9.732 E0.2809
G1 X-7.519 Y2.124 E0.2595
G1 X-7.510 Y-1.783 E0.1300
G1 X-5.787 Y-9.732 E0.2705
G1 X2.654 Y-9.732 E0.2808
G1 X2.654 Y-8.171 E0.0519
G1 X7.409 Y0.165 E0.3192
; feature outer perimeter
G1 X7.872 Y0.169 F9000
G1 X3.054 Y8.275 E0.3136 F946
G1 X3.054 Y10.132 E0.0618
G1 X-6.112 Y10.132 E0.3048
G1 X-7.919 Y2.168 E0.2716
G1 X-7.910 Y-1.827 E0.1329
G1 X-6.110 Y-10.132 E0.2826
G1 X3.054 Y-10.132 E0.3048
G1 X3.054 Y-8.277 E0.0617
G1 X7.872 Y0.169 E0.3234
; feature inner perimeter
G1 X6.435 Y0.176 F9000
G1 X2.235 Y-6.575 E0.2644 F1419
G1 X2.235 Y-9.003 E0.0808
G1 X-5.401 Y-9.003 E0.2540
G1 X-5.401 Y9.144 E0.6036
G1 X2.235 Y9.144 E0.2540
G1 X2.235 Y6.720 E0.0806
G1 X6.435 Y0.176 E0.2586
; feature outer perimeter
G1 X5.962 Y0.173 F9000
G1 X1.835 Y-6.461 E0.2598 F946
G1 X1.835 Y-8.603 E0.0713
G1 X-5.001 Y-8.603 E0.2274
G1 X-5.001 Y8.744 E0.5770
G1 X1.835 Y8.744 E0.2274
G1 X1.835 Y6.602 E0.0712
G1 X5.962 Y0.173 E0.2541
G1 E-1.9000 F1200
; feature solid layer
G1 Z0.900 F1200
G1 X2.555 Y7.628 F9000
G1 Z0.400 F1200
G1 E1.9000 F1200
G1 X2.669 Y7.514 E0.0054 F1892
