; G-Code generated by Simplify3D(R) Version 4.1.2
; Jun 26, 2020 at 12:30:24 PM
; Settings Summary
;   processName,Process1
;   applyToModels,mechanic signV2R2,mechanic signV2R2(2)
;   profileName,MakerBot Replicator 2 HBP (modified)
;   profileVersion,2020-04-21 14:45:34
;   baseProfile,MakerBot Replicator 2(2)
;   printMaterial,PLA
;   printQuality,Medium
;   printExtruders,
;   extruderName,Primary Extruder
;   extruderToolheadNumber,0
;   extruderDiameter,0.4
;   extruderAutoWidth,0
;   extruderWidth,0.4
;   extrusionMultiplier,1
;   extruderUseRetract,1
;   extruderRetractionDistance,1.9
;   extruderExtraRestartDistance,0
;   extruderRetractionZLift,0.5
;   extruderRetractionSpeed,1200
;   extruderUseCoasting,0
;   extruderCoastingDistance,0.2
;   extruderUseWipe,0
;   extruderWipeDistance,5
;   primaryExtruder,0
;   layerHeight,0.2
;   topSolidLayers,4
;   bottomSolidLayers,3
;   perimeterOutlines,2
;   printPerimetersInsideOut,1
;   startPointOption,3
;   startPointOriginX,140
;   startPointOriginY,0
;   sequentialIslands,0
;   spiralVaseMode,0
;   firstLayerHeightPercentage,100
;   firstLayerWidthPercentage,100
;   firstLayerUnderspeed,0.5
;   useRaft,0
;   raftExtruder,0
;   raftTopLayers,2
;   raftBaseLayers,1
;   raftOffset,1
;   raftSeparationDistance,0.14
;   raftTopInfill,90
;   aboveRaftSpeedMultiplier,0.3
;   useSkirt,0
;   skirtExtruder,0
;   skirtLayers,1
;   skirtOutlines,5
;   skirtOffset,0
;   usePrimePillar,0
;   primePillarExtruder,999
;   primePillarWidth,12
;   primePillarLocation,7
;   primePillarSpeedMultiplier,1
;   useOozeShield,0
;   oozeShieldExtruder,999
;   oozeShieldOffset,2
;   oozeShieldOutlines,1
;   oozeShieldSidewallShape,1
;   oozeShieldSidewallAngle,30
;   oozeShieldSpeedMultiplier,1
;   infillExtruder,0
;   internalInfillPattern,Rectilinear
;   externalInfillPattern,Rectilinear
;   infillPercentage,15
;   outlineOverlapPercentage,20
;   infillExtrusionWidthPercentage,100
;   minInfillLength,5
;   infillLayerInterval,1
;   internalInfillAngles,45,-45
;   overlapInternalInfillAngles,0
;   externalInfillAngles,45,-45
;   generateSupport,1
;   supportExtruder,0
;   supportInfillPercentage,30
;   supportExtraInflation,0.6
;   supportBaseLayers,0
;   denseSupportExtruder,0
;   denseSupportLayers,2
;   denseSupportInfillPercentage,70
;   supportLayerInterval,1
;   supportHorizontalPartOffset,0.3
;   supportUpperSeparationLayers,1
;   supportLowerSeparationLayers,1
;   supportType,0
;   supportGridSpacing,99
;   maxOverhangAngle,45
;   supportAngles,0
;   temperatureName,Primary Extruder,Heated Build Platform
;   temperatureNumber,0,0
;   temperatureSetpointCount,1,1
;   temperatureSetpointLayers,1,1
;   temperatureSetpointTemperatures,210,65
;   temperatureStabilizeAtStartup,1,1
;   temperatureHeatedBed,0,1
;   fanLayers,1,2
;   fanSpeeds,0,100
;   blipFanToFullPower,1
;   adjustSpeedForCooling,1
;   minSpeedLayerTime,15
;   minCoolingSpeedSlowdown,20
;   increaseFanForCooling,1
;   minFanLayerTime,45
;   maxCoolingFanSpeed,100
;   increaseFanForBridging,1
;   bridgingFanSpeed,100
;   use5D,1
;   relativeEdistances,1
;   allowEaxisZeroing,0
;   independentExtruderAxes,1
;   includeM10123,0
;   stickySupport,1
;   applyToolheadOffsets,0
;   gcodeXoffset,0
;   gcodeYoffset,0
;   gcodeZoffset,0
;   overrideMachineDefinition,1
;   machineTypeOverride,0
;   strokeXoverride,280
;   strokeYoverride,150
;   strokeZoverride,150
;   originOffsetXoverride,140
;   originOffsetYoverride,75
;   originOffsetZoverride,0
;   homeXdirOverride,1
;   homeYdirOverride,1
;   homeZdirOverride,-1
;   flipXoverride,1
;   flipYoverride,-1
;   flipZoverride,1
;   toolheadOffsets,0,0|0,0|0,0|0,0|0,0|0,0
;   overrideFirmwareConfiguration,1
;   firmwareTypeOverride,MakerBot/Sailfish Firmware
;   GPXconfigOverride,r2h
;   baudRateOverride,115200
;   overridePrinterModels,1
;   printerModelsOverride,MakerBot_Replicator2.stl
;   startingGcode,; **** Replicator 2 start.gcode ****,M73 P0 ; enable build progress,G162 X Y F3000 ; home XY maximum,G161 Z F1200 ; home Z minimum,G92 Z-5 ; set Z to -5,G1 Z0 ; move Z to 0,G28 ; better homing homie,M132 X Y Z A B ; recall home offsets,G1 X-145 Y-75 Z30 F9000 ; move to wait position off table,G130 X20 Y20 Z20 A20 B20 ; lower stepper Vrefs while heating,M126 S[fan_speed_pwm],M140 S[bed0_temperature] T0,M134 T0 ; stabilize bed temperature,M104 S[extruder0_temperature] T0,M133 T0 ; stabilize extruder temperature,G130 X127 Y127 Z40 A127 B127 ; default stepper Vrefs,G92 A0 ; zero extruder,G1 Z0.4 ; position nozzle,G1 E25 F300 ; purge nozzle,G1 X-140 Y-70 Z0.15 F1200 ; slow wipe,G1 X-135 Y-65 Z0.5 F1200 ; lift,G92 A0 ; zero extruder,M73 P1 ;@body (notify GPX body has started),; **** end of start.gcode ****
;   layerChangeGcode,
;   retractionGcode,
;   toolChangeGcode,
;   endingGcode,; **** Replicator 2 end.gcode ****,M73 P100 ; end build progress,G1 Z155 F1000 ; send Z axis to bottom of machine,M104 S0 T0 ; cool down extruder,M140 S0 T0 ; cool down HBP,M127 ; stop blower fan,G162 X Y F3000 ; home XY maximum,M18 ; disable stepper,M0 ; stop codes,M72 P1 ; play Ta-Da song,; **** end of end.gcode ****
;   exportFileFormat,gcode
;   celebration,0
;   celebrationSong,Random Song
;   postProcessing,
;   defaultSpeed,4800
;   outlineUnderspeed,0.5
;   solidInfillUnderspeed,1
;   supportUnderspeed,1
;   rapidXYspeed,9000
;   rapidZspeed,1200
;   minBridgingArea,50
;   bridgingExtraInflation,0
;   bridgingExtrusionMultiplier,1
;   bridgingSpeedMultiplier,0.8
;   useFixedBridgingAngle,0
;   fixedBridgingAngle,0
;   applyBridgingToPerimeters,0
;   filamentDiameters,1.75|1.75|1.75|1.75|1.75|1.75
;   filamentPricesPerKg,46|46|46|46|46|46
;   filamentDensities,1.25|1.25|1.25|1.25|1.25|1.25
;   useMinPrintHeight,0
;   minPrintHeight,0
;   useMaxPrintHeight,0
;   maxPrintHeight,4.84
;   useDiaphragm,0
;   diaphragmLayerInterval,20
;   robustSlicing,1
;   mergeAllIntoSolid,0
;   onlyRetractWhenCrossingOutline,0
;   retractBetweenLayers,0
;   useRetractionMinTravel,1
;   retractionMinTravel,7
;   retractWhileWiping,1
;   onlyWipeOutlines,1
;   avoidCrossingOutline,0
;   maxMovementDetourFactor,3
;   toolChangeRetractionDistance,12
;   toolChangeExtraRestartDistance,-0.5
;   toolChangeRetractionSpeed,600
;   externalThinWallType,0
;   internalThinWallType,0
;   thinWallAllowedOverlapPercentage,10
;   singleExtrusionMinLength,1
;   singleExtrusionMinPrintingWidthPercentage,50
;   singleExtrusionMaxPrintingWidthPercentage,200
;   singleExtrusionEndpointExtension,0.2
;   horizontalSizeCompensation,0
G90
M83
; **** Replicator 2 start.gcode ****
M73 P0 ; enable build progress
G162 X Y F3000 ; home XY maximum
G161 Z F1200 ; home Z minimum
G92 Z-5 ; set Z to -5
G1 Z0 ; move Z to 0
G28 ; better homing homie
M132 X Y Z A B ; recall home offsets
G1 X-145 Y-75 Z30 F9000 ; move to wait position off table
G130 X20 Y20 Z20 A20 B20 ; lower stepper Vrefs while heating
M127
M140 S65 T0
M134 T0 ; stabilize bed temperature
M104 S210 T0
M133 T0 ; stabilize extruder temperature
G130 X127 Y127 Z40 A127 B127 ; default stepper Vrefs
G92 A0 ; zero extruder
G1 Z0.4 ; position nozzle
G1 E25 F300 ; purge nozzle
G1 X-140 Y-70 Z0.15 F1200 ; slow wipe
G1 X-135 Y-65 Z0.5 F1200 ; lift
G92 A0 ; zero extruder
M73 P1 ;@body (notify GPX body has started)
; **** end of start.gcode ****
; process Process1
; layer 1, Z = 0.200
M135 T0
G1 E-1.9000 F1200
; feature inner perimeter
; tool H0.200 W0.400
G1 Z0.500 F1200
G1 X-3.100 Y-6.401 F9000
G1 Z0.200 F1200
G1 E1.9000 F1200
G1 X-3.100 Y6.401 E0.4258 F1800
G1 X-14.056 Y6.401 E0.3644
G1 X-14.056 Y12.400 E0.1995
G1 X-33.856 Y12.400 E0.6586
G1 X-33.856 Y-12.400 E0.8249
G1 X-14.056 Y-12.400 E0.6586
G1 X-14.056 Y-6.401 E0.1995
G1 X-3.100 Y-6.401 E0.3644
; feature outer perimeter
G1 X-2.700 Y-6.801 F9000
G1 X-2.700 Y6.801 E0.4524 F1200
G1 X-13.656 Y6.801 E0.3644
G1 X-13.656 Y12.800 E0.1995
G1 X-34.256 Y12.800 E0.6852
G1 X-34.256 Y-12.800 E0.8515
G1 X-13.656 Y-12.800 E0.6852
G1 X-13.656 Y-6.801 E0.1995
G1 X-2.700 Y-6.801 E0.3644
; feature solid layer
G1 X-3.818 Y-6.081 F9000
G1 X-3.420 Y-5.683 E0.0187 F2400
G1 X-3.420 Y-5.117 E0.0188
G1 X-4.384 Y-6.081 E0.0453
G1 X-4.949 Y-6.081 E0.0188
G1 X-3.420 Y-4.551 E0.0719
G1 X-3.420 Y-3.986 E0.0188
G1 X-5.515 Y-6.081 E0.0985
G1 X-6.081 Y-6.081 E0.0188
G1 X-3.420 Y-3.420 E0.1251
G1 X-3.420 Y-2.854 E0.0188
G1 X-6.646 Y-6.081 E0.1518
G1 X-7.212 Y-6.081 E0.0188
G1 X-3.420 Y-2.289 E0.1784
G1 X-3.420 Y-1.723 E0.0188
G1 X-7.778 Y-6.081 E0.2050
G1 X-8.343 Y-6.081 E0.0188
G1 X-3.420 Y-1.157 E0.2316
G1 X-3.420 Y-0.592 E0.0188
G1 X-8.909 Y-6.081 E0.2582
G1 X-9.475 Y-6.081 E0.0188
G1 X-3.420 Y-0.026 E0.2848
G1 X-3.420 Y0.540 E0.0188
G1 X-10.040 Y-6.081 E0.3114
G1 X-10.606 Y-6.081 E0.0188
G1 X-3.420 Y1.105 E0.3380
G1 X-3.420 Y1.671 E0.0188
G1 X-11.172 Y-6.081 E0.3646
G1 X-11.737 Y-6.081 E0.0188
G1 X-3.420 Y2.237 E0.3912
G1 X-3.420 Y2.803 E0.0188
G1 X-12.303 Y-6.081 E0.4178
G1 X-12.869 Y-6.081 E0.0188
G1 X-3.420 Y3.368 E0.4444
G1 X-3.420 Y3.934 E0.0188
G1 X-13.435 Y-6.081 E0.4711
G1 X-14.000 Y-6.081 E0.0188
G1 X-3.420 Y4.500 E0.4977
G1 X-3.420 Y5.065 E0.0188
G1 X-20.565 Y-12.080 E0.8065
G1 X-20.000 Y-12.080 E0.0188
G1 X-14.376 Y-6.457 E0.2645
G1 X-14.376 Y-7.022 E0.0188
G1 X-19.434 Y-12.080 E0.2379
G1 X-18.868 Y-12.080 E0.0188
G1 X-14.376 Y-7.588 E0.2113
G1 X-14.376 Y-8.154 E0.0188
G1 X-18.303 Y-12.080 E0.1847
G1 X-17.737 Y-12.080 E0.0188
G1 X-14.376 Y-8.719 E0.1581
G1 X-14.376 Y-9.285 E0.0188
G1 X-17.171 Y-12.080 E0.1315
G1 X-16.605 Y-12.080 E0.0188
G1 X-14.376 Y-9.851 E0.1049
G1 X-14.376 Y-10.416 E0.0188
G1 X-16.040 Y-12.080 E0.0782
G1 X-15.474 Y-12.080 E0.0188
G1 X-14.376 Y-10.982 E0.0516
G1 X-14.376 Y-11.548 E0.0188
G1 X-14.908 Y-12.080 E0.0250
G1 X-21.131 Y-12.080 F9000
G1 X-3.420 Y5.631 E0.8331 F2400
G1 X-3.420 Y6.081 E0.0150
G1 X-3.536 Y6.081 E0.0039
G1 X-21.697 Y-12.080 E0.8542
G1 X-22.262 Y-12.080 E0.0188
G1 X-4.102 Y6.081 E0.8542
G1 X-4.667 Y6.081 E0.0188
G1 X-22.828 Y-12.080 E0.8542
G1 X-23.394 Y-12.080 E0.0188
G1 X-5.233 Y6.081 E0.8542
G1 X-5.799 Y6.081 E0.0188
G1 X-23.959 Y-12.080 E0.8542
G1 X-24.525 Y-12.080 E0.0188
G1 X-6.364 Y6.081 E0.8542
G1 X-6.930 Y6.081 E0.0188
G1 X-25.091 Y-12.080 E0.8542
G1 X-25.656 Y-12.080 E0.0188
G1 X-7.496 Y6.081 E0.8542
G1 X-8.061 Y6.081 E0.0188
G1 X-26.222 Y-12.080 E0.8542
G1 X-26.788 Y-12.080 E0.0188
G1 X-8.627 Y6.081 E0.8542
G1 X-9.193 Y6.081 E0.0188
G1 X-27.353 Y-12.080 E0.8542
G1 X-27.919 Y-12.080 E0.0188
G1 X-9.759 Y6.081 E0.8542
G1 X-10.324 Y6.081 E0.0188
G1 X-28.485 Y-12.080 E0.8542
G1 X-29.051 Y-12.080 E0.0188
G1 X-10.890 Y6.081 E0.8542
G1 X-11.456 Y6.081 E0.0188
G1 X-29.616 Y-12.080 E0.8542
G1 X-30.182 Y-12.080 E0.0188
G1 X-12.021 Y6.081 E0.8542
G1 X-12.587 Y6.081 E0.0188
G1 X-30.748 Y-12.080 E0.8542
G1 X-31.313 Y-12.080 E0.0188
G1 X-13.153 Y6.081 E0.8542
G1 X-13.718 Y6.081 E0.0188
G1 X-31.879 Y-12.080 E0.8542
G1 X-32.445 Y-12.080 E0.0188
G1 X-14.284 Y6.081 E0.8542
G1 X-14.376 Y6.081 E0.0031
G1 X-14.376 Y6.554 E0.0157
G1 X-33.010 Y-12.080 E0.8765
G1 X-33.536 Y-12.080 E0.0175
G1 X-33.536 Y-12.040 E0.0013
G1 X-14.376 Y7.120 E0.9012
G1 X-14.376 Y7.685 E0.0188
G1 X-33.536 Y-11.475 E0.9012
G1 X-33.536 Y-10.909 E0.0188
G1 X-14.376 Y8.251 E0.9012
G1 X-14.376 Y8.817 E0.0188
G1 X-33.536 Y-10.343 E0.9012
G1 X-33.536 Y-9.777 E0.0188
G1 X-14.376 Y9.383 E0.9012
G1 X-14.376 Y9.948 E0.0188
G1 X-33.536 Y-9.212 E0.9012
G1 X-33.536 Y-8.646 E0.0188
G1 X-14.376 Y10.514 E0.9012
G1 X-14.376 Y11.080 E0.0188
G1 X-33.536 Y-8.080 E0.9012
G1 X-33.536 Y-7.515 E0.0188
G1 X-14.376 Y11.645 E0.9012
G1 X-14.376 Y12.080 E0.0145
G1 X-14.507 Y12.080 E0.0044
G1 X-33.536 Y-6.949 E0.8951
G1 X-33.536 Y-6.383 E0.0188
G1 X-15.073 Y12.080 E0.8685
G1 X-15.639 Y12.080 E0.0188
G1 X-33.536 Y-5.818 E0.8419
G1 X-33.536 Y-5.252 E0.0188
G1 X-16.204 Y12.080 E0.8152
G1 X-16.770 Y12.080 E0.0188
G1 X-33.536 Y-4.686 E0.7886
G1 X-33.536 Y-4.121 E0.0188
G1 X-17.336 Y12.080 E0.7620
G1 X-17.901 Y12.080 E0.0188
G1 X-33.536 Y-3.555 E0.7354
G1 X-33.536 Y-2.989 E0.0188
G1 X-18.467 Y12.080 E0.7088
G1 X-19.033 Y12.080 E0.0188
G1 X-33.536 Y-2.424 E0.6822
G1 X-33.536 Y-1.858 E0.0188
G1 X-19.598 Y12.080 E0.6556
G1 X-20.164 Y12.080 E0.0188
G1 X-33.536 Y-1.292 E0.6290
G1 X-33.536 Y-0.727 E0.0188
G1 X-20.730 Y12.080 E0.6024
G1 X-21.295 Y12.080 E0.0188
G1 X-33.536 Y-0.161 E0.5758
G1 X-33.536 Y0.405 E0.0188
G1 X-21.861 Y12.080 E0.5492
G1 X-22.427 Y12.080 E0.0188
G1 X-33.536 Y0.971 E0.5226
G1 X-33.536 Y1.536 E0.0188
G1 X-22.992 Y12.080 E0.4959
G1 X-23.558 Y12.080 E0.0188
G1 X-33.536 Y2.102 E0.4693
G1 X-33.536 Y2.668 E0.0188
G1 X-24.124 Y12.080 E0.4427
G1 X-24.690 Y12.080 E0.0188
G1 X-33.536 Y3.233 E0.4161
G1 X-33.536 Y3.799 E0.0188
G1 X-25.255 Y12.080 E0.3895
G1 X-25.821 Y12.080 E0.0188
G1 X-33.536 Y4.365 E0.3629
G1 X-33.536 Y4.930 E0.0188
G1 X-26.387 Y12.080 E0.3363
G1 X-26.952 Y12.080 E0.0188
G1 X-33.536 Y5.496 E0.3097
G1 X-33.536 Y6.062 E0.0188
G1 X-27.518 Y12.080 E0.2831
G1 X-28.084 Y12.080 E0.0188
G1 X-33.536 Y6.627 E0.2565
G1 X-33.536 Y7.193 E0.0188
G1 X-28.649 Y12.080 E0.2299
G1 X-29.215 Y12.080 E0.0188
G1 X-33.536 Y7.759 E0.2033
G1 X-33.536 Y8.324 E0.0188
G1 X-29.781 Y12.080 E0.1767
G1 X-30.346 Y12.080 E0.0188
G1 X-33.536 Y8.890 E0.1500
G1 X-33.536 Y9.456 E0.0188
G1 X-30.912 Y12.080 E0.1234
G1 X-31.478 Y12.080 E0.0188
G1 X-33.536 Y10.021 E0.0968
G1 X-33.536 Y10.587 E0.0188
G1 X-32.043 Y12.080 E0.0702
G1 X-32.609 Y12.080 E0.0188
G1 X-33.536 Y11.153 E0.0436
G1 X-33.536 Y11.719 E0.0188
G1 X-33.175 Y12.080 E0.0170
G1 E-1.9000 F1200
; feature inner perimeter
G1 Z0.700 F1200
G1 X33.856 Y-6.401 F9000
G1 Z0.200 F1200
G1 E1.9000 F1200
G1 X33.856 Y6.401 E0.4258 F1800
G1 X22.900 Y6.401 E0.3644
G1 X22.900 Y12.400 E0.1995
G1 X3.100 Y12.400 E0.6586
G1 X3.100 Y-12.400 E0.8249
G1 X22.900 Y-12.400 E0.6586
G1 X22.900 Y-6.401 E0.1995
G1 X33.856 Y-6.401 E0.3644
; feature outer perimeter
G1 X34.256 Y-6.801 F9000
G1 X34.256 Y6.801 E0.4524 F1200
G1 X23.300 Y6.801 E0.3644
G1 X23.300 Y12.800 E0.1995
G1 X2.700 Y12.800 E0.6852
G1 X2.700 Y-12.800 E0.8515
G1 X23.300 Y-12.800 E0.6852
G1 X23.300 Y-6.801 E0.1995
G1 X34.256 Y-6.801 E0.3644
; feature solid layer
G1 X33.517 Y-6.081 F9000
G1 X33.536 Y-6.062 E0.0009 F2400
G1 X33.536 Y-5.496 E0.0188
G1 X32.952 Y-6.081 E0.0275
G1 X32.386 Y-6.081 E0.0188
G1 X33.536 Y-4.930 E0.0541
G1 X33.536 Y-4.365 E0.0188
G1 X31.820 Y-6.081 E0.0807
G1 X31.255 Y-6.081 E0.0188
G1 X33.536 Y-3.799 E0.1073
G1 X33.536 Y-3.233 E0.0188
G1 X30.689 Y-6.081 E0.1339
G1 X30.123 Y-6.081 E0.0188
G1 X33.536 Y-2.668 E0.1605
G1 X33.536 Y-2.102 E0.0188
G1 X29.558 Y-6.081 E0.1871
G1 X28.992 Y-6.081 E0.0188
G1 X33.536 Y-1.536 E0.2138
G1 X33.536 Y-0.971 E0.0188
G1 X28.426 Y-6.081 E0.2404
G1 X27.861 Y-6.081 E0.0188
G1 X33.536 Y-0.405 E0.2670
G1 X33.536 Y0.161 E0.0188
G1 X27.295 Y-6.081 E0.2936
G1 X26.729 Y-6.081 E0.0188
G1 X33.536 Y0.727 E0.3202
G1 X33.536 Y1.292 E0.0188
G1 X26.163 Y-6.081 E0.3468
G1 X25.598 Y-6.081 E0.0188
G1 X33.536 Y1.858 E0.3734
G1 X33.536 Y2.424 E0.0188
G1 X25.032 Y-6.081 E0.4000
G1 X24.466 Y-6.081 E0.0188
G1 X33.536 Y2.989 E0.4266
G1 X33.536 Y3.555 E0.0188
G1 X23.901 Y-6.081 E0.4532
G1 X23.335 Y-6.081 E0.0188
G1 X33.536 Y4.121 E0.4798
G1 X33.536 Y4.686 E0.0188
G1 X22.769 Y-6.081 E0.5064
G1 X22.580 Y-6.081 E0.0063
G1 X22.580 Y-6.270 E0.0063
G1 X16.770 Y-12.080 E0.2733
G1 X17.336 Y-12.080 E0.0188
G1 X22.580 Y-6.836 E0.2467
G1 X22.580 Y-7.401 E0.0188
G1 X17.901 Y-12.080 E0.2201
G1 X18.467 Y-12.080 E0.0188
G1 X22.580 Y-7.967 E0.1935
G1 X22.580 Y-8.533 E0.0188
G1 X19.033 Y-12.080 E0.1669
G1 X19.598 Y-12.080 E0.0188
G1 X22.580 Y-9.098 E0.1402
G1 X22.580 Y-9.664 E0.0188
G1 X20.164 Y-12.080 E0.1136
G1 X20.730 Y-12.080 E0.0188
G1 X22.580 Y-10.230 E0.0870
G1 X22.580 Y-10.795 E0.0188
G1 X21.295 Y-12.080 E0.0604
G1 X21.861 Y-12.080 E0.0188
G1 X22.580 Y-11.361 E0.0338
G1 X22.580 Y-11.927 E0.0188
G1 X22.427 Y-12.080 E0.0072
G1 X16.204 Y-12.080 F9000
G1 X33.536 Y5.252 E0.8152 F2400
G1 X33.536 Y5.818 E0.0188
G1 X15.639 Y-12.080 E0.8419
G1 X15.073 Y-12.080 E0.0188
G1 X33.234 Y6.081 E0.8542
G1 X32.668 Y6.081 E0.0188
G1 X14.507 Y-12.080 E0.8542
G1 X13.942 Y-12.080 E0.0188
