; G-Code generated by Simplify3D(R) Version 4.1.2
; Jun 26, 2020 at 12:30:35 PM
; Settings Summary
;   processName,Process1
;   applyToModels,mechanic signV2R2,mechanic signV2R2(2),mechanic signV2R2(3),mechanic signV2R2(2)(2)
;   profileName,MakerBot Replicator 2 HBP (modified)
;   profileVersion,2020-04-21 14:45:34
;   baseProfile,MakerBot Replicator 2(2)
;   printMaterial,PLA
;   printQuality,Medium
;   printExtruders,
;   extruderName,Primary Extruder
;   extruderToolheadNumber,0
;   extruderDiameter,0.4
;   extruderAutoWidth,0
;   extruderWidth,0.4
;   extrusionMultiplier,1
;   extruderUseRetract,1
;   extruderRetractionDistance,1.9
;   extruderExtraRestartDistance,0
;   extruderRetractionZLift,0.5
;   extruderRetractionSpeed,1200
;   extruderUseCoasting,0
;   extruderCoastingDistance,0.2
;   extruderUseWipe,0
;   extruderWipeDistance,5
;   primaryExtruder,0
;   layerHeight,0.2
;   topSolidLayers,4
;   bottomSolidLayers,3
;   perimeterOutlines,2
;   printPerimetersInsideOut,1
;   startPointOption,3
;   startPointOriginX,140
;   startPointOriginY,0
;   sequentialIslands,0
;   spiralVaseMode,0
;   firstLayerHeightPercentage,100
;   firstLayerWidthPercentage,100
;   firstLayerUnderspeed,0.5
;   useRaft,0
;   raftExtruder,0
;   raftTopLayers,2
;   raftBaseLayers,1
;   raftOffset,1
;   raftSeparationDistance,0.14
;   raftTopInfill,90
;   aboveRaftSpeedMultiplier,0.3
;   useSkirt,0
;   skirtExtruder,0
;   skirtLayers,1
;   skirtOutlines,5
;   skirtOffset,0
;   usePrimePillar,0
;   primePillarExtruder,999
;   primePillarWidth,12
;   primePillarLocation,7
;   primePillarSpeedMultiplier,1
;   useOozeShield,0
;   oozeShieldExtruder,999
;   oozeShieldOffset,2
;   oozeShieldOutlines,1
;   oozeShieldSidewallShape,1
;   oozeShieldSidewallAngle,30
;   oozeShieldSpeedMultiplier,1
;   infillExtruder,0
;   internalInfillPattern,Rectilinear
;   externalInfillPattern,Rectilinear
;   infillPercentage,15
;   outlineOverlapPercentage,20
;   infillExtrusionWidthPercentage,100
;   minInfillLength,5
;   infillLayerInterval,1
;   internalInfillAngles,45,-45
;   overlapInternalInfillAngles,0
;   externalInfillAngles,45,-45
;   generateSupport,1
;   supportExtruder,0
;   supportInfillPercentage,30
;   supportExtraInflation,0.6
;   supportBaseLayers,0
;   denseSupportExtruder,0
;   denseSupportLayers,2
;   denseSupportInfillPercentage,70
;   supportLayerInterval,1
;   supportHorizontalPartOffset,0.3
;   supportUpperSeparationLayers,1
;   supportLowerSeparationLayers,1
;   supportType,0
;   supportGridSpacing,99
;   maxOverhangAngle,45
;   supportAngles,0
;   temperatureName,Primary Extruder,Heated Build Platform
;   temperatureNumber,0,0
;   temperatureSetpointCount,1,1
;   temperatureSetpointLayers,1,1
;   temperatureSetpointTemperatures,210,65
;   temperatureStabilizeAtStartup,1,1
;   temperatureHeatedBed,0,1
;   fanLayers,1,2
;   fanSpeeds,0,100
;   blipFanToFullPower,1
;   adjustSpeedForCooling,1
;   minSpeedLayerTime,15
;   minCoolingSpeedSlowdown,20
;   increaseFanForCooling,1
;   minFanLayerTime,45
;   maxCoolingFanSpeed,100
;   increaseFanForBridging,1
;   bridgingFanSpeed,100
;   use5D,1
;   relativeEdistances,1
;   allowEaxisZeroing,0
;   independentExtruderAxes,1
;   includeM10123,0
;   stickySupport,1
;   applyToolheadOffsets,0
;   gcodeXoffset,0
;   gcodeYoffset,0
;   gcodeZoffset,0
;   overrideMachineDefinition,1
;   machineTypeOverride,0
;   strokeXoverride,280
;   strokeYoverride,150
;   strokeZoverride,150
;   originOffsetXoverride,140
;   originOffsetYoverride,75
;   originOffsetZoverride,0
;   homeXdirOverride,1
;   homeYdirOverride,1
;   homeZdirOverride,-1
;   flipXoverride,1
;   flipYoverride,-1
;   flipZoverride,1
;   toolheadOffsets,0,0|0,0|0,0|0,0|0,0|0,0
;   overrideFirmwareConfiguration,1
;   firmwareTypeOverride,MakerBot/Sailfish Firmware
;   GPXconfigOverride,r2h
;   baudRateOverride,115200
;   overridePrinterModels,1
;   printerModelsOverride,MakerBot_Replicator2.stl
;   startingGcode,; **** Replicator 2 start.gcode ****,M73 P0 ; enable build progress,G162 X Y F3000 ; home XY maximum,G161 Z F1200 ; home Z minimum,G92 Z-5 ; set Z to -5,G1 Z0 ; move Z to 0,G28 ; better homing homie,M132 X Y Z A B ; recall home offsets,G1 X-145 Y-75 Z30 F9000 ; move to wait position off table,G130 X20 Y20 Z20 A20 B20 ; lower stepper Vrefs while heating,M126 S[fan_speed_pwm],M140 S[bed0_temperature] T0,M134 T0 ; stabilize bed temperature,M104 S[extruder0_temperature] T0,M133 T0 ; stabilize extruder temperature,G130 X127 Y127 Z40 A127 B127 ; default stepper Vrefs,G92 A0 ; zero extruder,G1 Z0.4 ; position nozzle,G1 E25 F300 ; purge nozzle,G1 X-140 Y-70 Z0.15 F1200 ; slow wipe,G1 X-135 Y-65 Z0.5 F1200 ; lift,G92 A0 ; zero extruder,M73 P1 ;@body (notify GPX body has started),; **** end of start.gcode ****
;   layerChangeGcode,
;   retractionGcode,
;   toolChangeGcode,
;   endingGcode,; **** Replicator 2 end.gcode ****,M73 P100 ; end build progress,G1 Z155 F1000 ; send Z axis to bottom of machine,M104 S0 T0 ; cool down extruder,M140 S0 T0 ; cool down HBP,M127 ; stop blower fan,G162 X Y F3000 ; home XY maximum,M18 ; disable stepper,M0 ; stop codes,M72 P1 ; play Ta-Da song,; **** end of end.gcode ****
;   exportFileFormat,gcode
;   celebration,0
;   celebrationSong,Random Song
;   postProcessing,
;   defaultSpeed,4800
;   outlineUnderspeed,0.5
;   solidInfillUnderspeed,1
;   supportUnderspeed,1
;   rapidXYspeed,9000
;   rapidZspeed,1200
;   minBridgingArea,50
;   bridgingExtraInflation,0
;   bridgingExtrusionMultiplier,1
;   bridgingSpeedMultiplier,0.8
;   useFixedBridgingAngle,0
;   fixedBridgingAngle,0
;   applyBridgingToPerimeters,0
;   filamentDiameters,1.75|1.75|1.75|1.75|1.75|1.75
;   filamentPricesPerKg,46|46|46|46|46|46
;   filamentDensities,1.25|1.25|1.25|1.25|1.25|1.25
;   useMinPrintHeight,0
;   minPrintHeight,0
;   useMaxPrintHeight,0
;   maxPrintHeight,4.84
;   useDiaphragm,0
;   diaphragmLayerInterval,20
;   robustSlicing,1
;   mergeAllIntoSolid,0
;   onlyRetractWhenCrossingOutline,0
;   retractBetweenLayers,0
;   useRetractionMinTravel,1
;   retractionMinTravel,7
;   retractWhileWiping,1
;   onlyWipeOutlines,1
;   avoidCrossingOutline,0
;   maxMovementDetourFactor,3
;   toolChangeRetractionDistance,12
;   toolChangeExtraRestartDistance,-0.5
;   toolChangeRetractionSpeed,600
;   externalThinWallType,0
;   internalThinWallType,0
;   thinWallAllowedOverlapPercentage,10
;   singleExtrusionMinLength,1
;   singleExtrusionMinPrintingWidthPercentage,50
;   singleExtrusionMaxPrintingWidthPercentage,200
;   singleExtrusionEndpointExtension,0.2
;   horizontalSizeCompensation,0
G90
M83
; **** Replicator 2 start.gcode ****
M73 P0 ; enable build progress
G162 X Y F3000 ; home XY maximum
G161 Z F1200 ; home Z minimum
G92 Z-5 ; set Z to -5
G1 Z0 ; move Z to 0
G28 ; better homing homie
M132 X Y Z A B ; recall home offsets
G1 X-145 Y-75 Z30 F9000 ; move to wait position off table
G130 X20 Y20 Z20 A20 B20 ; lower stepper Vrefs while heating
M127
M140 S65 T0
M134 T0 ; stabilize bed temperature
M104 S210 T0
M133 T0 ; stabilize extruder temperature
G130 X127 Y127 Z40 A127 B127 ; default stepper Vrefs
G92 A0 ; zero extruder
G1 Z0.4 ; position nozzle
G1 E25 F300 ; purge nozzle
G1 X-140 Y-70 Z0.15 F1200 ; slow wipe
G1 X-135 Y-65 Z0.5 F1200 ; lift
G92 A0 ; zero extruder
M73 P1 ;@body (notify GPX body has started)
; **** end of start.gcode ****
; process Process1
; layer 1, Z = 0.200
M135 T0
G1 E-1.9000 F1200
; feature inner perimeter
; tool H0.200 W0.400
G1 Z0.500 F1200
G1 X15.378 Y-9.099 F9000
G1 Z0.200 F1200
G1 E1.9000 F1200
G1 X4.422 Y-9.099 E0.3644 F1800
G1 X4.422 Y-3.100 E0.1995
G1 X-15.378 Y-3.100 E0.6586
G1 X-15.378 Y-27.900 E0.8249
G1 X4.422 Y-27.900 E0.6586
G1 X4.422 Y-21.901 E0.1995
G1 X15.378 Y-21.901 E0.3644
G1 X15.378 Y-9.099 E0.4258
; feature outer perimeter
G1 X15.778 Y-8.699 F9000
G1 X4.822 Y-8.699 E0.3644 F1200
G1 X4.822 Y-2.700 E0.1995
G1 X-15.778 Y-2.700 E0.6852
G1 X-15.778 Y-28.300 E0.8515
G1 X4.822 Y-28.300 E0.6852
G1 X4.822 Y-22.301 E0.1995
G1 X15.778 Y-22.301 E0.3644
G1 X15.778 Y-8.699 E0.4524
G1 E-1.9000 F1200
; feature solid layer
G1 Z0.700 F1200
G1 X14.623 Y-21.581 F9000
G1 Z0.200 F1200
G1 E1.9000 F1200
G1 X15.058 Y-21.146 E0.0205 F2400
G1 X15.058 Y-20.580 E0.0188
G1 X14.058 Y-21.581 E0.0471
G1 X13.492 Y-21.581 E0.0188
G1 X15.058 Y-20.014 E0.0737
G1 X15.058 Y-19.449 E0.0188
G1 X12.926 Y-21.581 E0.1003
G1 X12.361 Y-21.581 E0.0188
G1 X15.058 Y-18.883 E0.1269
G1 X15.058 Y-18.317 E0.0188
G1 X11.795 Y-21.581 E0.1535
G1 X11.229 Y-21.581 E0.0188
G1 X15.058 Y-17.752 E0.1801
G1 X15.058 Y-17.186 E0.0188
G1 X10.663 Y-21.581 E0.2067
G1 X10.098 Y-21.581 E0.0188
G1 X15.058 Y-16.620 E0.2333
G1 X15.058 Y-16.055 E0.0188
G1 X9.532 Y-21.581 E0.2599
G1 X8.966 Y-21.581 E0.0188
G1 X15.058 Y-15.489 E0.2865
G1 X15.058 Y-14.923 E0.0188
G1 X8.401 Y-21.581 E0.3131
G1 X7.835 Y-21.581 E0.0188
G1 X15.058 Y-14.358 E0.3398
G1 X15.058 Y-13.792 E0.0188
G1 X7.269 Y-21.581 E0.3664
G1 X6.704 Y-21.581 E0.0188
G1 X15.058 Y-13.226 E0.3930
G1 X15.058 Y-12.660 E0.0188
G1 X6.138 Y-21.581 E0.4196
G1 X5.572 Y-21.581 E0.0188
G1 X15.058 Y-12.095 E0.4462
G1 X15.058 Y-11.529 E0.0188
G1 X5.007 Y-21.581 E0.4728
G1 X4.441 Y-21.581 E0.0188
G1 X15.058 Y-10.963 E0.4994
G1 X15.058 Y-10.398 E0.0188
G1 X-2.124 Y-27.580 E0.8082
G1 X-1.558 Y-27.580 E0.0188
G1 X4.102 Y-21.920 E0.2662
G1 X4.102 Y-22.485 E0.0188
G1 X-0.993 Y-27.580 E0.2396
G1 X-0.427 Y-27.580 E0.0188
G1 X4.102 Y-23.051 E0.2130
G1 X4.102 Y-23.617 E0.0188
G1 X0.139 Y-27.580 E0.1864
G1 X0.704 Y-27.580 E0.0188
G1 X4.102 Y-24.182 E0.1598
G1 X4.102 Y-24.748 E0.0188
G1 X1.270 Y-27.580 E0.1332
G1 X1.836 Y-27.580 E0.0188
G1 X4.102 Y-25.314 E0.1066
G1 X4.102 Y-25.879 E0.0188
G1 X2.401 Y-27.580 E0.0800
G1 X2.967 Y-27.580 E0.0188
G1 X4.102 Y-26.445 E0.0534
G1 X4.102 Y-27.011 E0.0188
G1 X3.533 Y-27.580 E0.0268
G1 X4.102 Y-27.577 E0.0190
G1 X-2.690 Y-27.580 F9000
G1 X15.058 Y-9.832 E0.8348 F2400
G1 X15.058 Y-9.419 E0.0137
G1 X14.905 Y-9.419 E0.0051
G1 X-3.256 Y-27.580 E0.8542
G1 X-3.821 Y-27.580 E0.0188
G1 X14.339 Y-9.419 E0.8542
G1 X13.774 Y-9.419 E0.0188
G1 X-4.387 Y-27.580 E0.8542
G1 X-4.953 Y-27.580 E0.0188
G1 X13.208 Y-9.419 E0.8542
G1 X12.642 Y-9.419 E0.0188
G1 X-5.518 Y-27.580 E0.8542
G1 X-6.084 Y-27.580 E0.0188
G1 X12.077 Y-9.419 E0.8542
G1 X11.511 Y-9.419 E0.0188
G1 X-6.650 Y-27.580 E0.8542
G1 X-7.215 Y-27.580 E0.0188
G1 X10.945 Y-9.419 E0.8542
G1 X10.380 Y-9.419 E0.0188
G1 X-7.781 Y-27.580 E0.8542
G1 X-8.347 Y-27.580 E0.0188
G1 X9.814 Y-9.419 E0.8542
G1 X9.248 Y-9.419 E0.0188
G1 X-8.912 Y-27.580 E0.8542
G1 X-9.478 Y-27.580 E0.0188
G1 X8.683 Y-9.419 E0.8542
G1 X8.117 Y-9.419 E0.0188
G1 X-10.044 Y-27.580 E0.8542
G1 X-10.609 Y-27.580 E0.0188
G1 X7.551 Y-9.419 E0.8542
G1 X6.986 Y-9.419 E0.0188
G1 X-11.175 Y-27.580 E0.8542
G1 X-11.741 Y-27.580 E0.0188
G1 X6.420 Y-9.419 E0.8542
G1 X5.854 Y-9.419 E0.0188
G1 X-12.306 Y-27.580 E0.8542
G1 X-12.872 Y-27.580 E0.0188
G1 X5.288 Y-9.419 E0.8542
G1 X4.723 Y-9.419 E0.0188
G1 X-13.438 Y-27.580 E0.8542
G1 X-14.004 Y-27.580 E0.0188
G1 X4.157 Y-9.419 E0.8542
G1 X4.102 Y-9.419 E0.0018
G1 X4.102 Y-8.909 E0.0170
G1 X-14.569 Y-27.580 E0.8782
G1 X-15.058 Y-27.580 E0.0163
G1 X-15.058 Y-27.503 E0.0026
G1 X4.102 Y-8.343 E0.9012
G1 X4.102 Y-7.778 E0.0188
G1 X-15.058 Y-26.938 E0.9012
G1 X-15.058 Y-26.372 E0.0188
G1 X4.102 Y-7.212 E0.9012
G1 X4.102 Y-6.646 E0.0188
G1 X-15.058 Y-25.806 E0.9012
G1 X-15.058 Y-25.240 E0.0188
G1 X4.102 Y-6.080 E0.9012
G1 X4.102 Y-5.515 E0.0188
G1 X-15.058 Y-24.675 E0.9012
G1 X-15.058 Y-24.109 E0.0188
G1 X4.102 Y-4.949 E0.9012
G1 X4.102 Y-4.383 E0.0188
G1 X-15.058 Y-23.543 E0.9012
G1 X-15.058 Y-22.978 E0.0188
G1 X4.102 Y-3.818 E0.9012
G1 X4.102 Y-3.420 E0.0132
G1 X3.934 Y-3.420 E0.0056
G1 X-15.058 Y-22.412 E0.8933
G1 X-15.058 Y-21.846 E0.0188
G1 X3.368 Y-3.420 E0.8667
G1 X2.803 Y-3.420 E0.0188
G1 X-15.058 Y-21.281 E0.8401
G1 X-15.058 Y-20.715 E0.0188
G1 X2.237 Y-3.420 E0.8135
G1 X1.671 Y-3.420 E0.0188
G1 X-15.058 Y-20.149 E0.7869
G1 X-15.058 Y-19.584 E0.0188
G1 X1.105 Y-3.420 E0.7603
G1 X0.540 Y-3.420 E0.0188
G1 X-15.058 Y-19.018 E0.7337
G1 X-15.058 Y-18.452 E0.0188
G1 X-0.026 Y-3.420 E0.7071
G1 X-0.592 Y-3.420 E0.0188
G1 X-15.058 Y-17.887 E0.6805
G1 X-15.058 Y-17.321 E0.0188
G1 X-1.157 Y-3.420 E0.6539
G1 X-1.723 Y-3.420 E0.0188
G1 X-15.058 Y-16.755 E0.6272
G1 X-15.058 Y-16.190 E0.0188
G1 X-2.289 Y-3.420 E0.6006
G1 X-2.854 Y-3.420 E0.0188
G1 X-15.058 Y-15.624 E0.5740
G1 X-15.058 Y-15.058 E0.0188
G1 X-3.420 Y-3.420 E0.5474
G1 X-3.986 Y-3.420 E0.0188
G1 X-15.058 Y-14.492 E0.5208
G1 X-15.058 Y-13.927 E0.0188
G1 X-4.551 Y-3.420 E0.4942
G1 X-5.117 Y-3.420 E0.0188
G1 X-15.058 Y-13.361 E0.4676
G1 X-15.058 Y-12.795 E0.0188
G1 X-5.683 Y-3.420 E0.4410
G1 X-6.248 Y-3.420 E0.0188
G1 X-15.058 Y-12.230 E0.4144
G1 X-15.058 Y-11.664 E0.0188
G1 X-6.814 Y-3.420 E0.3878
G1 X-7.380 Y-3.420 E0.0188
G1 X-15.058 Y-11.098 E0.3612
G1 X-15.058 Y-10.533 E0.0188
G1 X-7.945 Y-3.420 E0.3346
G1 X-8.511 Y-3.420 E0.0188
G1 X-15.058 Y-9.967 E0.3079
G1 X-15.058 Y-9.401 E0.0188
G1 X-9.077 Y-3.420 E0.2813
G1 X-9.643 Y-3.420 E0.0188
G1 X-15.058 Y-8.836 E0.2547
G1 X-15.058 Y-8.270 E0.0188
G1 X-10.208 Y-3.420 E0.2281
G1 X-10.774 Y-3.420 E0.0188
G1 X-15.058 Y-7.704 E0.2015
G1 X-15.058 Y-7.139 E0.0188
G1 X-11.340 Y-3.420 E0.1749
G1 X-11.905 Y-3.420 E0.0188
G1 X-15.058 Y-6.573 E0.1483
G1 X-15.058 Y-6.007 E0.0188
G1 X-12.471 Y-3.420 E0.1217
G1 X-13.037 Y-3.420 E0.0188
G1 X-15.058 Y-5.441 E0.0951
G1 X-15.058 Y-4.876 E0.0188
G1 X-13.602 Y-3.420 E0.0685
G1 X-14.168 Y-3.420 E0.0188
G1 X-15.058 Y-4.310 E0.0419
G1 X-15.058 Y-3.744 E0.0188
G1 X-14.734 Y-3.420 E0.0153
G1 E-1.9000 F1200
; feature inner perimeter
G1 Z0.700 F1200
G1 X-21.578 Y-9.099 F9000
G1 Z0.200 F1200
G1 E1.9000 F1200
G1 X-32.534 Y-9.099 E0.3644 F1800
G1 X-32.534 Y-3.100 E0.1995
G1 X-52.334 Y-3.100 E0.6586
G1 X-52.334 Y-27.900 E0.8249
G1 X-32.534 Y-27.900 E0.6586
G1 X-32.534 Y-21.901 E0.1995
G1 X-21.578 Y-21.901 E0.3644
G1 X-21.578 Y-9.099 E0.4258
; feature outer perimeter
G1 X-21.178 Y-8.699 F9000
G1 X-32.134 Y-8.699 E0.3644 F1200
G1 X-32.134 Y-2.700 E0.1995
G1 X-52.734 Y-2.700 E0.6852
G1 X-52.734 Y-28.300 E0.8515
G1 X-32.134 Y-28.300 E0.6852
G1 X-32.134 Y-22.301 E0.1995
G1 X-21.178 Y-22.301 E0.3644
G1 X-21.178 Y-8.699 E0.4524
G1 E-1.9000 F1200
; feature solid layer
G1 Z0.700 F1200
G1 X-22.146 Y-21.581 F9000
G1 Z0.200 F1200
G1 E1.9000 F1200
G1 X-21.898 Y-21.332 E0.0117 F2400
G1 X-21.898 Y-20.767 E0.0188
G1 X-22.712 Y-21.581 E0.0383
G1 X-23.278 Y-21.581 E0.0188
G1 X-21.898 Y-20.201 E0.0649
G1 X-21.898 Y-19.635 E0.0188
G1 X-23.843 Y-21.581 E0.0915
G1 X-24.409 Y-21.581 E0.0188
G1 X-21.898 Y-19.070 E0.1181
G1 X-21.898 Y-18.504 E0.0188
G1 X-24.975 Y-21.581 E0.1447
G1 X-25.540 Y-21.581 E0.0188
G1 X-21.898 Y-17.938 E0.1713
G1 X-21.898 Y-17.373 E0.0188
G1 X-26.106 Y-21.581 E0.1979
G1 X-26.672 Y-21.581 E0.0188
G1 X-21.898 Y-16.807 E0.2245
G1 X-21.898 Y-16.241 E0.0188
G1 X-27.237 Y-21.581 E0.2511
G1 X-27.803 Y-21.581 E0.0188
G1 X-21.898 Y-15.676 E0.2778
G1 X-21.898 Y-15.110 E0.0188
G1 X-28.369 Y-21.581 E0.3044
G1 X-28.935 Y-21.581 E0.0188
G1 X-21.898 Y-14.544 E0.3310
G1 X-21.898 Y-13.979 E0.0188
G1 X-29.500 Y-21.581 E0.3576
G1 X-30.066 Y-21.581 E0.0188
G1 X-21.898 Y-13.413 E0.3842
G1 X-21.898 Y-12.847 E0.0188
G1 X-30.632 Y-21.581 E0.4108
G1 X-31.197 Y-21.581 E0.0188
G1 X-21.898 Y-12.281 E0.4374
G1 X-21.898 Y-11.716 E0.0188
G1 X-31.763 Y-21.581 E0.4640
G1 X-32.329 Y-21.581 E0.0188
G1 X-21.898 Y-11.150 E0.4906
G1 X-21.898 Y-10.584 E0.0188
G1 X-38.894 Y-27.580 E0.7994
G1 X-38.328 Y-27.580 E0.0188
G1 X-32.854 Y-22.106 E0.2575
G1 X-32.854 Y-22.672 E0.0188
G1 X-37.762 Y-27.580 E0.2309
G1 X-37.197 Y-27.580 E0.0188
G1 X-32.854 Y-23.238 E0.2042
G1 X-32.854 Y-23.803 E0.0188
G1 X-36.631 Y-27.580 E0.1776
G1 X-36.065 Y-27.580 E0.0188
G1 X-32.854 Y-24.369 E0.1510
G1 X-32.854 Y-24.935 E0.0188
G1 X-35.500 Y-27.580 E0.1244
G1 X-34.934 Y-27.580 E0.0188
G1 X-32.854 Y-25.501 E0.0978
G1 X-32.854 Y-26.066 E0.0188
G1 X-34.368 Y-27.580 E0.0712
G1 X-33.803 Y-27.580 E0.0188
G1 X-32.854 Y-26.632 E0.0446
G1 X-32.854 Y-27.198 E0.0188
G1 X-33.237 Y-27.580 E0.0180
