; G-Code generated by Simplify3D(R) Version 4.1.2
; Apr 20, 2020 at 10:26:41 AM
; Settings Summary
;   processName,Process1
;   applyToModels,Scoop BracketV1R2,Scoop BracketV1R2(2),Scoop BracketV1R2(3),Scoop BracketV1R2(2)(2),Scoop BracketV1R2(4),Scoop BracketV1R2(2)(3),Scoop BracketV1R2(3)(2),Scoop BracketV1R2(2)(2)(2),Scoop BracketV1R2(3)(2)(2),Scoop BracketV1R2(2)(2)(2)(2)
;   profileName,MakerBot Replicator 2 HBP (modified)
;   profileVersion,2019-10-28 12:37:50
;   baseProfile,MakerBot Replicator 2(2)
;   printMaterial,PLA
;   printQuality,Medium
;   printExtruders,
;   extruderName,Primary Extruder
;   extruderToolheadNumber,0
;   extruderDiameter,0.4
;   extruderAutoWidth,0
;   extruderWidth,0.4
;   extrusionMultiplier,1
;   extruderUseRetract,1
;   extruderRetractionDistance,1.9
;   extruderExtraRestartDistance,0
;   extruderRetractionZLift,0.5
;   extruderRetractionSpeed,1200
;   extruderUseCoasting,0
;   extruderCoastingDistance,0.2
;   extruderUseWipe,0
;   extruderWipeDistance,5
;   primaryExtruder,0
;   layerHeight,0.2
;   topSolidLayers,3
;   bottomSolidLayers,3
;   perimeterOutlines,2
;   printPerimetersInsideOut,1
;   startPointOption,3
;   startPointOriginX,140
;   startPointOriginY,0
;   sequentialIslands,0
;   spiralVaseMode,0
;   firstLayerHeightPercentage,100
;   firstLayerWidthPercentage,100
;   firstLayerUnderspeed,0.5
;   useRaft,0
;   raftExtruder,0
;   raftTopLayers,2
;   raftBaseLayers,1
;   raftOffset,1
;   raftSeparationDistance,0.14
;   raftTopInfill,90
;   aboveRaftSpeedMultiplier,0.3
;   useSkirt,0
;   skirtExtruder,0
;   skirtLayers,1
;   skirtOutlines,5
;   skirtOffset,0
;   usePrimePillar,0
;   primePillarExtruder,999
;   primePillarWidth,12
;   primePillarLocation,7
;   primePillarSpeedMultiplier,1
;   useOozeShield,0
;   oozeShieldExtruder,999
;   oozeShieldOffset,2
;   oozeShieldOutlines,1
;   oozeShieldSidewallShape,1
;   oozeShieldSidewallAngle,30
;   oozeShieldSpeedMultiplier,1
;   infillExtruder,0
;   internalInfillPattern,Rectilinear
;   externalInfillPattern,Rectilinear
;   infillPercentage,15
;   outlineOverlapPercentage,20
;   infillExtrusionWidthPercentage,100
;   minInfillLength,5
;   infillLayerInterval,1
;   internalInfillAngles,45,-45
;   overlapInternalInfillAngles,0
;   externalInfillAngles,45,-45
;   generateSupport,1
;   supportExtruder,0
;   supportInfillPercentage,20
;   supportExtraInflation,0.5
;   supportBaseLayers,0
;   denseSupportExtruder,0
;   denseSupportLayers,2
;   denseSupportInfillPercentage,70
;   supportLayerInterval,1
;   supportHorizontalPartOffset,0.3
;   supportUpperSeparationLayers,1
;   supportLowerSeparationLayers,1
;   supportType,0
;   supportGridSpacing,2
;   maxOverhangAngle,45
;   supportAngles,0
;   temperatureName,Primary Extruder,Heated Build Platform
;   temperatureNumber,0,0
;   temperatureSetpointCount,1,1
;   temperatureSetpointLayers,1,1
;   temperatureSetpointTemperatures,230,60
;   temperatureStabilizeAtStartup,1,1
;   temperatureHeatedBed,0,1
;   fanLayers,1,2
;   fanSpeeds,0,100
;   blipFanToFullPower,1
;   adjustSpeedForCooling,1
;   minSpeedLayerTime,15
;   minCoolingSpeedSlowdown,20
;   increaseFanForCooling,1
;   minFanLayerTime,45
;   maxCoolingFanSpeed,100
;   increaseFanForBridging,1
;   bridgingFanSpeed,100
;   use5D,1
;   relativeEdistances,1
;   allowEaxisZeroing,0
;   independentExtruderAxes,1
;   includeM10123,0
;   stickySupport,1
;   applyToolheadOffsets,0
;   gcodeXoffset,0
;   gcodeYoffset,0
;   gcodeZoffset,0
;   overrideMachineDefinition,1
;   machineTypeOverride,0
;   strokeXoverride,280
;   strokeYoverride,150
;   strokeZoverride,150
;   originOffsetXoverride,140
;   originOffsetYoverride,75
;   originOffsetZoverride,0
;   homeXdirOverride,1
;   homeYdirOverride,1
;   homeZdirOverride,-1
;   flipXoverride,1
;   flipYoverride,-1
;   flipZoverride,1
;   toolheadOffsets,0,0|0,0|0,0|0,0|0,0|0,0
;   overrideFirmwareConfiguration,1
;   firmwareTypeOverride,MakerBot/Sailfish Firmware
;   GPXconfigOverride,r2h
;   baudRateOverride,115200
;   overridePrinterModels,1
;   printerModelsOverride,MakerBot_Replicator2.stl
;   startingGcode,; **** Replicator 2 start.gcode ****,M73 P0 ; enable build progress,G162 X Y F3000 ; home XY maximum,G161 Z F1200 ; home Z minimum,G92 Z-5 ; set Z to -5,G1 Z0 ; move Z to 0,G161 Z F100 ; home Z slowly,M132 X Y Z A B ; recall home offsets,G1 X-145 Y-75 Z30 F9000 ; move to wait position off table,G130 X20 Y20 Z20 A20 B20 ; lower stepper Vrefs while heating,M126 S[fan_speed_pwm],M140 S[bed0_temperature] T0,M134 T0 ; stabilize bed temperature,M104 S[extruder0_temperature] T0,M133 T0 ; stabilize extruder temperature,G130 X127 Y127 Z40 A127 B127 ; default stepper Vrefs,G92 A0 ; zero extruder,G1 Z0.4 ; position nozzle,G1 E25 F300 ; purge nozzle,G1 X-140 Y-70 Z0.15 F1200 ; slow wipe,G1 X-135 Y-65 Z0.5 F1200 ; lift,G92 A0 ; zero extruder,M73 P1 ;@body (notify GPX body has started),; **** end of start.gcode ****
;   layerChangeGcode,
;   retractionGcode,
;   toolChangeGcode,
;   endingGcode,; **** Replicator 2 end.gcode ****,M73 P100 ; end build progress,G1 Z155 F1000 ; send Z axis to bottom of machine,M104 S0 T0 ; cool down extruder,M140 S0 T0 ; cool down HBP,M127 ; stop blower fan,G162 X Y F3000 ; home XY maximum,M18 ; disable stepper,M0 ; stop codes,M72 P1 ; play Ta-Da song,; **** end of end.gcode ****
;   exportFileFormat,gcode
;   celebration,0
;   celebrationSong,Random Song
;   postProcessing,
;   defaultSpeed,4800
;   outlineUnderspeed,0.5
;   solidInfillUnderspeed,1
;   supportUnderspeed,1
;   rapidXYspeed,9000
;   rapidZspeed,1200
;   minBridgingArea,50
;   bridgingExtraInflation,0
;   bridgingExtrusionMultiplier,1
;   bridgingSpeedMultiplier,0.8
;   useFixedBridgingAngle,0
;   fixedBridgingAngle,0
;   applyBridgingToPerimeters,0
;   filamentDiameters,1.75|1.75|1.75|1.75|1.75|1.75
;   filamentPricesPerKg,46|46|46|46|46|46
;   filamentDensities,1.25|1.25|1.25|1.25|1.25|1.25
;   useMinPrintHeight,0
;   minPrintHeight,0
;   useMaxPrintHeight,0
;   maxPrintHeight,4.84
;   useDiaphragm,0
;   diaphragmLayerInterval,20
;   robustSlicing,1
;   mergeAllIntoSolid,0
;   onlyRetractWhenCrossingOutline,0
;   retractBetweenLayers,0
;   useRetractionMinTravel,1
;   retractionMinTravel,7
;   retractWhileWiping,1
;   onlyWipeOutlines,1
;   avoidCrossingOutline,0
;   maxMovementDetourFactor,3
;   toolChangeRetractionDistance,12
;   toolChangeExtraRestartDistance,-0.5
;   toolChangeRetractionSpeed,600
;   externalThinWallType,0
;   internalThinWallType,0
;   thinWallAllowedOverlapPercentage,10
;   singleExtrusionMinLength,1
;   singleExtrusionMinPrintingWidthPercentage,50
;   singleExtrusionMaxPrintingWidthPercentage,200
;   singleExtrusionEndpointExtension,0.2
;   horizontalSizeCompensation,0
G90
M83
; **** Replicator 2 start.gcode ****
M73 P0 ; enable build progress
G162 X Y F3000 ; home XY maximum
G161 Z F1200 ; home Z minimum
G92 Z-5 ; set Z to -5
G1 Z0 ; move Z to 0
G161 Z F100 ; home Z slowly
M132 X Y Z A B ; recall home offsets
G1 X-145 Y-75 Z30 F9000 ; move to wait position off table
G130 X20 Y20 Z20 A20 B20 ; lower stepper Vrefs while heating
M127
M140 S60 T0
M134 T0 ; stabilize bed temperature
M104 S230 T0
M133 T0 ; stabilize extruder temperature
G130 X127 Y127 Z40 A127 B127 ; default stepper Vrefs
G92 A0 ; zero extruder
G1 Z0.4 ; position nozzle
G1 E25 F300 ; purge nozzle
G1 X-140 Y-70 Z0.15 F1200 ; slow wipe
G1 X-135 Y-65 Z0.5 F1200 ; lift
G92 A0 ; zero extruder
M73 P1 ;@body (notify GPX body has started)
; **** end of start.gcode ****
; process Process1
; layer 1, Z = 0.200
M135 T0
G1 E-1.9000 F1200
; feature inner perimeter
; tool H0.200 W0.400
G1 Z0.500 F1200
G1 X4.400 Y-4.547 F9000
G1 Z0.200 F1200
G1 E1.9000 F1200
G1 X4.324 Y-4.070 E0.0161 F1800
G1 X4.127 Y-3.682 E0.0145
G1 X3.818 Y-3.373 E0.0145
G1 X3.430 Y-3.176 E0.0145
G1 X2.953 Y-3.100 E0.0161
G1 X-2.953 Y-3.100 E0.1964
G1 X-3.430 Y-3.176 E0.0161
G1 X-3.818 Y-3.373 E0.0145
G1 X-4.127 Y-3.681 E0.0145
G1 X-4.316 Y-4.054 E0.0139
G1 X-4.400 Y-4.550 E0.0167
G1 X-4.400 Y-24.049 E0.6485
G1 X-4.324 Y-24.527 E0.0161
G1 X-4.127 Y-24.915 E0.0145
G1 X-3.818 Y-25.223 E0.0145
G1 X-3.430 Y-25.421 E0.0145
G1 X-2.953 Y-25.496 E0.0161
G1 X2.953 Y-25.496 E0.1964
G1 X3.430 Y-25.421 E0.0161
G1 X3.818 Y-25.223 E0.0145
G1 X4.127 Y-24.915 E0.0145
G1 X4.324 Y-24.527 E0.0145
G1 X4.400 Y-24.049 E0.0161
G1 X4.400 Y-4.547 E0.6486
; feature outer perimeter
G1 X4.800 Y-4.516 F9000
G1 X4.710 Y-3.945 E0.0192 F1200
G1 X4.454 Y-3.443 E0.0187
G1 X4.057 Y-3.046 E0.0187
G1 X3.555 Y-2.790 E0.0187
G1 X2.984 Y-2.700 E0.0192
G1 X-2.984 Y-2.700 E0.1985
G1 X-3.555 Y-2.790 E0.0192
G1 X-4.057 Y-3.046 E0.0187
G1 X-4.454 Y-3.443 E0.0187
G1 X-4.701 Y-3.927 E0.0180
G1 X-4.800 Y-4.517 E0.0199
G1 X-4.800 Y-24.081 E0.6507
G1 X-4.710 Y-24.652 E0.0192
G1 X-4.454 Y-25.153 E0.0187
G1 X-4.057 Y-25.551 E0.0187
G1 X-3.555 Y-25.806 E0.0187
G1 X-2.984 Y-25.896 E0.0192
G1 X2.984 Y-25.896 E0.1985
G1 X3.555 Y-25.806 E0.0192
G1 X4.057 Y-25.551 E0.0187
G1 X4.454 Y-25.153 E0.0187
G1 X4.710 Y-24.652 E0.0187
G1 X4.800 Y-24.081 E0.0192
G1 X4.800 Y-4.516 E0.6507
G1 E-1.9000 F1200
; feature solid layer
G1 Z0.700 F1200
G1 X-4.080 Y-4.646 F9000
G1 Z0.200 F1200
G1 E1.9000 F1200
G1 X-2.854 Y-3.420 E0.0577 F2400
G1 X-2.289 Y-3.420 E0.0188
G1 X-4.080 Y-5.211 E0.0843
G1 X-4.080 Y-5.777 E0.0188
G1 X-1.723 Y-3.420 E0.1109
G1 X-1.157 Y-3.420 E0.0188
G1 X-4.080 Y-6.343 E0.1375
G1 X-4.080 Y-6.908 E0.0188
G1 X-0.592 Y-3.420 E0.1641
G1 X-0.026 Y-3.420 E0.0188
G1 X-4.080 Y-7.474 E0.1907
G1 X-4.080 Y-8.040 E0.0188
G1 X0.540 Y-3.420 E0.2173
G1 X1.105 Y-3.420 E0.0188
G1 X-4.080 Y-8.605 E0.2439
G1 X-4.080 Y-9.171 E0.0188
G1 X1.671 Y-3.420 E0.2705
G1 X2.237 Y-3.420 E0.0188
G1 X-4.080 Y-9.737 E0.2971
G1 X-4.080 Y-10.303 E0.0188
G1 X2.803 Y-3.420 E0.3237
G1 X2.928 Y-3.420 E0.0042
G1 X3.308 Y-3.480 E0.0128
G1 X-4.080 Y-10.868 E0.3475
G1 X-4.080 Y-11.434 E0.0188
G1 X3.673 Y-3.681 E0.3647
G1 X3.864 Y-3.872 E0.0090
G1 X3.926 Y-3.993 E0.0045
G1 X-4.080 Y-12.000 E0.3766
G1 X-4.080 Y-12.565 E0.0188
G1 X4.057 Y-4.428 E0.3827
G1 X4.080 Y-4.572 E0.0049
G1 X4.080 Y-4.971 E0.0133
G1 X-4.080 Y-13.131 E0.3838
G1 X-4.080 Y-13.697 E0.0188
G1 X4.080 Y-5.537 E0.3838
G1 X4.080 Y-6.102 E0.0188
G1 X-4.080 Y-14.262 E0.3838
G1 X-4.080 Y-14.828 E0.0188
G1 X4.080 Y-6.668 E0.3838
G1 X4.080 Y-7.234 E0.0188
G1 X-4.080 Y-15.394 E0.3838
G1 X-4.080 Y-15.959 E0.0188
G1 X4.080 Y-7.799 E0.3838
G1 X4.080 Y-8.365 E0.0188
G1 X-4.080 Y-16.525 E0.3838
G1 X-4.080 Y-17.091 E0.0188
G1 X4.080 Y-8.931 E0.3838
G1 X4.080 Y-9.496 E0.0188
G1 X-4.080 Y-17.656 E0.3838
G1 X-4.080 Y-18.222 E0.0188
G1 X4.080 Y-10.062 E0.3838
G1 X4.080 Y-10.628 E0.0188
G1 X-4.080 Y-18.788 E0.3838
G1 X-4.080 Y-19.354 E0.0188
G1 X4.080 Y-11.194 E0.3838
G1 X4.080 Y-11.759 E0.0188
G1 X-4.080 Y-19.919 E0.3838
G1 X-4.080 Y-20.485 E0.0188
G1 X4.080 Y-12.325 E0.3838
G1 X4.080 Y-12.891 E0.0188
G1 X-4.080 Y-21.051 E0.3838
G1 X-4.080 Y-21.616 E0.0188
G1 X4.080 Y-13.456 E0.3838
G1 X4.080 Y-14.022 E0.0188
G1 X-4.080 Y-22.182 E0.3838
G1 X-4.080 Y-22.748 E0.0188
G1 X4.080 Y-14.588 E0.3838
G1 X4.080 Y-15.153 E0.0188
G1 X-4.080 Y-23.313 E0.3838
G1 X-4.080 Y-23.879 E0.0188
G1 X4.080 Y-15.719 E0.3838
G1 X4.080 Y-16.285 E0.0188
G1 X-4.022 Y-24.387 E0.3811
G1 X-4.016 Y-24.427 E0.0013
G1 X-3.864 Y-24.724 E0.0111
G1 X-3.829 Y-24.760 E0.0017
G1 X4.080 Y-16.850 E0.3720
G1 X4.080 Y-17.416 E0.0188
G1 X-3.520 Y-25.016 E0.3575
G1 X-3.330 Y-25.113 E0.0071
G1 X-3.089 Y-25.151 E0.0081
G1 X4.080 Y-17.982 E0.3372
G1 X4.080 Y-18.547 E0.0188
G1 X-2.549 Y-25.176 E0.3118
G1 X-1.983 Y-25.176 E0.0188
G1 X4.080 Y-19.113 E0.2852
G1 X4.080 Y-19.679 E0.0188
G1 X-1.418 Y-25.176 E0.2586
G1 X-0.852 Y-25.176 E0.0188
G1 X4.080 Y-20.244 E0.2320
G1 X4.080 Y-20.810 E0.0188
G1 X-0.286 Y-25.176 E0.2054
G1 X0.279 Y-25.176 E0.0188
G1 X4.080 Y-21.376 E0.1788
G1 X4.080 Y-21.942 E0.0188
G1 X0.845 Y-25.176 E0.1522
G1 X1.411 Y-25.176 E0.0188
G1 X4.080 Y-22.507 E0.1255
G1 X4.080 Y-23.073 E0.0188
G1 X1.977 Y-25.176 E0.0989
G1 X2.542 Y-25.176 E0.0188
G1 X4.080 Y-23.639 E0.0723
G1 X4.080 Y-24.024 E0.0128
G1 X4.046 Y-24.238 E0.0072
G1 X3.142 Y-25.142 E0.0425
G1 E-1.9000 F1200
; feature inner perimeter
G1 Z0.700 F1200
G1 X19.400 Y-4.547 F9000
G1 Z0.200 F1200
G1 E1.9000 F1200
G1 X19.324 Y-4.070 E0.0161 F1800
G1 X19.127 Y-3.682 E0.0145
G1 X18.818 Y-3.373 E0.0145
G1 X18.430 Y-3.176 E0.0145
G1 X17.953 Y-3.100 E0.0161
G1 X12.047 Y-3.100 E0.1964
G1 X11.570 Y-3.176 E0.0161
G1 X11.181 Y-3.373 E0.0145
G1 X10.873 Y-3.681 E0.0145
G1 X10.684 Y-4.054 E0.0139
G1 X10.600 Y-4.550 E0.0167
G1 X10.600 Y-24.049 E0.6485
G1 X10.676 Y-24.527 E0.0161
G1 X10.873 Y-24.915 E0.0145
G1 X11.182 Y-25.223 E0.0145
G1 X11.570 Y-25.421 E0.0145
G1 X12.047 Y-25.496 E0.0161
G1 X17.953 Y-25.496 E0.1964
G1 X18.430 Y-25.421 E0.0161
G1 X18.819 Y-25.223 E0.0145
G1 X19.127 Y-24.915 E0.0145
G1 X19.324 Y-24.527 E0.0145
G1 X19.400 Y-24.049 E0.0161
G1 X19.400 Y-4.547 E0.6486
; feature outer perimeter
G1 X19.800 Y-4.516 F9000
G1 X19.710 Y-3.945 E0.0192 F1200
G1 X19.454 Y-3.443 E0.0187
G1 X19.057 Y-3.046 E0.0187
G1 X18.555 Y-2.790 E0.0187
G1 X17.984 Y-2.700 E0.0192
G1 X12.016 Y-2.700 E0.1985
G1 X11.445 Y-2.790 E0.0192
G1 X10.943 Y-3.046 E0.0187
G1 X10.546 Y-3.443 E0.0187
G1 X10.299 Y-3.927 E0.0180
G1 X10.200 Y-4.517 E0.0199
G1 X10.200 Y-24.081 E0.6507
G1 X10.290 Y-24.652 E0.0192
G1 X10.546 Y-25.153 E0.0187
G1 X10.943 Y-25.551 E0.0187
G1 X11.445 Y-25.806 E0.0187
G1 X12.016 Y-25.896 E0.0192
G1 X17.984 Y-25.896 E0.1985
G1 X18.555 Y-25.806 E0.0192
G1 X19.057 Y-25.551 E0.0187
G1 X19.454 Y-25.153 E0.0187
G1 X19.710 Y-24.652 E0.0187
G1 X19.800 Y-24.081 E0.0192
G1 X19.800 Y-4.516 E0.6507
G1 E-1.9000 F1200
; feature solid layer
G1 Z0.700 F1200
G1 X11.812 Y-3.461 F9000
G1 Z0.200 F1200
G1 E1.9000 F1200
G1 X10.965 Y-4.308 E0.0398 F2400
G1 X10.920 Y-4.577 E0.0091
G1 X10.920 Y-4.919 E0.0114
G1 X12.419 Y-3.420 E0.0705
G1 X12.985 Y-3.420 E0.0188
G1 X10.920 Y-5.485 E0.0971
G1 X10.920 Y-6.051 E0.0188
G1 X13.551 Y-3.420 E0.1237
G1 X14.116 Y-3.420 E0.0188
G1 X10.920 Y-6.616 E0.1503
G1 X10.920 Y-7.182 E0.0188
G1 X14.682 Y-3.420 E0.1770
G1 X15.248 Y-3.420 E0.0188
G1 X10.920 Y-7.748 E0.2036
G1 X10.920 Y-8.313 E0.0188
G1 X15.813 Y-3.420 E0.2302
G1 X16.379 Y-3.420 E0.0188
G1 X10.920 Y-8.879 E0.2568
G1 X10.920 Y-9.445 E0.0188
G1 X16.945 Y-3.420 E0.2834
G1 X17.510 Y-3.420 E0.0188
G1 X10.920 Y-10.010 E0.3100
G1 X10.920 Y-10.576 E0.0188
G1 X18.056 Y-3.440 E0.3356
G1 X18.330 Y-3.484 E0.0092
G1 X18.494 Y-3.567 E0.0061
G1 X10.920 Y-11.142 E0.3563
G1 X10.920 Y-11.707 E0.0188
G1 X18.810 Y-3.817 E0.3711
G1 X18.864 Y-3.872 E0.0026
G1 X19.016 Y-4.170 E0.0111
G1 X19.017 Y-4.176 E0.0002
G1 X10.920 Y-12.273 E0.3809
G1 X10.920 Y-12.839 E0.0188
G1 X19.080 Y-4.679 E0.3838
G1 X19.080 Y-5.244 E0.0188
G1 X10.920 Y-13.404 E0.3838
G1 X10.920 Y-13.970 E0.0188
G1 X19.080 Y-5.810 E0.3838
G1 X19.080 Y-6.376 E0.0188
G1 X10.920 Y-14.536 E0.3838
G1 X10.920 Y-15.102 E0.0188
G1 X19.080 Y-6.942 E0.3838
G1 X19.080 Y-7.507 E0.0188
G1 X10.920 Y-15.667 E0.3838
G1 X10.920 Y-16.233 E0.0188
G1 X19.080 Y-8.073 E0.3838
G1 X19.080 Y-8.639 E0.0188
G1 X10.920 Y-16.799 E0.3838
G1 X10.920 Y-17.364 E0.0188
G1 X19.080 Y-9.204 E0.3838
G1 X19.080 Y-9.770 E0.0188
G1 X10.920 Y-17.930 E0.3838
G1 X10.920 Y-18.496 E0.0188
G1 X19.080 Y-10.336 E0.3838
G1 X19.080 Y-10.901 E0.0188
G1 X10.920 Y-19.061 E0.3838
G1 X10.920 Y-19.627 E0.0188
G1 X19.080 Y-11.467 E0.3838
G1 X19.080 Y-12.033 E0.0188
G1 X10.920 Y-20.193 E0.3838
G1 X10.920 Y-20.758 E0.0188
G1 X19.080 Y-12.598 E0.3838
G1 X19.080 Y-13.164 E0.0188
G1 X10.920 Y-21.324 E0.3838
G1 X10.920 Y-21.890 E0.0188
G1 X19.080 Y-13.730 E0.3838
G1 X19.080 Y-14.295 E0.0188
G1 X10.920 Y-22.455 E0.3838
G1 X10.920 Y-23.021 E0.0188
G1 X19.080 Y-14.861 E0.3838
G1 X19.080 Y-15.427 E0.0188
G1 X10.920 Y-23.587 E0.3838
G1 X10.920 Y-24.024 E0.0145
G1 X10.938 Y-24.135 E0.0037
G1 X19.080 Y-15.993 E0.3830
G1 X19.080 Y-16.558 E0.0188
G1 X11.061 Y-24.578 E0.3772
G1 X11.136 Y-24.724 E0.0055
G1 X11.307 Y-24.896 E0.0081
G1 X19.080 Y-17.124 E0.3656
G1 X19.080 Y-17.690 E0.0188
G1 X11.661 Y-25.108 E0.3490
G1 X11.670 Y-25.113 E0.0003
