; G-Code generated by Simplify3D(R) Version 4.1.2
; Apr 20, 2020 at 10:17:38 AM
; Settings Summary
;   processName,Process1
;   applyToModels,Scoop BracketV1R2,Scoop BracketV1R2(2)
;   profileName,MakerBot Replicator 2 HBP (modified)
;   profileVersion,2019-10-28 12:37:50
;   baseProfile,MakerBot Replicator 2(2)
;   printMaterial,PLA
;   printQuality,Medium
;   printExtruders,
;   extruderName,Primary Extruder
;   extruderToolheadNumber,0
;   extruderDiameter,0.4
;   extruderAutoWidth,0
;   extruderWidth,0.4
;   extrusionMultiplier,1
;   extruderUseRetract,1
;   extruderRetractionDistance,1.9
;   extruderExtraRestartDistance,0
;   extruderRetractionZLift,0.5
;   extruderRetractionSpeed,1200
;   extruderUseCoasting,0
;   extruderCoastingDistance,0.2
;   extruderUseWipe,0
;   extruderWipeDistance,5
;   primaryExtruder,0
;   layerHeight,0.2
;   topSolidLayers,3
;   bottomSolidLayers,3
;   perimeterOutlines,2
;   printPerimetersInsideOut,1
;   startPointOption,3
;   startPointOriginX,140
;   startPointOriginY,0
;   sequentialIslands,0
;   spiralVaseMode,0
;   firstLayerHeightPercentage,100
;   firstLayerWidthPercentage,100
;   firstLayerUnderspeed,0.5
;   useRaft,0
;   raftExtruder,0
;   raftTopLayers,2
;   raftBaseLayers,1
;   raftOffset,1
;   raftSeparationDistance,0.14
;   raftTopInfill,90
;   aboveRaftSpeedMultiplier,0.3
;   useSkirt,0
;   skirtExtruder,0
;   skirtLayers,1
;   skirtOutlines,5
;   skirtOffset,0
;   usePrimePillar,0
;   primePillarExtruder,999
;   primePillarWidth,12
;   primePillarLocation,7
;   primePillarSpeedMultiplier,1
;   useOozeShield,0
;   oozeShieldExtruder,999
;   oozeShieldOffset,2
;   oozeShieldOutlines,1
;   oozeShieldSidewallShape,1
;   oozeShieldSidewallAngle,30
;   oozeShieldSpeedMultiplier,1
;   infillExtruder,0
;   internalInfillPattern,Rectilinear
;   externalInfillPattern,Rectilinear
;   infillPercentage,15
;   outlineOverlapPercentage,20
;   infillExtrusionWidthPercentage,100
;   minInfillLength,5
;   infillLayerInterval,1
;   internalInfillAngles,45,-45
;   overlapInternalInfillAngles,0
;   externalInfillAngles,45,-45
;   generateSupport,1
;   supportExtruder,0
;   supportInfillPercentage,20
;   supportExtraInflation,0.5
;   supportBaseLayers,0
;   denseSupportExtruder,0
;   denseSupportLayers,2
;   denseSupportInfillPercentage,70
;   supportLayerInterval,1
;   supportHorizontalPartOffset,0.3
;   supportUpperSeparationLayers,1
;   supportLowerSeparationLayers,1
;   supportType,0
;   supportGridSpacing,2
;   maxOverhangAngle,45
;   supportAngles,0
;   temperatureName,Primary Extruder,Heated Build Platform
;   temperatureNumber,0,0
;   temperatureSetpointCount,1,1
;   temperatureSetpointLayers,1,1
;   temperatureSetpointTemperatures,230,60
;   temperatureStabilizeAtStartup,1,1
;   temperatureHeatedBed,0,1
;   fanLayers,1,2
;   fanSpeeds,0,100
;   blipFanToFullPower,1
;   adjustSpeedForCooling,1
;   minSpeedLayerTime,15
;   minCoolingSpeedSlowdown,20
;   increaseFanForCooling,1
;   minFanLayerTime,45
;   maxCoolingFanSpeed,100
;   increaseFanForBridging,1
;   bridgingFanSpeed,100
;   use5D,1
;   relativeEdistances,1
;   allowEaxisZeroing,0
;   independentExtruderAxes,1
;   includeM10123,0
;   stickySupport,1
;   applyToolheadOffsets,0
;   gcodeXoffset,0
;   gcodeYoffset,0
;   gcodeZoffset,0
;   overrideMachineDefinition,1
;   machineTypeOverride,0
;   strokeXoverride,280
;   strokeYoverride,150
;   strokeZoverride,150
;   originOffsetXoverride,140
;   originOffsetYoverride,75
;   originOffsetZoverride,0
;   homeXdirOverride,1
;   homeYdirOverride,1
;   homeZdirOverride,-1
;   flipXoverride,1
;   flipYoverride,-1
;   flipZoverride,1
;   toolheadOffsets,0,0|0,0|0,0|0,0|0,0|0,0
;   overrideFirmwareConfiguration,1
;   firmwareTypeOverride,MakerBot/Sailfish Firmware
;   GPXconfigOverride,r2h
;   baudRateOverride,115200
;   overridePrinterModels,1
;   printerModelsOverride,MakerBot_Replicator2.stl
;   startingGcode,; **** Replicator 2 start.gcode ****,M73 P0 ; enable build progress,G162 X Y F3000 ; home XY maximum,G161 Z F1200 ; home Z minimum,G92 Z-5 ; set Z to -5,G1 Z0 ; move Z to 0,G161 Z F100 ; home Z slowly,M132 X Y Z A B ; recall home offsets,G1 X-145 Y-75 Z30 F9000 ; move to wait position off table,G130 X20 Y20 Z20 A20 B20 ; lower stepper Vrefs while heating,M126 S[fan_speed_pwm],M140 S[bed0_temperature] T0,M134 T0 ; stabilize bed temperature,M104 S[extruder0_temperature] T0,M133 T0 ; stabilize extruder temperature,G130 X127 Y127 Z40 A127 B127 ; default stepper Vrefs,G92 A0 ; zero extruder,G1 Z0.4 ; position nozzle,G1 E25 F300 ; purge nozzle,G1 X-140 Y-70 Z0.15 F1200 ; slow wipe,G1 X-135 Y-65 Z0.5 F1200 ; lift,G92 A0 ; zero extruder,M73 P1 ;@body (notify GPX body has started),; **** end of start.gcode ****
;   layerChangeGcode,
;   retractionGcode,
;   toolChangeGcode,
;   endingGcode,; **** Replicator 2 end.gcode ****,M73 P100 ; end build progress,G1 Z155 F1000 ; send Z axis to bottom of machine,M104 S0 T0 ; cool down extruder,M140 S0 T0 ; cool down HBP,M127 ; stop blower fan,G162 X Y F3000 ; home XY maximum,M18 ; disable stepper,M0 ; stop codes,M72 P1 ; play Ta-Da song,; **** end of end.gcode ****
;   exportFileFormat,gcode
;   celebration,0
;   celebrationSong,Random Song
;   postProcessing,
;   defaultSpeed,4800
;   outlineUnderspeed,0.5
;   solidInfillUnderspeed,1
;   supportUnderspeed,1
;   rapidXYspeed,9000
;   rapidZspeed,1200
;   minBridgingArea,50
;   bridgingExtraInflation,0
;   bridgingExtrusionMultiplier,1
;   bridgingSpeedMultiplier,0.8
;   useFixedBridgingAngle,0
;   fixedBridgingAngle,0
;   applyBridgingToPerimeters,0
;   filamentDiameters,1.75|1.75|1.75|1.75|1.75|1.75
;   filamentPricesPerKg,46|46|46|46|46|46
;   filamentDensities,1.25|1.25|1.25|1.25|1.25|1.25
;   useMinPrintHeight,0
;   minPrintHeight,0
;   useMaxPrintHeight,0
;   maxPrintHeight,4.84
;   useDiaphragm,0
;   diaphragmLayerInterval,20
;   robustSlicing,1
;   mergeAllIntoSolid,0
;   onlyRetractWhenCrossingOutline,0
;   retractBetweenLayers,0
;   useRetractionMinTravel,1
;   retractionMinTravel,7
;   retractWhileWiping,1
;   onlyWipeOutlines,1
;   avoidCrossingOutline,0
;   maxMovementDetourFactor,3
;   toolChangeRetractionDistance,12
;   toolChangeExtraRestartDistance,-0.5
;   toolChangeRetractionSpeed,600
;   externalThinWallType,0
;   internalThinWallType,0
;   thinWallAllowedOverlapPercentage,10
;   singleExtrusionMinLength,1
;   singleExtrusionMinPrintingWidthPercentage,50
;   singleExtrusionMaxPrintingWidthPercentage,200
;   singleExtrusionEndpointExtension,0.2
;   horizontalSizeCompensation,0
G90
M83
; **** Replicator 2 start.gcode ****
M73 P0 ; enable build progress
G162 X Y F3000 ; home XY maximum
G161 Z F1200 ; home Z minimum
G92 Z-5 ; set Z to -5
G1 Z0 ; move Z to 0
G161 Z F100 ; home Z slowly
M132 X Y Z A B ; recall home offsets
G1 X-145 Y-75 Z30 F9000 ; move to wait position off table
G130 X20 Y20 Z20 A20 B20 ; lower stepper Vrefs while heating
M126 S64
M140 S60 T0
M134 T0 ; stabilize bed temperature
M104 S230 T0
M133 T0 ; stabilize extruder temperature
G130 X127 Y127 Z40 A127 B127 ; default stepper Vrefs
G92 A0 ; zero extruder
G1 Z0.4 ; position nozzle
G1 E25 F300 ; purge nozzle
G1 X-140 Y-70 Z0.15 F1200 ; slow wipe
G1 X-135 Y-65 Z0.5 F1200 ; lift
G92 A0 ; zero extruder
M73 P1 ;@body (notify GPX body has started)
; **** end of start.gcode ****
; process Process1
; layer 1, Z = 0.200
M135 T0
G1 E-1.9000 F1200
; feature inner perimeter
; tool H0.200 W0.400
G1 Z0.500 F1200
G1 X-3.100 Y-9.751 F9000
G1 Z0.200 F1200
G1 E1.9000 F1200
G1 X-3.100 Y9.751 E0.6486 F1800
G1 X-3.176 Y10.229 E0.0161
G1 X-3.373 Y10.617 E0.0145
G1 X-3.682 Y10.925 E0.0145
G1 X-4.070 Y11.123 E0.0145
G1 X-4.547 Y11.198 E0.0161
G1 X-10.453 Y11.198 E0.1964
G1 X-10.930 Y11.123 E0.0161
G1 X-11.319 Y10.925 E0.0145
G1 X-11.627 Y10.617 E0.0145
G1 X-11.816 Y10.244 E0.0139
G1 X-11.900 Y9.748 E0.0167
G1 X-11.900 Y-9.751 E0.6485
G1 X-11.824 Y-10.229 E0.0161
G1 X-11.627 Y-10.617 E0.0145
G1 X-11.318 Y-10.925 E0.0145
G1 X-10.930 Y-11.123 E0.0145
G1 X-10.453 Y-11.198 E0.0161
G1 X-4.547 Y-11.198 E0.1964
G1 X-4.070 Y-11.123 E0.0161
G1 X-3.682 Y-10.925 E0.0145
G1 X-3.373 Y-10.617 E0.0145
G1 X-3.176 Y-10.229 E0.0145
G1 X-3.100 Y-9.751 E0.0161
; feature outer perimeter
G1 X-2.700 Y-9.782 F9000
G1 X-2.700 Y9.782 E0.6507 F1200
G1 X-2.790 Y10.354 E0.0192
G1 X-3.046 Y10.855 E0.0187
G1 X-3.443 Y11.252 E0.0187
G1 X-3.945 Y11.508 E0.0187
G1 X-4.516 Y11.598 E0.0192
G1 X-10.484 Y11.598 E0.1985
G1 X-11.055 Y11.508 E0.0192
G1 X-11.557 Y11.252 E0.0187
G1 X-11.954 Y10.855 E0.0187
G1 X-12.200 Y10.371 E0.0180
G1 X-12.300 Y9.781 E0.0199
G1 X-12.300 Y-9.782 E0.6507
G1 X-12.210 Y-10.354 E0.0192
G1 X-11.954 Y-10.855 E0.0187
G1 X-11.557 Y-11.252 E0.0187
G1 X-11.055 Y-11.508 E0.0187
G1 X-10.484 Y-11.598 E0.0192
G1 X-4.516 Y-11.598 E0.1985
G1 X-3.945 Y-11.508 E0.0192
G1 X-3.443 Y-11.252 E0.0187
G1 X-3.046 Y-10.855 E0.0187
G1 X-2.790 Y-10.354 E0.0187
G1 X-2.700 Y-9.782 E0.0192
; feature solid layer
G1 X-3.877 Y-10.665 F9000
G1 X-3.633 Y-10.421 E0.0115 F2400
G1 X-3.484 Y-10.128 E0.0109
G1 X-3.420 Y-9.726 E0.0136
G1 X-3.420 Y-9.643 E0.0028
G1 X-4.656 Y-10.878 E0.0581
G1 X-5.221 Y-10.878 E0.0188
G1 X-3.420 Y-9.077 E0.0847
G1 X-3.420 Y-8.511 E0.0188
G1 X-5.787 Y-10.878 E0.1113
G1 X-6.353 Y-10.878 E0.0188
G1 X-3.420 Y-7.945 E0.1379
G1 X-3.420 Y-7.380 E0.0188
G1 X-6.918 Y-10.878 E0.1646
G1 X-7.484 Y-10.878 E0.0188
G1 X-3.420 Y-6.814 E0.1912
G1 X-3.420 Y-6.248 E0.0188
G1 X-8.050 Y-10.878 E0.2178
G1 X-8.615 Y-10.878 E0.0188
G1 X-3.420 Y-5.683 E0.2444
G1 X-3.420 Y-5.117 E0.0188
G1 X-9.181 Y-10.878 E0.2710
G1 X-9.747 Y-10.878 E0.0188
G1 X-3.420 Y-4.551 E0.2976
G1 X-3.420 Y-3.986 E0.0188
G1 X-10.313 Y-10.878 E0.3242
G1 X-10.428 Y-10.878 E0.0038
G1 X-10.817 Y-10.817 E0.0131
G1 X-3.420 Y-3.420 E0.3479
G1 X-3.420 Y-2.854 E0.0188
G1 X-11.178 Y-10.613 E0.3649
G1 X-11.364 Y-10.426 E0.0088
G1 X-11.430 Y-10.298 E0.0048
G1 X-3.420 Y-2.289 E0.3767
G1 X-3.420 Y-1.723 E0.0188
G1 X-11.558 Y-9.861 E0.3828
G1 X-11.580 Y-9.726 E0.0046
G1 X-11.580 Y-9.317 E0.0136
G1 X-3.420 Y-1.157 E0.3838
G1 X-3.420 Y-0.592 E0.0188
G1 X-11.580 Y-8.752 E0.3838
G1 X-11.580 Y-8.186 E0.0188
G1 X-3.420 Y-0.026 E0.3838
G1 X-3.420 Y0.540 E0.0188
G1 X-11.580 Y-7.620 E0.3838
G1 X-11.580 Y-7.055 E0.0188
G1 X-3.420 Y1.105 E0.3838
G1 X-3.420 Y1.671 E0.0188
G1 X-11.580 Y-6.489 E0.3838
G1 X-11.580 Y-5.923 E0.0188
G1 X-3.420 Y2.237 E0.3838
G1 X-3.420 Y2.803 E0.0188
G1 X-11.580 Y-5.357 E0.3838
G1 X-11.580 Y-4.792 E0.0188
G1 X-3.420 Y3.368 E0.3838
G1 X-3.420 Y3.934 E0.0188
G1 X-11.580 Y-4.226 E0.3838
G1 X-11.580 Y-3.660 E0.0188
G1 X-3.420 Y4.500 E0.3838
G1 X-3.420 Y5.065 E0.0188
G1 X-11.580 Y-3.095 E0.3838
G1 X-11.580 Y-2.529 E0.0188
G1 X-3.420 Y5.631 E0.3838
G1 X-3.420 Y6.197 E0.0188
G1 X-11.580 Y-1.963 E0.3838
G1 X-11.580 Y-1.398 E0.0188
G1 X-3.420 Y6.762 E0.3838
G1 X-3.420 Y7.328 E0.0188
G1 X-11.580 Y-0.832 E0.3838
G1 X-11.580 Y-0.266 E0.0188
G1 X-3.420 Y7.894 E0.3838
G1 X-3.420 Y8.459 E0.0188
G1 X-11.580 Y0.299 E0.3838
G1 X-11.580 Y0.865 E0.0188
G1 X-3.420 Y9.025 E0.3838
G1 X-3.420 Y9.591 E0.0188
G1 X-11.580 Y1.431 E0.3838
G1 X-11.580 Y1.996 E0.0188
G1 X-3.479 Y10.098 E0.3811
G1 X-3.484 Y10.128 E0.0010
G1 X-3.636 Y10.426 E0.0111
G1 X-3.676 Y10.466 E0.0019
G1 X-11.580 Y2.562 E0.3718
G1 X-11.580 Y3.128 E0.0188
G1 X-3.987 Y10.721 E0.3572
G1 X-4.170 Y10.814 E0.0068
G1 X-4.420 Y10.854 E0.0084
G1 X-11.580 Y3.694 E0.3368
G1 X-11.580 Y4.259 E0.0188
G1 X-4.961 Y10.878 E0.3113
G1 X-5.527 Y10.878 E0.0188
G1 X-11.580 Y4.825 E0.2847
G1 X-11.580 Y5.391 E0.0188
G1 X-6.092 Y10.878 E0.2581
G1 X-6.658 Y10.878 E0.0188
G1 X-11.580 Y5.956 E0.2315
G1 X-11.580 Y6.522 E0.0188
G1 X-7.224 Y10.878 E0.2049
G1 X-7.789 Y10.878 E0.0188
G1 X-11.580 Y7.088 E0.1783
G1 X-11.580 Y7.653 E0.0188
G1 X-8.355 Y10.878 E0.1517
G1 X-8.921 Y10.878 E0.0188
G1 X-11.580 Y8.219 E0.1251
G1 X-11.580 Y8.785 E0.0188
G1 X-9.486 Y10.878 E0.0985
G1 X-10.052 Y10.878 E0.0188
G1 X-11.580 Y9.350 E0.0719
G1 X-11.580 Y9.721 E0.0123
G1 X-11.540 Y9.956 E0.0079
G1 X-10.654 Y10.842 E0.0417
G1 E-1.9000 F1200
; feature inner perimeter
G1 Z0.700 F1200
G1 X11.900 Y-9.751 F9000
G1 Z0.200 F1200
G1 E1.9000 F1200
G1 X11.900 Y9.751 E0.6486 F1800
G1 X11.824 Y10.229 E0.0161
G1 X11.627 Y10.617 E0.0145
G1 X11.318 Y10.925 E0.0145
G1 X10.930 Y11.123 E0.0145
G1 X10.453 Y11.198 E0.0161
G1 X4.547 Y11.198 E0.1964
G1 X4.070 Y11.123 E0.0161
G1 X3.681 Y10.925 E0.0145
G1 X3.373 Y10.617 E0.0145
G1 X3.184 Y10.244 E0.0139
G1 X3.100 Y9.748 E0.0167
G1 X3.100 Y-9.751 E0.6485
G1 X3.176 Y-10.229 E0.0161
G1 X3.373 Y-10.617 E0.0145
G1 X3.682 Y-10.925 E0.0145
G1 X4.070 Y-11.123 E0.0145
G1 X4.547 Y-11.198 E0.0161
G1 X10.453 Y-11.198 E0.1964
G1 X10.930 Y-11.123 E0.0161
G1 X11.318 Y-10.925 E0.0145
G1 X11.627 Y-10.617 E0.0145
G1 X11.824 Y-10.229 E0.0145
G1 X11.900 Y-9.751 E0.0161
; feature outer perimeter
G1 X12.300 Y-9.782 F9000
G1 X12.300 Y9.782 E0.6507 F1200
G1 X12.210 Y10.354 E0.0192
G1 X11.954 Y10.855 E0.0187
G1 X11.557 Y11.252 E0.0187
G1 X11.055 Y11.508 E0.0187
G1 X10.484 Y11.598 E0.0192
G1 X4.516 Y11.598 E0.1985
G1 X3.945 Y11.508 E0.0192
G1 X3.443 Y11.252 E0.0187
G1 X3.046 Y10.855 E0.0187
G1 X2.799 Y10.371 E0.0180
G1 X2.700 Y9.781 E0.0199
G1 X2.700 Y-9.782 E0.6507
G1 X2.790 Y-10.354 E0.0192
G1 X3.046 Y-10.855 E0.0187
G1 X3.443 Y-11.252 E0.0187
G1 X3.945 Y-11.508 E0.0187
G1 X4.516 Y-11.598 E0.0192
G1 X10.484 Y-11.598 E0.1985
G1 X11.055 Y-11.508 E0.0192
G1 X11.557 Y-11.252 E0.0187
G1 X11.954 Y-10.855 E0.0187
G1 X12.210 Y-10.354 E0.0187
G1 X12.300 Y-9.782 E0.0192
; feature solid layer
G1 X10.654 Y-10.842 F9000
G1 X11.544 Y-9.952 E0.0419 F2400
G1 X11.580 Y-9.726 E0.0076
G1 X11.580 Y-9.350 E0.0125
G1 X10.052 Y-10.878 E0.0719
G1 X9.486 Y-10.878 E0.0188
G1 X11.580 Y-8.785 E0.0985
G1 X11.580 Y-8.219 E0.0188
G1 X8.921 Y-10.878 E0.1251
G1 X8.355 Y-10.878 E0.0188
G1 X11.580 Y-7.653 E0.1517
G1 X11.580 Y-7.088 E0.0188
G1 X7.789 Y-10.878 E0.1783
G1 X7.224 Y-10.878 E0.0188
G1 X11.580 Y-6.522 E0.2049
G1 X11.580 Y-5.956 E0.0188
G1 X6.658 Y-10.878 E0.2315
G1 X6.092 Y-10.878 E0.0188
G1 X11.580 Y-5.391 E0.2581
G1 X11.580 Y-4.825 E0.0188
G1 X5.527 Y-10.878 E0.2847
G1 X4.961 Y-10.878 E0.0188
G1 X11.580 Y-4.259 E0.3113
G1 X11.580 Y-3.694 E0.0188
G1 X4.420 Y-10.854 E0.3368
G1 X4.170 Y-10.814 E0.0084
G1 X3.987 Y-10.721 E0.0068
G1 X11.580 Y-3.128 E0.3572
G1 X11.580 Y-2.562 E0.0188
G1 X3.676 Y-10.466 E0.3718
G1 X3.636 Y-10.426 E0.0019
G1 X3.484 Y-10.128 E0.0111
G1 X3.479 Y-10.098 E0.0010
G1 X11.580 Y-1.996 E0.3811
G1 X11.580 Y-1.431 E0.0188
G1 X3.420 Y-9.591 E0.3838
G1 X3.420 Y-9.025 E0.0188
G1 X11.580 Y-0.865 E0.3838
G1 X11.580 Y-0.299 E0.0188
G1 X3.420 Y-8.459 E0.3838
G1 X3.420 Y-7.894 E0.0188
G1 X11.580 Y0.266 E0.3838
G1 X11.580 Y0.832 E0.0188
G1 X3.420 Y-7.328 E0.3838
G1 X3.420 Y-6.762 E0.0188
G1 X11.580 Y1.398 E0.3838
G1 X11.580 Y1.963 E0.0188
G1 X3.420 Y-6.197 E0.3838
G1 X3.420 Y-5.631 E0.0188
G1 X11.580 Y2.529 E0.3838
G1 X11.580 Y3.095 E0.0188
G1 X3.420 Y-5.065 E0.3838
G1 X3.420 Y-4.500 E0.0188
G1 X11.580 Y3.660 E0.3838
G1 X11.580 Y4.226 E0.0188
G1 X3.420 Y-3.934 E0.3838
G1 X3.420 Y-3.368 E0.0188
G1 X11.580 Y4.792 E0.3838
G1 X11.580 Y5.357 E0.0188
G1 X3.420 Y-2.803 E0.3838
G1 X3.420 Y-2.237 E0.0188
G1 X11.580 Y5.923 E0.3838
G1 X11.580 Y6.489 E0.0188
G1 X3.420 Y-1.671 E0.3838
G1 X3.420 Y-1.105 E0.0188
G1 X11.580 Y7.054 E0.3838
G1 X11.580 Y7.620 E0.0188
G1 X3.420 Y-0.540 E0.3838
G1 X3.420 Y0.026 E0.0188
G1 X11.580 Y8.186 E0.3838
G1 X11.580 Y8.752 E0.0188
G1 X3.420 Y0.592 E0.3838
G1 X3.420 Y1.157 E0.0188
G1 X11.580 Y9.317 E0.3838
G1 X11.580 Y9.726 E0.0136
G1 X11.559 Y9.861 E0.0046
G1 X3.420 Y1.723 E0.3828
G1 X3.420 Y2.289 E0.0188
G1 X11.430 Y10.298 E0.3768
G1 X11.364 Y10.426 E0.0048
G1 X11.178 Y10.613 E0.0088
G1 X3.420 Y2.854 E0.3649
G1 X3.420 Y3.420 E0.0188
G1 X10.817 Y10.817 E0.3479
G1 X10.428 Y10.878 E0.0131
G1 X10.313 Y10.878 E0.0038
G1 X3.420 Y3.986 E0.3242
G1 X3.420 Y4.551 E0.0188
G1 X9.747 Y10.878 E0.2976
G1 X9.181 Y10.878 E0.0188
G1 X3.420 Y5.117 E0.2710
G1 X3.420 Y5.683 E0.0188
G1 X8.615 Y10.878 E0.2444
G1 X8.050 Y10.878 E0.0188
G1 X3.420 Y6.248 E0.2178
G1 X3.420 Y6.814 E0.0188
G1 X7.484 Y10.878 E0.1912
