; G-Code generated by Simplify3D(R) Version 4.1.2
; Apr 20, 2020 at 10:26:52 AM
; Settings Summary
;   processName,Process1
;   applyToModels,Scoop BracketV1R2,Scoop BracketV1R2(2),Scoop BracketV1R2(3),Scoop BracketV1R2(2)(2),Scoop BracketV1R2(4),Scoop BracketV1R2(2)(3),Scoop BracketV1R2(3)(2),Scoop BracketV1R2(2)(2)(2),Scoop BracketV1R2(3)(2)(2),Scoop BracketV1R2(2)(2)(2)(2),Scoop BracketV1R2(5),Scoop BracketV1R2(2)(4),Scoop BracketV1R2(3)(3),Scoop BracketV1R2(2)(2)(3),Scoop BracketV1R2(4)(2),Scoop BracketV1R2(2)(3)(2),Scoop BracketV1R2(3)(2)(3),Scoop BracketV1R2(2)(2)(2)(3),Scoop BracketV1R2(3)(2)(2)(2),Scoop BracketV1R2(2)(2)(2)(2)(2)
;   profileName,MakerBot Replicator 2 HBP (modified)
;   profileVersion,2019-10-28 12:37:50
;   baseProfile,MakerBot Replicator 2(2)
;   printMaterial,PLA
;   printQuality,Medium
;   printExtruders,
;   extruderName,Primary Extruder
;   extruderToolheadNumber,0
;   extruderDiameter,0.4
;   extruderAutoWidth,0
;   extruderWidth,0.4
;   extrusionMultiplier,1
;   extruderUseRetract,1
;   extruderRetractionDistance,1.9
;   extruderExtraRestartDistance,0
;   extruderRetractionZLift,0.5
;   extruderRetractionSpeed,1200
;   extruderUseCoasting,0
;   extruderCoastingDistance,0.2
;   extruderUseWipe,0
;   extruderWipeDistance,5
;   primaryExtruder,0
;   layerHeight,0.2
;   topSolidLayers,3
;   bottomSolidLayers,3
;   perimeterOutlines,2
;   printPerimetersInsideOut,1
;   startPointOption,3
;   startPointOriginX,140
;   startPointOriginY,0
;   sequentialIslands,0
;   spiralVaseMode,0
;   firstLayerHeightPercentage,100
;   firstLayerWidthPercentage,100
;   firstLayerUnderspeed,0.5
;   useRaft,0
;   raftExtruder,0
;   raftTopLayers,2
;   raftBaseLayers,1
;   raftOffset,1
;   raftSeparationDistance,0.14
;   raftTopInfill,90
;   aboveRaftSpeedMultiplier,0.3
;   useSkirt,0
;   skirtExtruder,0
;   skirtLayers,1
;   skirtOutlines,5
;   skirtOffset,0
;   usePrimePillar,0
;   primePillarExtruder,999
;   primePillarWidth,12
;   primePillarLocation,7
;   primePillarSpeedMultiplier,1
;   useOozeShield,0
;   oozeShieldExtruder,999
;   oozeShieldOffset,2
;   oozeShieldOutlines,1
;   oozeShieldSidewallShape,1
;   oozeShieldSidewallAngle,30
;   oozeShieldSpeedMultiplier,1
;   infillExtruder,0
;   internalInfillPattern,Rectilinear
;   externalInfillPattern,Rectilinear
;   infillPercentage,15
;   outlineOverlapPercentage,20
;   infillExtrusionWidthPercentage,100
;   minInfillLength,5
;   infillLayerInterval,1
;   internalInfillAngles,45,-45
;   overlapInternalInfillAngles,0
;   externalInfillAngles,45,-45
;   generateSupport,1
;   supportExtruder,0
;   supportInfillPercentage,20
;   supportExtraInflation,0.5
;   supportBaseLayers,0
;   denseSupportExtruder,0
;   denseSupportLayers,2
;   denseSupportInfillPercentage,70
;   supportLayerInterval,1
;   supportHorizontalPartOffset,0.3
;   supportUpperSeparationLayers,1
;   supportLowerSeparationLayers,1
;   supportType,0
;   supportGridSpacing,2
;   maxOverhangAngle,45
;   supportAngles,0
;   temperatureName,Primary Extruder,Heated Build Platform
;   temperatureNumber,0,0
;   temperatureSetpointCount,1,1
;   temperatureSetpointLayers,1,1
;   temperatureSetpointTemperatures,230,60
;   temperatureStabilizeAtStartup,1,1
;   temperatureHeatedBed,0,1
;   fanLayers,1,2
;   fanSpeeds,0,100
;   blipFanToFullPower,1
;   adjustSpeedForCooling,1
;   minSpeedLayerTime,15
;   minCoolingSpeedSlowdown,20
;   increaseFanForCooling,1
;   minFanLayerTime,45
;   maxCoolingFanSpeed,100
;   increaseFanForBridging,1
;   bridgingFanSpeed,100
;   use5D,1
;   relativeEdistances,1
;   allowEaxisZeroing,0
;   independentExtruderAxes,1
;   includeM10123,0
;   stickySupport,1
;   applyToolheadOffsets,0
;   gcodeXoffset,0
;   gcodeYoffset,0
;   gcodeZoffset,0
;   overrideMachineDefinition,1
;   machineTypeOverride,0
;   strokeXoverride,280
;   strokeYoverride,150
;   strokeZoverride,150
;   originOffsetXoverride,140
;   originOffsetYoverride,75
;   originOffsetZoverride,0
;   homeXdirOverride,1
;   homeYdirOverride,1
;   homeZdirOverride,-1
;   flipXoverride,1
;   flipYoverride,-1
;   flipZoverride,1
;   toolheadOffsets,0,0|0,0|0,0|0,0|0,0|0,0
;   overrideFirmwareConfiguration,1
;   firmwareTypeOverride,MakerBot/Sailfish Firmware
;   GPXconfigOverride,r2h
;   baudRateOverride,115200
;   overridePrinterModels,1
;   printerModelsOverride,MakerBot_Replicator2.stl
;   startingGcode,; **** Replicator 2 start.gcode ****,M73 P0 ; enable build progress,G162 X Y F3000 ; home XY maximum,G161 Z F1200 ; home Z minimum,G92 Z-5 ; set Z to -5,G1 Z0 ; move Z to 0,G161 Z F100 ; home Z slowly,M132 X Y Z A B ; recall home offsets,G1 X-145 Y-75 Z30 F9000 ; move to wait position off table,G130 X20 Y20 Z20 A20 B20 ; lower stepper Vrefs while heating,M126 S[fan_speed_pwm],M140 S[bed0_temperature] T0,M134 T0 ; stabilize bed temperature,M104 S[extruder0_temperature] T0,M133 T0 ; stabilize extruder temperature,G130 X127 Y127 Z40 A127 B127 ; default stepper Vrefs,G92 A0 ; zero extruder,G1 Z0.4 ; position nozzle,G1 E25 F300 ; purge nozzle,G1 X-140 Y-70 Z0.15 F1200 ; slow wipe,G1 X-135 Y-65 Z0.5 F1200 ; lift,G92 A0 ; zero extruder,M73 P1 ;@body (notify GPX body has started),; **** end of start.gcode ****
;   layerChangeGcode,
;   retractionGcode,
;   toolChangeGcode,
;   endingGcode,; **** Replicator 2 end.gcode ****,M73 P100 ; end build progress,G1 Z155 F1000 ; send Z axis to bottom of machine,M104 S0 T0 ; cool down extruder,M140 S0 T0 ; cool down HBP,M127 ; stop blower fan,G162 X Y F3000 ; home XY maximum,M18 ; disable stepper,M0 ; stop codes,M72 P1 ; play Ta-Da song,; **** end of end.gcode ****
;   exportFileFormat,gcode
;   celebration,0
;   celebrationSong,Random Song
;   postProcessing,
;   defaultSpeed,4800
;   outlineUnderspeed,0.5
;   solidInfillUnderspeed,1
;   supportUnderspeed,1
;   rapidXYspeed,9000
;   rapidZspeed,1200
;   minBridgingArea,50
;   bridgingExtraInflation,0
;   bridgingExtrusionMultiplier,1
;   bridgingSpeedMultiplier,0.8
;   useFixedBridgingAngle,0
;   fixedBridgingAngle,0
;   applyBridgingToPerimeters,0
;   filamentDiameters,1.75|1.75|1.75|1.75|1.75|1.75
;   filamentPricesPerKg,46|46|46|46|46|46
;   filamentDensities,1.25|1.25|1.25|1.25|1.25|1.25
;   useMinPrintHeight,0
;   minPrintHeight,0
;   useMaxPrintHeight,0
;   maxPrintHeight,4.84
;   useDiaphragm,0
;   diaphragmLayerInterval,20
;   robustSlicing,1
;   mergeAllIntoSolid,0
;   onlyRetractWhenCrossingOutline,0
;   retractBetweenLayers,0
;   useRetractionMinTravel,1
;   retractionMinTravel,7
;   retractWhileWiping,1
;   onlyWipeOutlines,1
;   avoidCrossingOutline,0
;   maxMovementDetourFactor,3
;   toolChangeRetractionDistance,12
;   toolChangeExtraRestartDistance,-0.5
;   toolChangeRetractionSpeed,600
;   externalThinWallType,0
;   internalThinWallType,0
;   thinWallAllowedOverlapPercentage,10
;   singleExtrusionMinLength,1
;   singleExtrusionMinPrintingWidthPercentage,50
;   singleExtrusionMaxPrintingWidthPercentage,200
;   singleExtrusionEndpointExtension,0.2
;   horizontalSizeCompensation,0
G90
M83
; **** Replicator 2 start.gcode ****
M73 P0 ; enable build progress
G162 X Y F3000 ; home XY maximum
G161 Z F1200 ; home Z minimum
G92 Z-5 ; set Z to -5
G1 Z0 ; move Z to 0
G161 Z F100 ; home Z slowly
M132 X Y Z A B ; recall home offsets
G1 X-145 Y-75 Z30 F9000 ; move to wait position off table
G130 X20 Y20 Z20 A20 B20 ; lower stepper Vrefs while heating
M127
M140 S60 T0
M134 T0 ; stabilize bed temperature
M104 S230 T0
M133 T0 ; stabilize extruder temperature
G130 X127 Y127 Z40 A127 B127 ; default stepper Vrefs
G92 A0 ; zero extruder
G1 Z0.4 ; position nozzle
G1 E25 F300 ; purge nozzle
G1 X-140 Y-70 Z0.15 F1200 ; slow wipe
G1 X-135 Y-65 Z0.5 F1200 ; lift
G92 A0 ; zero extruder
M73 P1 ;@body (notify GPX body has started)
; **** end of start.gcode ****
; process Process1
; layer 1, Z = 0.200
M135 T0
G1 E-1.9000 F1200
; feature inner perimeter
; tool H0.200 W0.400
G1 Z0.500 F1200
G1 X-3.100 Y-4.547 F9000
G1 Z0.200 F1200
G1 E1.9000 F1200
G1 X-3.176 Y-4.070 E0.0161 F1800
G1 X-3.373 Y-3.682 E0.0145
G1 X-3.682 Y-3.373 E0.0145
G1 X-4.070 Y-3.176 E0.0145
G1 X-4.547 Y-3.100 E0.0161
G1 X-10.453 Y-3.100 E0.1964
G1 X-10.930 Y-3.176 E0.0161
G1 X-11.319 Y-3.373 E0.0145
G1 X-11.627 Y-3.681 E0.0145
G1 X-11.824 Y-4.070 E0.0145
G1 X-11.900 Y-4.547 E0.0161
G1 X-11.900 Y-24.049 E0.6486
G1 X-11.824 Y-24.527 E0.0161
G1 X-11.627 Y-24.915 E0.0145
G1 X-11.318 Y-25.223 E0.0145
G1 X-10.930 Y-25.421 E0.0145
G1 X-10.453 Y-25.496 E0.0161
G1 X-4.547 Y-25.496 E0.1964
G1 X-4.070 Y-25.421 E0.0161
G1 X-3.682 Y-25.223 E0.0145
G1 X-3.373 Y-24.915 E0.0145
G1 X-3.176 Y-24.527 E0.0145
G1 X-3.100 Y-24.049 E0.0161
G1 X-3.100 Y-4.547 E0.6486
; feature outer perimeter
G1 X-2.700 Y-4.516 F9000
G1 X-2.790 Y-3.945 E0.0192 F1200
G1 X-3.046 Y-3.443 E0.0187
G1 X-3.443 Y-3.046 E0.0187
G1 X-3.945 Y-2.790 E0.0187
G1 X-4.516 Y-2.700 E0.0192
G1 X-10.484 Y-2.700 E0.1985
G1 X-11.055 Y-2.790 E0.0192
G1 X-11.557 Y-3.046 E0.0187
G1 X-11.954 Y-3.443 E0.0187
G1 X-12.210 Y-3.945 E0.0187
G1 X-12.300 Y-4.516 E0.0192
G1 X-12.300 Y-24.081 E0.6507
G1 X-12.210 Y-24.652 E0.0192
G1 X-11.954 Y-25.153 E0.0187
G1 X-11.557 Y-25.551 E0.0187
G1 X-11.055 Y-25.806 E0.0187
G1 X-10.484 Y-25.896 E0.0192
G1 X-4.516 Y-25.896 E0.1985
G1 X-3.945 Y-25.806 E0.0192
G1 X-3.443 Y-25.551 E0.0187
G1 X-3.046 Y-25.153 E0.0187
G1 X-2.790 Y-24.652 E0.0187
G1 X-2.700 Y-24.081 E0.0192
G1 X-2.700 Y-4.516 E0.6507
G1 E-1.9000 F1200
; feature solid layer
G1 Z0.700 F1200
G1 X-10.845 Y-3.492 F9000
G1 Z0.200 F1200
G1 E1.9000 F1200
G1 X-11.508 Y-4.155 E0.0312 F2400
G1 X-11.516 Y-4.170 E0.0006
G1 X-11.580 Y-4.572 E0.0136
G1 X-11.580 Y-4.792 E0.0073
G1 X-10.208 Y-3.420 E0.0645
G1 X-9.643 Y-3.420 E0.0188
G1 X-11.580 Y-5.357 E0.0911
G1 X-11.580 Y-5.923 E0.0188
G1 X-9.077 Y-3.420 E0.1177
G1 X-8.511 Y-3.420 E0.0188
G1 X-11.580 Y-6.489 E0.1443
G1 X-11.580 Y-7.055 E0.0188
G1 X-7.945 Y-3.420 E0.1710
G1 X-7.380 Y-3.420 E0.0188
G1 X-11.580 Y-7.620 E0.1976
G1 X-11.580 Y-8.186 E0.0188
G1 X-6.814 Y-3.420 E0.2242
G1 X-6.248 Y-3.420 E0.0188
G1 X-11.580 Y-8.752 E0.2508
G1 X-11.580 Y-9.317 E0.0188
G1 X-5.683 Y-3.420 E0.2774
G1 X-5.117 Y-3.420 E0.0188
G1 X-11.580 Y-9.883 E0.3040
G1 X-11.580 Y-10.449 E0.0188
G1 X-4.554 Y-3.423 E0.3305
G1 X-4.170 Y-3.484 E0.0129
G1 X-4.090 Y-3.524 E0.0030
G1 X-11.580 Y-11.014 E0.3523
G1 X-11.580 Y-11.580 E0.0188
G1 X-3.754 Y-3.754 E0.3681
G1 X-3.636 Y-3.872 E0.0056
G1 X-3.524 Y-4.090 E0.0081
G1 X-11.580 Y-12.146 E0.3789
G1 X-11.580 Y-12.711 E0.0188
G1 X-3.423 Y-4.554 E0.3837
G1 X-3.420 Y-4.572 E0.0006
G1 X-3.420 Y-5.117 E0.0181
G1 X-11.580 Y-13.277 E0.3838
G1 X-11.580 Y-13.843 E0.0188
G1 X-3.420 Y-5.683 E0.3838
G1 X-3.420 Y-6.248 E0.0188
G1 X-11.580 Y-14.408 E0.3838
G1 X-11.580 Y-14.974 E0.0188
G1 X-3.420 Y-6.814 E0.3838
G1 X-3.420 Y-7.380 E0.0188
G1 X-11.580 Y-15.540 E0.3838
G1 X-11.580 Y-16.105 E0.0188
G1 X-3.420 Y-7.945 E0.3838
G1 X-3.420 Y-8.511 E0.0188
G1 X-11.580 Y-16.671 E0.3838
G1 X-11.580 Y-17.237 E0.0188
G1 X-3.420 Y-9.077 E0.3838
G1 X-3.420 Y-9.643 E0.0188
G1 X-11.580 Y-17.803 E0.3838
G1 X-11.580 Y-18.368 E0.0188
G1 X-3.420 Y-10.208 E0.3838
G1 X-3.420 Y-10.774 E0.0188
G1 X-11.580 Y-18.934 E0.3838
G1 X-11.580 Y-19.500 E0.0188
G1 X-3.420 Y-11.340 E0.3838
G1 X-3.420 Y-11.905 E0.0188
G1 X-11.580 Y-20.065 E0.3838
G1 X-11.580 Y-20.631 E0.0188
G1 X-3.420 Y-12.471 E0.3838
G1 X-3.420 Y-13.037 E0.0188
G1 X-11.580 Y-21.197 E0.3838
G1 X-11.580 Y-21.762 E0.0188
G1 X-3.420 Y-13.602 E0.3838
G1 X-3.420 Y-14.168 E0.0188
G1 X-11.580 Y-22.328 E0.3838
G1 X-11.580 Y-22.894 E0.0188
G1 X-3.420 Y-14.734 E0.3838
G1 X-3.420 Y-15.299 E0.0188
G1 X-11.580 Y-23.459 E0.3838
G1 X-11.580 Y-24.024 E0.0188
G1 X-3.420 Y-15.865 E0.3838
G1 X-3.420 Y-16.431 E0.0188
G1 X-11.482 Y-24.493 E0.3792
G1 X-11.364 Y-24.724 E0.0086
G1 X-11.256 Y-24.833 E0.0051
G1 X-3.420 Y-16.996 E0.3686
G1 X-3.420 Y-17.562 E0.0188
G1 X-10.923 Y-25.065 E0.3529
G1 X-10.830 Y-25.113 E0.0035
G1 X-10.463 Y-25.171 E0.0124
G1 X-3.420 Y-18.128 E0.3313
G1 X-3.420 Y-18.694 E0.0188
G1 X-9.903 Y-25.176 E0.3049
G1 X-9.337 Y-25.176 E0.0188
G1 X-3.420 Y-19.259 E0.2783
G1 X-3.420 Y-19.825 E0.0188
G1 X-8.772 Y-25.176 E0.2517
G1 X-8.206 Y-25.176 E0.0188
G1 X-3.420 Y-20.391 E0.2251
G1 X-3.420 Y-20.956 E0.0188
G1 X-7.640 Y-25.176 E0.1985
G1 X-7.074 Y-25.176 E0.0188
G1 X-3.420 Y-21.522 E0.1719
G1 X-3.420 Y-22.088 E0.0188
G1 X-6.509 Y-25.176 E0.1453
G1 X-5.943 Y-25.176 E0.0188
G1 X-3.420 Y-22.653 E0.1187
G1 X-3.420 Y-23.219 E0.0188
G1 X-5.377 Y-25.176 E0.0921
G1 X-4.812 Y-25.176 E0.0188
G1 X-3.420 Y-23.785 E0.0655
G1 X-3.420 Y-24.024 E0.0080
G1 X-3.481 Y-24.412 E0.0131
G1 X-4.185 Y-25.115 E0.0331
G1 E-1.9000 F1200
; feature inner perimeter
G1 Z0.700 F1200
G1 X11.900 Y-4.547 F9000
G1 Z0.200 F1200
G1 E1.9000 F1200
G1 X11.824 Y-4.070 E0.0161 F1800
G1 X11.627 Y-3.682 E0.0145
G1 X11.318 Y-3.373 E0.0145
G1 X10.930 Y-3.176 E0.0145
G1 X10.453 Y-3.100 E0.0161
G1 X4.547 Y-3.100 E0.1964
G1 X4.070 Y-3.176 E0.0161
G1 X3.681 Y-3.373 E0.0145
G1 X3.373 Y-3.681 E0.0145
G1 X3.184 Y-4.054 E0.0139
G1 X3.100 Y-4.550 E0.0167
G1 X3.100 Y-24.049 E0.6485
G1 X3.176 Y-24.527 E0.0161
G1 X3.373 Y-24.915 E0.0145
G1 X3.681 Y-25.223 E0.0145
G1 X4.070 Y-25.421 E0.0145
G1 X4.547 Y-25.496 E0.0161
G1 X10.453 Y-25.496 E0.1964
G1 X10.930 Y-25.421 E0.0161
G1 X11.319 Y-25.223 E0.0145
G1 X11.627 Y-24.915 E0.0145
G1 X11.824 Y-24.527 E0.0145
G1 X11.900 Y-24.049 E0.0161
G1 X11.900 Y-4.547 E0.6486
; feature outer perimeter
G1 X12.300 Y-4.516 F9000
G1 X12.210 Y-3.945 E0.0192 F1200
G1 X11.954 Y-3.443 E0.0187
G1 X11.557 Y-3.046 E0.0187
G1 X11.055 Y-2.790 E0.0187
G1 X10.484 Y-2.700 E0.0192
G1 X4.516 Y-2.700 E0.1985
G1 X3.945 Y-2.790 E0.0192
G1 X3.443 Y-3.046 E0.0187
G1 X3.046 Y-3.443 E0.0187
G1 X2.799 Y-3.927 E0.0180
G1 X2.700 Y-4.517 E0.0199
G1 X2.700 Y-24.081 E0.6507
G1 X2.790 Y-24.652 E0.0192
G1 X3.046 Y-25.153 E0.0187
G1 X3.443 Y-25.551 E0.0187
G1 X3.945 Y-25.806 E0.0187
G1 X4.516 Y-25.896 E0.0192
G1 X10.484 Y-25.896 E0.1985
G1 X11.055 Y-25.806 E0.0192
G1 X11.557 Y-25.551 E0.0187
G1 X11.954 Y-25.153 E0.0187
G1 X12.210 Y-24.652 E0.0187
G1 X12.300 Y-24.081 E0.0192
G1 X12.300 Y-4.516 E0.6507
G1 E-1.9000 F1200
; feature solid layer
G1 Z0.700 F1200
G1 X3.436 Y-4.484 F9000
G1 Z0.200 F1200
G1 E1.9000 F1200
G1 X4.486 Y-3.434 E0.0494 F2400
G1 X4.572 Y-3.420 E0.0029
G1 X5.065 Y-3.420 E0.0164
G1 X3.420 Y-5.065 E0.0774
G1 X3.420 Y-5.631 E0.0188
G1 X5.631 Y-3.420 E0.1040
G1 X6.197 Y-3.420 E0.0188
G1 X3.420 Y-6.197 E0.1306
G1 X3.420 Y-6.762 E0.0188
G1 X6.762 Y-3.420 E0.1572
G1 X7.328 Y-3.420 E0.0188
G1 X3.420 Y-7.328 E0.1838
G1 X3.420 Y-7.894 E0.0188
G1 X7.894 Y-3.420 E0.2104
G1 X8.459 Y-3.420 E0.0188
G1 X3.420 Y-8.459 E0.2370
G1 X3.420 Y-9.025 E0.0188
G1 X9.025 Y-3.420 E0.2636
G1 X9.591 Y-3.420 E0.0188
G1 X3.420 Y-9.591 E0.2903
G1 X3.420 Y-10.156 E0.0188
G1 X10.156 Y-3.420 E0.3169
G1 X10.428 Y-3.420 E0.0090
G1 X10.682 Y-3.460 E0.0086
G1 X3.420 Y-10.722 E0.3416
G1 X3.420 Y-11.288 E0.0188
G1 X11.091 Y-3.617 E0.3608
G1 X11.128 Y-3.636 E0.0014
G1 X11.364 Y-3.872 E0.0111
G1 X11.377 Y-3.897 E0.0009
G1 X3.420 Y-11.854 E0.3743
G1 X3.420 Y-12.419 E0.0188
G1 X11.537 Y-4.302 E0.3818
G1 X11.580 Y-4.572 E0.0091
G1 X11.580 Y-4.825 E0.0084
G1 X3.420 Y-12.985 E0.3838
G1 X3.420 Y-13.551 E0.0188
G1 X11.580 Y-5.391 E0.3838
G1 X11.580 Y-5.956 E0.0188
G1 X3.420 Y-14.116 E0.3838
G1 X3.420 Y-14.682 E0.0188
G1 X11.580 Y-6.522 E0.3838
G1 X11.580 Y-7.088 E0.0188
G1 X3.420 Y-15.248 E0.3838
G1 X3.420 Y-15.813 E0.0188
G1 X11.580 Y-7.653 E0.3838
G1 X11.580 Y-8.219 E0.0188
G1 X3.420 Y-16.379 E0.3838
G1 X3.420 Y-16.945 E0.0188
G1 X11.580 Y-8.785 E0.3838
G1 X11.580 Y-9.350 E0.0188
G1 X3.420 Y-17.510 E0.3838
G1 X3.420 Y-18.076 E0.0188
G1 X11.580 Y-9.916 E0.3838
G1 X11.580 Y-10.482 E0.0188
G1 X3.420 Y-18.642 E0.3838
G1 X3.420 Y-19.207 E0.0188
G1 X11.580 Y-11.047 E0.3838
G1 X11.580 Y-11.613 E0.0188
G1 X3.420 Y-19.773 E0.3838
G1 X3.420 Y-20.339 E0.0188
G1 X11.580 Y-12.179 E0.3838
G1 X11.580 Y-12.744 E0.0188
G1 X3.420 Y-20.904 E0.3838
G1 X3.420 Y-21.470 E0.0188
G1 X11.580 Y-13.310 E0.3838
G1 X11.580 Y-13.876 E0.0188
G1 X3.420 Y-22.036 E0.3838
G1 X3.420 Y-22.602 E0.0188
