; G-Code generated by Simplify3D(R) Version 4.1.2
; Apr 22, 2020 at 1:39:11 PM
; Settings Summary
;   processName,Process1
;   applyToModels,Newton Bracket,Newton plastic
;   profileName,Prusa Research Original Prusa i3 MK3 (modified)
;   profileVersion,2019-10-25 11:33:52
;   baseProfile,
;   printMaterial,PLA
;   printQuality,Medium
;   printExtruders,
;   extruderName,Primary Extruder
;   extruderToolheadNumber,0
;   extruderDiameter,0.4
;   extruderAutoWidth,0
;   extruderWidth,0.4
;   extrusionMultiplier,1
;   extruderUseRetract,1
;   extruderRetractionDistance,1
;   extruderExtraRestartDistance,0
;   extruderRetractionZLift,0
;   extruderRetractionSpeed,2400
;   extruderUseCoasting,1
;   extruderCoastingDistance,0.2
;   extruderUseWipe,1
;   extruderWipeDistance,2
;   primaryExtruder,0
;   layerHeight,0.2
;   topSolidLayers,3
;   bottomSolidLayers,3
;   perimeterOutlines,2
;   printPerimetersInsideOut,0
;   startPointOption,2
;   startPointOriginX,0
;   startPointOriginY,0
;   sequentialIslands,0
;   spiralVaseMode,0
;   firstLayerHeightPercentage,150
;   firstLayerWidthPercentage,100
;   firstLayerUnderspeed,0.5
;   useRaft,0
;   raftExtruder,0
;   raftTopLayers,2
;   raftBaseLayers,1
;   raftOffset,3
;   raftSeparationDistance,0.14
;   raftTopInfill,100
;   aboveRaftSpeedMultiplier,0.3
;   useSkirt,0
;   skirtExtruder,0
;   skirtLayers,1
;   skirtOutlines,3
;   skirtOffset,0
;   usePrimePillar,0
;   primePillarExtruder,999
;   primePillarWidth,12
;   primePillarLocation,7
;   primePillarSpeedMultiplier,1
;   useOozeShield,0
;   oozeShieldExtruder,999
;   oozeShieldOffset,2
;   oozeShieldOutlines,1
;   oozeShieldSidewallShape,1
;   oozeShieldSidewallAngle,30
;   oozeShieldSpeedMultiplier,1
;   infillExtruder,0
;   internalInfillPattern,Rectilinear
;   externalInfillPattern,Rectilinear
;   infillPercentage,15
;   outlineOverlapPercentage,20
;   infillExtrusionWidthPercentage,100
;   minInfillLength,5
;   infillLayerInterval,1
;   internalInfillAngles,45,-45
;   overlapInternalInfillAngles,0
;   externalInfillAngles,45,-45
;   generateSupport,1
;   supportExtruder,0
;   supportInfillPercentage,30
;   supportExtraInflation,0
;   supportBaseLayers,0
;   denseSupportExtruder,0
;   denseSupportLayers,0
;   denseSupportInfillPercentage,70
;   supportLayerInterval,1
;   supportHorizontalPartOffset,0.3
;   supportUpperSeparationLayers,1
;   supportLowerSeparationLayers,1
;   supportType,0
;   supportGridSpacing,4
;   maxOverhangAngle,45
;   supportAngles,90
;   temperatureName,Primary Extruder,Heated Bed
;   temperatureNumber,0,0
;   temperatureSetpointCount,1,1
;   temperatureSetpointLayers,1,1
;   temperatureSetpointTemperatures,200,60
;   temperatureStabilizeAtStartup,1,1
;   temperatureHeatedBed,0,1
;   fanLayers,1,2
;   fanSpeeds,0,100
;   blipFanToFullPower,0
;   adjustSpeedForCooling,1
;   minSpeedLayerTime,15
;   minCoolingSpeedSlowdown,20
;   increaseFanForCooling,0
;   minFanLayerTime,45
;   maxCoolingFanSpeed,100
;   increaseFanForBridging,0
;   bridgingFanSpeed,100
;   use5D,1
;   relativeEdistances,0
;   allowEaxisZeroing,1
;   independentExtruderAxes,0
;   includeM10123,0
;   stickySupport,1
;   applyToolheadOffsets,0
;   gcodeXoffset,0
;   gcodeYoffset,0
;   gcodeZoffset,0
;   overrideMachineDefinition,1
;   machineTypeOverride,0
;   strokeXoverride,250
;   strokeYoverride,210
;   strokeZoverride,210
;   originOffsetXoverride,0
;   originOffsetYoverride,0
;   originOffsetZoverride,0
;   homeXdirOverride,-1
;   homeYdirOverride,-1
;   homeZdirOverride,-1
;   flipXoverride,1
;   flipYoverride,-1
;   flipZoverride,1
;   toolheadOffsets,0,0|0,0|0,0|0,0|0,0|0,0
;   overrideFirmwareConfiguration,1
;   firmwareTypeOverride,RepRap (Marlin/Repetier/Sprinter)
;   GPXconfigOverride,r2
;   baudRateOverride,115200
;   overridePrinterModels,1
;   printerModelsOverride
;   startingGcode,M115 U3.0.7 ; use the latest firmware version,G28 W ; home all axes without mesh bed leveling,G80 ; run mesh bed leveling routine,G1 Y-3.0 F1000.0 ; prepare to prime,G92 E0 ; reset extrusion distance,G1 X60.0 E9.0  F1000.0 ; priming,G1 X100.0 E12.5  F1000.0 ; priming
;   layerChangeGcode,
;   retractionGcode,
;   toolChangeGcode,
;   endingGcode,G4 ; wait,M106 S0 ; turn off cooling fan,M104 S0 ; turn off extruder,M140 S0 ; turn off bed,G1 X0 Y200 ; part removal,M84 ; disable motors
;   exportFileFormat,gcode
;   celebration,0
;   celebrationSong,Random Song
;   postProcessing,
;   defaultSpeed,4800
;   outlineUnderspeed,0.5
;   solidInfillUnderspeed,0.8
;   supportUnderspeed,0.8
;   rapidXYspeed,12000
;   rapidZspeed,1002
;   minBridgingArea,50
;   bridgingExtraInflation,0
;   bridgingExtrusionMultiplier,1
;   bridgingSpeedMultiplier,1
;   useFixedBridgingAngle,0
;   fixedBridgingAngle,0
;   applyBridgingToPerimeters,0
;   filamentDiameters,1.75|1.75|1.75|1.75|1.75|1.75
;   filamentPricesPerKg,46|46|46|46|46|46
;   filamentDensities,1.25|1.25|1.25|1.25|1.25|1.25
;   useMinPrintHeight,0
;   minPrintHeight,0
;   useMaxPrintHeight,0
;   maxPrintHeight,0
;   useDiaphragm,0
;   diaphragmLayerInterval,20
;   robustSlicing,1
;   mergeAllIntoSolid,0
;   onlyRetractWhenCrossingOutline,1
;   retractBetweenLayers,1
;   useRetractionMinTravel,0
;   retractionMinTravel,3
;   retractWhileWiping,1
;   onlyWipeOutlines,1
;   avoidCrossingOutline,0
;   maxMovementDetourFactor,3
;   toolChangeRetractionDistance,12
;   toolChangeExtraRestartDistance,-0.5
;   toolChangeRetractionSpeed,600
;   externalThinWallType,1
;   internalThinWallType,2
;   thinWallAllowedOverlapPercentage,25
;   singleExtrusionMinLength,1
;   singleExtrusionMinPrintingWidthPercentage,50
;   singleExtrusionMaxPrintingWidthPercentage,200
;   singleExtrusionEndpointExtension,0.2
;   horizontalSizeCompensation,0
G90
M82
M106 S0
M140 S60
M190 S60
M104 S200 T0
M109 S200 T0
M115 U3.0.7 ; use the latest firmware version
G28 W ; home all axes without mesh bed leveling
G80 ; run mesh bed leveling routine
G1 Y-3.0 F1000.0 ; prepare to prime
G92 E0 ; reset extrusion distance
G1 X60.0 E9.0  F1000.0 ; priming
G1 X100.0 E12.5  F1000.0 ; priming
; process Process1
; layer 1, Z = 0.300
T0
G92 E0.0000
G1 E-1.0000 F2400
; feature outer perimeter
; tool H0.300 W0.400
G1 Z0.300 F1002
G1 X108.416 Y94.620 F12000
G1 E0.0000 F2400
G92 E0.0000
G1 X118.404 Y94.620 E0.4983 F1200
G1 X118.402 Y100.618 E0.7975
G1 X108.416 Y100.618 E1.2958
G1 X108.416 Y94.820 E1.5850
G1 X108.416 Y94.620 F1200
G1 X110.416 Y94.620 F1200
; feature inner perimeter
G1 X108.816 Y95.020 F12000
G92 E0.0000
G1 X118.004 Y95.020 E0.4584 F1800
G1 X118.002 Y100.218 E0.7177
G1 X108.816 Y100.218 E1.1760
G1 X108.816 Y95.220 E1.4254
G1 X108.816 Y95.020 F1800
; feature solid layer
G1 X109.270 Y99.898 F12000
G92 E0.0000
G1 X109.136 Y99.764 E0.0094 F1920
G1 X109.136 Y99.198 E0.0377
G1 X109.835 Y99.898 E0.0870
G1 X110.401 Y99.898 E0.1152
G1 X109.136 Y98.632 E0.2045
G1 X109.136 Y98.067 E0.2327
G1 X110.967 Y99.898 E0.3619
G1 X111.532 Y99.898 E0.3901
G1 X109.136 Y97.501 E0.5592
G1 X109.136 Y96.935 E0.5875
G1 X112.098 Y99.898 E0.7965
G1 X112.664 Y99.898 E0.8247
G1 X109.136 Y96.370 E1.0736
G1 X109.136 Y95.804 E1.1018
G1 X113.229 Y99.898 E1.3907
G1 X113.795 Y99.898 E1.4189
G1 X109.237 Y95.340 E1.7405
G1 X109.803 Y95.340 E1.7687
G1 X114.361 Y99.898 E2.0903
G1 X114.926 Y99.898 E2.1185
G1 X110.369 Y95.340 E2.4401
G1 X110.934 Y95.340 E2.4683
G1 X115.492 Y99.898 E2.7899
G1 X116.058 Y99.898 E2.8181
G1 X111.500 Y95.340 E3.1397
G1 X112.066 Y95.340 E3.1679
G1 X116.623 Y99.898 E3.4895
G1 X117.189 Y99.898 E3.5177
G1 X112.631 Y95.340 E3.8393
G1 X113.197 Y95.340 E3.8675
G1 X117.682 Y99.825 E4.1840
G1 X117.683 Y99.260 E4.2122
G1 X113.763 Y95.340 E4.4888
G1 X114.328 Y95.340 E4.5170
G1 X117.683 Y98.694 E4.7537
G1 X117.683 Y98.129 E4.7819
G1 X114.894 Y95.340 E4.9787
G1 X115.460 Y95.340 E5.0069
G1 X117.683 Y97.563 E5.1637
G1 X117.683 Y96.997 E5.1920
G1 X116.025 Y95.340 E5.3089
G1 X116.591 Y95.340 E5.3371
G1 X117.683 Y96.432 E5.4142
G1 X117.683 Y95.866 E5.4424
G1 X117.298 Y95.481 E5.4696
G1 X117.157 Y95.340 F1920
G92 E0.0000
G1 E-1.0000 F2400
; feature outer perimeter
G1 X131.596 Y94.620 F12000
G1 E0.0000 F2400
G92 E0.0000
G1 X141.584 Y94.620 E0.4983 F1200
G1 X141.584 Y100.618 E0.7975
G1 X131.598 Y100.618 E1.2958
G1 X131.596 Y94.820 E1.5850
G1 X131.596 Y94.620 F1200
G1 X133.596 Y94.620 F1200
; feature inner perimeter
G1 X131.996 Y95.020 F12000
G92 E0.0000
G1 X141.184 Y95.020 E0.4584 F1800
G1 X141.184 Y100.218 E0.7177
G1 X131.998 Y100.218 E1.1760
G1 X131.996 Y95.220 E1.4254
G1 X131.996 Y95.020 F1800
; feature solid layer
G1 X132.463 Y99.898 F12000
G92 E0.0000
G1 X132.318 Y99.753 E0.0102 F1920
G1 X132.317 Y99.187 E0.0385
G1 X133.028 Y99.898 E0.0886
G1 X133.594 Y99.898 E0.1169
G1 X132.317 Y98.621 E0.2069
G1 X132.317 Y98.055 E0.2352
G1 X134.160 Y99.898 E0.3652
G1 X134.725 Y99.898 E0.3934
G1 X132.317 Y97.489 E0.5633
G1 X132.317 Y96.923 E0.5915
G1 X135.291 Y99.898 E0.8014
G1 X135.857 Y99.898 E0.8296
G1 X132.317 Y96.358 E1.0794
G1 X132.317 Y95.792 E1.1076
G1 X136.422 Y99.898 E1.3973
G1 X136.988 Y99.898 E1.4255
G1 X132.430 Y95.340 E1.7471
G1 X132.996 Y95.340 E1.7753
G1 X137.554 Y99.898 E2.0969
G1 X138.120 Y99.898 E2.1251
G1 X133.562 Y95.340 E2.4467
G1 X134.127 Y95.340 E2.4749
G1 X138.685 Y99.898 E2.7965
G1 X139.251 Y99.898 E2.8247
G1 X134.693 Y95.340 E3.1463
G1 X135.259 Y95.340 E3.1746
G1 X139.817 Y99.898 E3.4961
G1 X140.382 Y99.898 E3.5244
G1 X135.824 Y95.340 E3.8459
G1 X136.390 Y95.340 E3.8742
G1 X140.864 Y99.814 E4.1899
G1 X140.864 Y99.248 E4.2181
G1 X136.956 Y95.340 E4.4938
G1 X137.521 Y95.340 E4.5221
G1 X140.864 Y98.683 E4.7579
G1 X140.864 Y98.117 E4.7861
G1 X138.087 Y95.340 E4.9821
G1 X138.653 Y95.340 E5.0103
G1 X140.864 Y97.551 E5.1663
G1 X140.864 Y96.986 E5.1946
G1 X139.218 Y95.340 E5.3107
G1 X139.784 Y95.340 E5.3389
G1 X140.864 Y96.420 E5.4151
G1 X140.864 Y95.854 E5.4433
G1 X140.491 Y95.481 E5.4697
G1 X140.350 Y95.340 F1920
G92 E0.0000
G1 E-1.0000 F2400
; feature outer perimeter
G1 X142.686 Y133.701 F12000
G1 E0.0000 F2400
G92 E0.0000
G1 X142.686 Y167.374 E1.6800 F1200
G1 X106.007 Y167.374 E3.5099
G1 X106.007 Y133.701 E5.1899
G1 X142.486 Y133.701 E7.0098
G1 X142.686 Y133.701 F1200
G1 X142.686 Y135.701 F1200
; feature inner perimeter
G1 X140.274 Y139.922 F12000
G92 E0.0000
G1 X140.033 Y139.813 E0.0132 F1800
G1 X139.780 Y139.718 E0.0267
G1 X139.315 Y139.594 E0.0507
G1 X139.039 Y139.549 E0.0647
G1 X138.549 Y139.517 E0.0891
G1 X138.053 Y139.550 E0.1139
G1 X137.783 Y139.594 E0.1276
G1 X137.312 Y139.721 E0.1519
G1 X137.056 Y139.817 E0.1656
G1 X136.618 Y140.033 E0.1899
G1 X136.386 Y140.177 E0.2035
G1 X135.999 Y140.474 E0.2279
G1 X135.800 Y140.661 E0.2415
G1 X135.478 Y141.028 E0.2659
G1 X135.319 Y141.250 E0.2795
G1 X135.075 Y141.673 E0.3038
G1 X134.966 Y141.913 E0.3170
G1 X134.873 Y142.159 E0.3301
G1 X134.747 Y142.631 E0.3545
G1 X134.701 Y142.908 E0.3685
G1 X134.670 Y143.387 E0.3925
G1 X134.679 Y143.661 E0.4061
G1 X134.744 Y144.154 E0.4309
G1 X134.873 Y144.635 E0.4558
G1 X134.966 Y144.881 E0.4689
G1 X135.075 Y145.122 E0.4821
G1 X135.319 Y145.545 E0.5064
G1 X135.483 Y145.772 E0.5204
G1 X135.806 Y146.141 E0.5449
G1 X136.180 Y146.469 E0.5697
G1 X136.402 Y146.628 E0.5834
G1 X136.825 Y146.872 E0.6077
G1 X137.065 Y146.981 E0.6208
G1 X137.312 Y147.073 E0.6340
G1 X137.793 Y147.202 E0.6588
G1 X138.286 Y147.267 E0.6837
G1 X138.550 Y147.276 E0.6968
G1 X138.820 Y147.267 E0.7103
G1 X139.306 Y147.202 E0.7348
G1 X139.787 Y147.073 E0.7596
G1 X140.043 Y146.977 E0.7733
G1 X140.480 Y146.761 E0.7976
G1 X140.713 Y146.617 E0.8112
G1 X141.100 Y146.320 E0.8356
G1 X141.293 Y146.139 E0.8488
G1 X141.477 Y145.942 E0.8623
G1 X141.770 Y145.560 E0.8863
G1 X141.917 Y145.322 E0.9002
G1 X142.054 Y145.044 E0.9157
G1 X142.286 Y145.098 E0.9276
G1 X142.286 Y160.765 E1.7092
G1 X142.054 Y160.819 E1.7211
G1 X141.913 Y160.534 E1.7370
G1 X141.765 Y160.296 E1.7509
G1 X141.472 Y159.915 E1.7749
G1 X141.285 Y159.715 E1.7886
G1 X140.918 Y159.393 E1.8129
G1 X140.687 Y159.229 E1.8271
G1 X140.273 Y158.990 E1.8509
G1 X140.018 Y158.875 E1.8649
G1 X139.562 Y158.721 E1.8889
G1 X139.286 Y158.657 E1.9030
G1 X138.803 Y158.594 E1.9273
G1 X138.306 Y158.594 E1.9521
G1 X138.042 Y158.620 E1.9654
G1 X137.772 Y158.665 E1.9790
G1 X137.311 Y158.789 E2.0028
G1 X137.049 Y158.888 E2.0168
G1 X136.618 Y159.101 E2.0408
G1 X136.380 Y159.250 E2.0548
G1 X135.991 Y159.548 E2.0793
G1 X135.639 Y159.900 E2.1041
G1 X135.472 Y160.105 E2.1173
G1 X135.313 Y160.328 E2.1309
G1 X135.074 Y160.742 E2.1548
G1 X134.958 Y161.000 E2.1689
G1 X134.805 Y161.453 E2.1927
G1 X134.742 Y161.725 E2.2067
G1 X134.678 Y162.212 E2.2312
G1 X134.678 Y162.709 E2.2560
G1 X134.704 Y162.972 E2.2692
G1 X134.748 Y163.239 E2.2827
G1 X134.873 Y163.704 E2.3067
G1 X134.974 Y163.969 E2.3209
G1 X135.190 Y164.406 E2.3451
G1 X135.476 Y164.833 E2.3708
G1 X135.806 Y165.209 E2.3958
G1 X136.188 Y165.543 E2.4211
G1 X136.601 Y165.820 E2.4459
G1 X136.835 Y165.944 E2.4591
G1 X137.081 Y166.056 E2.4726
G1 X137.545 Y166.213 E2.4970
G1 X138.033 Y166.310 E2.5219
G1 X138.306 Y166.337 E2.5355
G1 X138.793 Y166.337 E2.5598
G1 X139.066 Y166.310 E2.5735
G1 X139.544 Y166.215 E2.5978
G1 X139.797 Y166.138 E2.6110
G1 X140.053 Y166.041 E2.6247
G1 X140.481 Y165.829 E2.6485
G1 X140.718 Y165.681 E2.6625
G1 X141.100 Y165.388 E2.6865
G1 X141.299 Y165.201 E2.7001
G1 X141.622 Y164.834 E2.7245
G1 X141.786 Y164.602 E2.7386
G1 X142.064 Y164.121 E2.7663
G1 X142.286 Y164.181 E2.7778
G1 X142.286 Y166.974 E2.9172
G1 X106.407 Y166.974 E4.7072
G1 X106.407 Y164.349 E4.8382
G1 X106.634 Y164.292 E4.8499
G1 X106.694 Y164.405 E4.8562
G1 X106.833 Y164.629 E4.8694
G1 X107.130 Y165.016 E4.8937
G1 X107.317 Y165.215 E4.9074
G1 X107.684 Y165.537 E4.9317
G1 X107.912 Y165.700 E4.9457
G1 X108.329 Y165.940 E4.9697
G1 X108.584 Y166.056 E4.9837
G1 X109.049 Y166.213 E5.0082
G1 X109.537 Y166.310 E5.0330
G1 X109.800 Y166.336 E5.0462
G1 X110.074 Y166.344 E5.0599
G1 X110.560 Y166.312 E5.0841
G1 X111.047 Y166.215 E5.1089
G1 X111.301 Y166.138 E5.1221
G1 X111.557 Y166.041 E5.1358
G1 X111.985 Y165.829 E5.1596
G1 X112.222 Y165.681 E5.1736
G1 X112.604 Y165.388 E5.1976
G1 X112.808 Y165.196 E5.2116
G1 X113.125 Y164.834 E5.2356
G1 X113.288 Y164.606 E5.2496
G1 X113.528 Y164.189 E5.2736
G1 X113.643 Y163.934 E5.2875
G1 X113.798 Y163.478 E5.3115
G1 X113.861 Y163.205 E5.3255
G1 X113.924 Y162.719 E5.3500
G1 X113.924 Y162.221 E5.3748
G1 X113.898 Y161.958 E5.3880
G1 X113.853 Y161.688 E5.4017
G1 X113.729 Y161.228 E5.4255
G1 X113.633 Y160.972 E5.4391
G1 X113.417 Y160.534 E5.4635
G1 X113.269 Y160.296 E5.4774
G1 X112.975 Y159.914 E5.5014
G1 X112.784 Y159.711 E5.5154
G1 X112.415 Y159.387 E5.5399
G1 X112.001 Y159.111 E5.5647
G1 X111.768 Y158.986 E5.5779
G1 X111.522 Y158.875 E5.5914
G1 X111.065 Y158.721 E5.6154
G1 X110.789 Y158.657 E5.6295
G1 X110.306 Y158.594 E5.6538
G1 X109.809 Y158.594 E5.6786
G1 X109.546 Y158.620 E5.6919
G1 X109.275 Y158.665 E5.7055
G1 X108.815 Y158.789 E5.7293
G1 X108.559 Y158.885 E5.7429
G1 X108.121 Y159.101 E5.7673
G1 X107.884 Y159.249 E5.7813
G1 X107.495 Y159.549 E5.8058
G1 X107.143 Y159.900 E5.8306
G1 X106.969 Y160.112 E5.8442
G1 X106.698 Y160.517 E5.8686
G1 X106.634 Y160.638 E5.8754
G1 X106.407 Y160.581 E5.8871
G1 X106.407 Y145.234 E6.6528
G1 X106.638 Y145.180 E6.6646
G1 X106.689 Y145.282 E6.6703
G1 X106.833 Y145.514 E6.6839
G1 X107.130 Y145.901 E6.7083
G1 X107.310 Y146.093 E6.7214
G1 X107.503 Y146.274 E6.7346
G1 X107.890 Y146.571 E6.7590
G1 X108.128 Y146.718 E6.7729
G1 X108.568 Y146.935 E6.7974
G1 X109.039 Y147.095 E6.8222
G1 X109.296 Y147.155 E6.8354
G1 X109.556 Y147.198 E6.8485
G1 X110.053 Y147.230 E6.8734
G1 X110.549 Y147.198 E6.8982
G1 X110.810 Y147.155 E6.9113
G1 X111.066 Y147.095 E6.9245
G1 X111.538 Y146.935 E6.9493
G1 X111.984 Y146.715 E6.9741
G1 X112.216 Y146.570 E6.9878
G1 X112.603 Y146.274 E7.0121
G1 X112.796 Y146.093 E7.0253
G1 X112.976 Y145.901 E7.0384
G1 X113.273 Y145.514 E7.0628
G1 X113.417 Y145.282 E7.0764
G1 X113.633 Y144.844 E7.1008
G1 X113.729 Y144.588 E7.1144
G1 X113.858 Y144.107 E7.1392
G1 X113.923 Y143.614 E7.1641
G1 X113.932 Y143.350 E7.1772
G1 X113.922 Y143.080 E7.1907
G1 X113.858 Y142.593 E7.2152
