; G-Code generated by Simplify3D(R) Version 4.1.2
; Apr 22, 2020 at 2:34:09 PM
; Settings Summary
;   processName,Process1
;   applyToModels,Newton Bracket,Newton plastic
;   profileName,MakerBot Replicator 2 HBP (modified)
;   profileVersion,2020-04-21 14:45:34
;   baseProfile,MakerBot Replicator 2(2)
;   printMaterial,PLA
;   printQuality,Medium
;   printExtruders,
;   extruderName,Primary Extruder
;   extruderToolheadNumber,0
;   extruderDiameter,0.4
;   extruderAutoWidth,0
;   extruderWidth,0.4
;   extrusionMultiplier,1
;   extruderUseRetract,1
;   extruderRetractionDistance,1.9
;   extruderExtraRestartDistance,0
;   extruderRetractionZLift,0.5
;   extruderRetractionSpeed,1200
;   extruderUseCoasting,0
;   extruderCoastingDistance,0.2
;   extruderUseWipe,0
;   extruderWipeDistance,5
;   primaryExtruder,0
;   layerHeight,0.2
;   topSolidLayers,3
;   bottomSolidLayers,3
;   perimeterOutlines,2
;   printPerimetersInsideOut,1
;   startPointOption,3
;   startPointOriginX,140
;   startPointOriginY,0
;   sequentialIslands,0
;   spiralVaseMode,0
;   firstLayerHeightPercentage,100
;   firstLayerWidthPercentage,100
;   firstLayerUnderspeed,0.5
;   useRaft,0
;   raftExtruder,0
;   raftTopLayers,2
;   raftBaseLayers,1
;   raftOffset,1
;   raftSeparationDistance,0.14
;   raftTopInfill,90
;   aboveRaftSpeedMultiplier,0.3
;   useSkirt,0
;   skirtExtruder,0
;   skirtLayers,1
;   skirtOutlines,5
;   skirtOffset,0
;   usePrimePillar,0
;   primePillarExtruder,999
;   primePillarWidth,12
;   primePillarLocation,7
;   primePillarSpeedMultiplier,1
;   useOozeShield,0
;   oozeShieldExtruder,999
;   oozeShieldOffset,2
;   oozeShieldOutlines,1
;   oozeShieldSidewallShape,1
;   oozeShieldSidewallAngle,30
;   oozeShieldSpeedMultiplier,1
;   infillExtruder,0
;   internalInfillPattern,Rectilinear
;   externalInfillPattern,Rectilinear
;   infillPercentage,15
;   outlineOverlapPercentage,20
;   infillExtrusionWidthPercentage,100
;   minInfillLength,5
;   infillLayerInterval,1
;   internalInfillAngles,45,-45
;   overlapInternalInfillAngles,0
;   externalInfillAngles,45,-45
;   generateSupport,1
;   supportExtruder,0
;   supportInfillPercentage,20
;   supportExtraInflation,0.5
;   supportBaseLayers,0
;   denseSupportExtruder,0
;   denseSupportLayers,2
;   denseSupportInfillPercentage,70
;   supportLayerInterval,1
;   supportHorizontalPartOffset,0.3
;   supportUpperSeparationLayers,1
;   supportLowerSeparationLayers,1
;   supportType,0
;   supportGridSpacing,2
;   maxOverhangAngle,45
;   supportAngles,0
;   temperatureName,Primary Extruder,Heated Build Platform
;   temperatureNumber,0,0
;   temperatureSetpointCount,1,1
;   temperatureSetpointLayers,1,1
;   temperatureSetpointTemperatures,230,60
;   temperatureStabilizeAtStartup,1,1
;   temperatureHeatedBed,0,1
;   fanLayers,1,2
;   fanSpeeds,0,100
;   blipFanToFullPower,1
;   adjustSpeedForCooling,1
;   minSpeedLayerTime,15
;   minCoolingSpeedSlowdown,20
;   increaseFanForCooling,1
;   minFanLayerTime,45
;   maxCoolingFanSpeed,100
;   increaseFanForBridging,1
;   bridgingFanSpeed,100
;   use5D,1
;   relativeEdistances,1
;   allowEaxisZeroing,0
;   independentExtruderAxes,1
;   includeM10123,0
;   stickySupport,1
;   applyToolheadOffsets,0
;   gcodeXoffset,0
;   gcodeYoffset,0
;   gcodeZoffset,0
;   overrideMachineDefinition,1
;   machineTypeOverride,0
;   strokeXoverride,280
;   strokeYoverride,150
;   strokeZoverride,150
;   originOffsetXoverride,140
;   originOffsetYoverride,75
;   originOffsetZoverride,0
;   homeXdirOverride,1
;   homeYdirOverride,1
;   homeZdirOverride,-1
;   flipXoverride,1
;   flipYoverride,-1
;   flipZoverride,1
;   toolheadOffsets,0,0|0,0|0,0|0,0|0,0|0,0
;   overrideFirmwareConfiguration,1
;   firmwareTypeOverride,MakerBot/Sailfish Firmware
;   GPXconfigOverride,r2h
;   baudRateOverride,115200
;   overridePrinterModels,1
;   printerModelsOverride,MakerBot_Replicator2.stl
;   startingGcode,; **** Replicator 2 start.gcode ****,M73 P0 ; enable build progress,G162 X Y F3000 ; home XY maximum,G161 Z F1200 ; home Z minimum,G92 Z-5 ; set Z to -5,G1 Z0 ; move Z to 0,G161 Z F100 ; home Z slowly,M132 X Y Z A B ; recall home offsets,G1 X-145 Y-75 Z30 F9000 ; move to wait position off table,G130 X20 Y20 Z20 A20 B20 ; lower stepper Vrefs while heating,M126 S[fan_speed_pwm],M140 S[bed0_temperature] T0,M134 T0 ; stabilize bed temperature,M104 S[extruder0_temperature] T0,M133 T0 ; stabilize extruder temperature,G130 X127 Y127 Z40 A127 B127 ; default stepper Vrefs,G92 A0 ; zero extruder,G1 Z0.4 ; position nozzle,G1 E25 F300 ; purge nozzle,G1 X-140 Y-70 Z0.15 F1200 ; slow wipe,G1 X-135 Y-65 Z0.5 F1200 ; lift,G92 A0 ; zero extruder,M73 P1 ;@body (notify GPX body has started),; **** end of start.gcode ****
;   layerChangeGcode,
;   retractionGcode,
;   toolChangeGcode,
;   endingGcode,; **** Replicator 2 end.gcode ****,M73 P100 ; end build progress,G1 Z155 F1000 ; send Z axis to bottom of machine,M104 S0 T0 ; cool down extruder,M140 S0 T0 ; cool down HBP,M127 ; stop blower fan,G162 X Y F3000 ; home XY maximum,M18 ; disable stepper,M0 ; stop codes,M72 P1 ; play Ta-Da song,; **** end of end.gcode ****
;   exportFileFormat,gcode
;   celebration,0
;   celebrationSong,Random Song
;   postProcessing,
;   defaultSpeed,4800
;   outlineUnderspeed,0.5
;   solidInfillUnderspeed,1
;   supportUnderspeed,1
;   rapidXYspeed,9000
;   rapidZspeed,1200
;   minBridgingArea,50
;   bridgingExtraInflation,0
;   bridgingExtrusionMultiplier,1
;   bridgingSpeedMultiplier,0.8
;   useFixedBridgingAngle,0
;   fixedBridgingAngle,0
;   applyBridgingToPerimeters,0
;   filamentDiameters,1.75|1.75|1.75|1.75|1.75|1.75
;   filamentPricesPerKg,46|46|46|46|46|46
;   filamentDensities,1.25|1.25|1.25|1.25|1.25|1.25
;   useMinPrintHeight,0
;   minPrintHeight,0
;   useMaxPrintHeight,0
;   maxPrintHeight,4.84
;   useDiaphragm,0
;   diaphragmLayerInterval,20
;   robustSlicing,1
;   mergeAllIntoSolid,0
;   onlyRetractWhenCrossingOutline,0
;   retractBetweenLayers,0
;   useRetractionMinTravel,1
;   retractionMinTravel,7
;   retractWhileWiping,1
;   onlyWipeOutlines,1
;   avoidCrossingOutline,0
;   maxMovementDetourFactor,3
;   toolChangeRetractionDistance,12
;   toolChangeExtraRestartDistance,-0.5
;   toolChangeRetractionSpeed,600
;   externalThinWallType,0
;   internalThinWallType,0
;   thinWallAllowedOverlapPercentage,10
;   singleExtrusionMinLength,1
;   singleExtrusionMinPrintingWidthPercentage,50
;   singleExtrusionMaxPrintingWidthPercentage,200
;   singleExtrusionEndpointExtension,0.2
;   horizontalSizeCompensation,0
G90
M83
; **** Replicator 2 start.gcode ****
M73 P0 ; enable build progress
G162 X Y F3000 ; home XY maximum
G161 Z F1200 ; home Z minimum
G92 Z-5 ; set Z to -5
G1 Z0 ; move Z to 0
G28 ; better homing, homie
M132 X Y Z A B ; recall home offsets
G1 X-145 Y-75 Z30 F9000 ; move to wait position off table
G130 X20 Y20 Z20 A20 B20 ; lower stepper Vrefs while heating
M127
M140 S60 T0
M134 T0 ; stabilize bed temperature
M104 S230 T0
M133 T0 ; stabilize extruder temperature
G130 X127 Y127 Z40 A127 B127 ; default stepper Vrefs
G92 A0 ; zero extruder
G1 Z0.4 ; position nozzle
G1 E25 F300 ; purge nozzle
G1 X-140 Y-70 Z0.15 F1200 ; slow wipe
G1 X-135 Y-65 Z0.5 F1200 ; lift
G92 A0 ; zero extruder
M73 P1 ;@body (notify GPX body has started)
; **** end of start.gcode ****
; process Process1
; layer 1, Z = 0.200
M135 T0
G1 E-1.9000 F1200
; feature inner perimeter
; tool H0.200 W0.400
G1 Z0.500 F1200
G1 X-4.905 Y-0.779 F9000
G1 Z0.200 F1200
G1 E1.9000 F1200
G1 X-14.042 Y-0.779 E0.3039 F1800
G1 X-14.043 Y-5.977 E0.1729
G1 X-4.905 Y-5.977 E0.3039
G1 X-4.905 Y-0.779 E0.1729
; feature outer perimeter
G1 X-4.505 Y-0.379 F9000
G1 X-14.442 Y-0.379 E0.3305 F1200
G1 X-14.443 Y-6.377 E0.1995
G1 X-4.505 Y-6.377 E0.3305
G1 X-4.505 Y-0.379 E0.1995
; feature solid layer
G1 X-5.657 Y-5.657 F9000
G1 X-5.225 Y-5.225 E0.0203 F2400
G1 X-5.225 Y-4.660 E0.0188
G1 X-6.223 Y-5.657 E0.0469
G1 X-6.788 Y-5.657 E0.0188
G1 X-5.225 Y-4.094 E0.0735
G1 X-5.225 Y-3.528 E0.0188
G1 X-7.354 Y-5.657 E0.1001
G1 X-7.920 Y-5.657 E0.0188
G1 X-5.225 Y-2.963 E0.1267
G1 X-5.225 Y-2.397 E0.0188
G1 X-8.485 Y-5.657 E0.1533
G1 X-9.051 Y-5.657 E0.0188
G1 X-5.225 Y-1.831 E0.1799
G1 X-5.225 Y-1.266 E0.0188
G1 X-9.617 Y-5.657 E0.2066
G1 X-10.183 Y-5.657 E0.0188
G1 X-5.625 Y-1.099 E0.2144
G1 X-6.190 Y-1.099 E0.0188
G1 X-10.748 Y-5.657 E0.2144
G1 X-11.314 Y-5.657 E0.0188
G1 X-6.756 Y-1.099 E0.2144
G1 X-7.322 Y-1.099 E0.0188
G1 X-11.880 Y-5.657 E0.2144
G1 X-12.445 Y-5.657 E0.0188
G1 X-7.887 Y-1.099 E0.2144
G1 X-8.453 Y-1.099 E0.0188
G1 X-13.011 Y-5.657 E0.2144
G1 X-13.577 Y-5.657 E0.0188
G1 X-9.019 Y-1.099 E0.2144
G1 X-9.584 Y-1.099 E0.0188
G1 X-13.723 Y-5.237 E0.1947
G1 X-13.723 Y-4.672 E0.0188
G1 X-10.150 Y-1.099 E0.1680
G1 X-10.716 Y-1.099 E0.0188
G1 X-13.723 Y-4.106 E0.1414
G1 X-13.722 Y-3.540 E0.0188
G1 X-11.281 Y-1.099 E0.1148
G1 X-11.847 Y-1.099 E0.0188
G1 X-13.722 Y-2.974 E0.0882
G1 X-13.722 Y-2.409 E0.0188
G1 X-12.413 Y-1.099 E0.0616
G1 X-12.979 Y-1.099 E0.0188
G1 X-13.722 Y-1.843 E0.0350
G1 X-13.722 Y-1.277 E0.0188
G1 X-13.544 Y-1.099 E0.0084
G1 E-1.9000 F1200
; feature inner perimeter
G1 Z0.700 F1200
G1 X-28.037 Y-0.779 F9000
G1 Z0.200 F1200
G1 E1.9000 F1200
G1 X-37.174 Y-0.779 E0.3039 F1800
G1 X-37.174 Y-5.977 E0.1729
G1 X-28.037 Y-5.977 E0.3039
G1 X-28.037 Y-0.779 E0.1729
; feature outer perimeter
G1 X-27.638 Y-0.379 F9000
G1 X-37.574 Y-0.379 E0.3305 F1200
G1 X-37.574 Y-6.377 E0.1995
G1 X-27.637 Y-6.377 E0.3305
G1 X-27.638 Y-0.379 E0.1995
; feature solid layer
G1 X-28.850 Y-5.657 F9000
G1 X-28.357 Y-5.164 E0.0232 F2400
G1 X-28.357 Y-4.598 E0.0188
G1 X-29.416 Y-5.657 E0.0498
G1 X-29.981 Y-5.657 E0.0188
G1 X-28.357 Y-4.033 E0.0764
G1 X-28.357 Y-3.467 E0.0188
G1 X-30.547 Y-5.657 E0.1030
G1 X-31.113 Y-5.657 E0.0188
G1 X-28.357 Y-2.901 E0.1296
G1 X-28.357 Y-2.336 E0.0188
G1 X-31.679 Y-5.657 E0.1562
G1 X-32.244 Y-5.657 E0.0188
G1 X-28.357 Y-1.770 E0.1828
G1 X-28.357 Y-1.205 E0.0188
G1 X-32.810 Y-5.657 E0.2094
G1 X-33.376 Y-5.657 E0.0188
G1 X-28.818 Y-1.099 E0.2144
G1 X-29.383 Y-1.099 E0.0188
G1 X-33.941 Y-5.657 E0.2144
G1 X-34.507 Y-5.657 E0.0188
G1 X-29.949 Y-1.099 E0.2144
G1 X-30.515 Y-1.099 E0.0188
G1 X-35.073 Y-5.657 E0.2144
G1 X-35.638 Y-5.657 E0.0188
G1 X-31.080 Y-1.099 E0.2144
G1 X-31.646 Y-1.099 E0.0188
G1 X-36.204 Y-5.657 E0.2144
G1 X-36.770 Y-5.657 E0.0188
G1 X-32.212 Y-1.099 E0.2144
G1 X-32.777 Y-1.099 E0.0188
G1 X-36.854 Y-5.176 E0.1917
G1 X-36.854 Y-4.610 E0.0188
G1 X-33.343 Y-1.099 E0.1651
G1 X-33.909 Y-1.099 E0.0188
G1 X-36.854 Y-4.044 E0.1385
G1 X-36.854 Y-3.479 E0.0188
G1 X-34.475 Y-1.099 E0.1119
G1 X-35.040 Y-1.099 E0.0188
G1 X-36.854 Y-2.913 E0.0853
G1 X-36.854 Y-2.347 E0.0188
G1 X-35.606 Y-1.099 E0.0587
G1 X-36.172 Y-1.099 E0.0188
G1 X-36.854 Y-1.782 E0.0321
G1 X-36.854 Y-1.216 E0.0188
G1 X-36.737 Y-1.099 E0.0055
G1 E-1.9000 F1200
; feature inner perimeter
G1 Z0.700 F1200
G1 X39.593 Y1.718 F9000
G1 Z0.200 F1200
G1 E1.9000 F1200
G1 X39.495 Y1.457 E0.0093 F1800
G1 X39.279 Y1.021 E0.0162
G1 X39.131 Y0.784 E0.0093
G1 X38.836 Y0.399 E0.0162
G1 X38.648 Y0.198 E0.0091
G1 X38.278 Y-0.126 E0.0163
G1 X38.048 Y-0.290 E0.0094
G1 X37.630 Y-0.531 E0.0160
G1 X37.376 Y-0.646 E0.0093
G1 X36.915 Y-0.802 E0.0162
G1 X36.639 Y-0.866 E0.0094
G1 X36.151 Y-0.930 E0.0164
G1 X35.651 Y-0.930 E0.0166
G1 X35.387 Y-0.904 E0.0088
G1 X35.117 Y-0.859 E0.0091
G1 X34.651 Y-0.733 E0.0160
G1 X34.390 Y-0.635 E0.0093
G1 X33.954 Y-0.420 E0.0162
G1 X33.717 Y-0.272 E0.0093
G1 X33.324 Y0.030 E0.0165
G1 X32.970 Y0.384 E0.0166
G1 X32.802 Y0.589 E0.0088
G1 X32.643 Y0.812 E0.0091
G1 X32.402 Y1.230 E0.0161
G1 X32.286 Y1.488 E0.0094
G1 X32.131 Y1.945 E0.0160
G1 X32.068 Y2.216 E0.0093
G1 X32.004 Y2.708 E0.0165
G1 X32.004 Y3.208 E0.0166
G1 X32.030 Y3.473 E0.0088
G1 X32.074 Y3.738 E0.0090
G1 X32.200 Y4.208 E0.0162
G1 X32.300 Y4.473 E0.0094
G1 X32.518 Y4.914 E0.0164
G1 X32.804 Y5.342 E0.0171
G1 X33.138 Y5.722 E0.0168
G1 X33.522 Y6.058 E0.0170
G1 X33.938 Y6.336 E0.0166
G1 X34.172 Y6.461 E0.0088
G1 X34.417 Y6.572 E0.0090
G1 X34.887 Y6.732 E0.0165
G1 X35.378 Y6.829 E0.0166
G1 X35.651 Y6.856 E0.0091
G1 X36.142 Y6.856 E0.0163
G1 X36.415 Y6.829 E0.0091
G1 X36.897 Y6.733 E0.0163
G1 X37.151 Y6.656 E0.0088
G1 X37.406 Y6.559 E0.0091
G1 X37.839 Y6.346 E0.0160
G1 X38.076 Y6.198 E0.0093
G1 X38.461 Y5.902 E0.0162
G1 X38.662 Y5.714 E0.0091
G1 X38.986 Y5.345 E0.0163
G1 X39.150 Y5.114 E0.0094
G1 X39.396 Y4.688 E0.0163
G1 X39.587 Y4.226 E0.0166
G1 X39.633 Y4.074 E0.0053
G1 X39.633 Y7.472 E0.1130
G1 X3.754 Y7.472 E1.1934
G1 X3.754 Y4.333 E0.1044
G1 X3.897 Y4.680 E0.0125
G1 X4.022 Y4.913 E0.0088
G1 X4.162 Y5.138 E0.0088
G1 X4.461 Y5.528 E0.0163
G1 X4.649 Y5.728 E0.0091
G1 X5.018 Y6.052 E0.0163
G1 X5.245 Y6.214 E0.0093
G1 X5.666 Y6.457 E0.0162
G1 X5.921 Y6.572 E0.0093
G1 X6.390 Y6.732 E0.0165
G1 X6.881 Y6.829 E0.0166
G1 X7.146 Y6.855 E0.0088
G1 X7.419 Y6.863 E0.0091
G1 X7.909 Y6.831 E0.0163
G1 X8.400 Y6.733 E0.0166
G1 X8.654 Y6.656 E0.0088
G1 X8.910 Y6.559 E0.0091
G1 X9.342 Y6.346 E0.0160
G1 X9.579 Y6.198 E0.0093
G1 X9.965 Y5.902 E0.0162
G1 X10.168 Y5.711 E0.0093
G1 X10.489 Y5.345 E0.0162
G1 X10.651 Y5.118 E0.0093
G1 X10.894 Y4.697 E0.0162
G1 X11.009 Y4.442 E0.0093
G1 X11.165 Y3.982 E0.0162
G1 X11.228 Y3.710 E0.0093
G1 X11.293 Y3.218 E0.0165
G1 X11.293 Y2.718 E0.0166
G1 X11.267 Y2.453 E0.0088
G1 X11.222 Y2.184 E0.0091
G1 X11.097 Y1.718 E0.0160
G1 X11.000 Y1.461 E0.0091
G1 X10.783 Y1.021 E0.0163
G1 X10.635 Y0.784 E0.0093
G1 X10.339 Y0.398 E0.0162
G1 X10.148 Y0.195 E0.0093
G1 X9.775 Y-0.132 E0.0165
G1 X9.359 Y-0.410 E0.0166
G1 X9.125 Y-0.535 E0.0088
G1 X8.879 Y-0.646 E0.0090
G1 X8.418 Y-0.802 E0.0162
G1 X8.143 Y-0.866 E0.0094
G1 X7.655 Y-0.930 E0.0164
G1 X7.155 Y-0.930 E0.0166
G1 X6.890 Y-0.904 E0.0088
G1 X6.620 Y-0.859 E0.0091
G1 X6.155 Y-0.734 E0.0160
G1 X5.898 Y-0.637 E0.0091
G1 X5.449 Y-0.415 E0.0167
G1 X5.026 Y-0.132 E0.0169
G1 X4.817 Y0.040 E0.0090
G1 X4.474 Y0.384 E0.0162
G1 X4.299 Y0.596 E0.0091
G1 X4.027 Y1.004 E0.0163
G1 X3.902 Y1.238 E0.0088
G1 X3.791 Y1.484 E0.0090
G1 X3.754 Y1.594 E0.0038
G1 X3.754 Y-14.782 E0.5447
G1 X3.796 Y-14.659 E0.0043
G1 X4.017 Y-14.210 E0.0166
G1 X4.162 Y-13.976 E0.0091
G1 X4.461 Y-13.587 E0.0163
G1 X4.642 Y-13.394 E0.0088
G1 X4.835 Y-13.213 E0.0088
G1 X5.225 Y-12.914 E0.0163
G1 X5.463 Y-12.766 E0.0093
G1 X5.907 Y-12.547 E0.0165
G1 X6.381 Y-12.386 E0.0166
G1 X6.639 Y-12.326 E0.0088
G1 X6.901 Y-12.283 E0.0088
G1 X7.400 Y-12.250 E0.0166
G1 X7.899 Y-12.283 E0.0166
G1 X8.161 Y-12.326 E0.0088
G1 X8.419 Y-12.386 E0.0088
G1 X8.893 Y-12.547 E0.0166
G1 X9.342 Y-12.769 E0.0166
G1 X9.575 Y-12.914 E0.0091
G1 X9.964 Y-13.213 E0.0163
G1 X10.158 Y-13.394 E0.0088
G1 X10.339 Y-13.587 E0.0088
G1 X10.638 Y-13.976 E0.0163
G1 X10.783 Y-14.210 E0.0091
G1 X11.000 Y-14.650 E0.0163
G1 X11.097 Y-14.907 E0.0091
G1 X11.226 Y-15.391 E0.0166
G1 X11.292 Y-15.887 E0.0166
G1 X11.300 Y-16.152 E0.0088
G1 X11.291 Y-16.422 E0.0090
G1 X11.226 Y-16.913 E0.0165
G1 X11.097 Y-17.396 E0.0166
G1 X11.000 Y-17.653 E0.0091
G1 X10.783 Y-18.094 E0.0163
G1 X10.643 Y-18.319 E0.0088
G1 X10.489 Y-18.534 E0.0088
G1 X10.159 Y-18.910 E0.0166
G1 X9.782 Y-19.240 E0.0166
G1 X9.559 Y-19.400 E0.0091
G1 X9.134 Y-19.646 E0.0163
G1 X8.892 Y-19.755 E0.0088
G1 X8.636 Y-19.851 E0.0091
G1 X8.170 Y-19.976 E0.0160
G1 X7.894 Y-20.021 E0.0093
G1 X7.410 Y-20.052 E0.0162
G1 X7.135 Y-20.043 E0.0091
G1 X6.639 Y-19.978 E0.0166
G1 X6.155 Y-19.848 E0.0166
G1 X5.907 Y-19.755 E0.0088
G1 X5.658 Y-19.642 E0.0091
G1 X5.232 Y-19.395 E0.0164
G1 X4.835 Y-19.091 E0.0166
G1 X4.635 Y-18.903 E0.0091
G1 X4.311 Y-18.534 E0.0163
G1 X4.151 Y-18.311 E0.0091
G1 X3.906 Y-17.886 E0.0163
G1 X3.796 Y-17.644 E0.0088
G1 X3.754 Y-17.530 E0.0040
G1 X3.754 Y-25.401 E0.2618
G1 X39.633 Y-25.401 E1.1934
G1 X39.633 Y-17.201 E0.2727
G1 X39.593 Y-17.350 E0.0051
G1 X39.496 Y-17.607 E0.0091
G1 X39.279 Y-18.047 E0.0163
G1 X39.139 Y-18.272 E0.0088
G1 X38.985 Y-18.488 E0.0088
G1 X38.655 Y-18.864 E0.0166
G1 X38.279 Y-19.194 E0.0166
G1 X38.055 Y-19.354 E0.0091
G1 X37.630 Y-19.599 E0.0163
G1 X37.389 Y-19.709 E0.0088
G1 X37.136 Y-19.803 E0.0090
G1 X36.667 Y-19.929 E0.0162
