; G-Code generated by Simplify3D(R) Version 4.1.2
; Jun 3, 2020 at 10:09:57 AM
; Settings Summary
;   processName,Process1
;   applyToModels,Sign Insert,Sign Insert(2),Sign Insert(2)(2),Sign Insert(2)(2)(2),Sign Insert(2)(2)(2)(2),Sign Insert(2)(2)(2)(2)(2),Sign Insert(2)(2)(2)(2)(2)(2),Sign Insert(3)
;   profileName,MakerBot Replicator 2 HBP (modified)
;   profileVersion,2020-04-21 14:45:34
;   baseProfile,MakerBot Replicator 2(2)
;   printMaterial,PLA
;   printQuality,Medium
;   printExtruders,
;   extruderName,Primary Extruder
;   extruderToolheadNumber,0
;   extruderDiameter,0.4
;   extruderAutoWidth,0
;   extruderWidth,0.4
;   extrusionMultiplier,1
;   extruderUseRetract,1
;   extruderRetractionDistance,1.9
;   extruderExtraRestartDistance,0
;   extruderRetractionZLift,0.5
;   extruderRetractionSpeed,1200
;   extruderUseCoasting,0
;   extruderCoastingDistance,0.2
;   extruderUseWipe,0
;   extruderWipeDistance,5
;   primaryExtruder,0
;   layerHeight,0.2
;   topSolidLayers,4
;   bottomSolidLayers,3
;   perimeterOutlines,2
;   printPerimetersInsideOut,1
;   startPointOption,3
;   startPointOriginX,140
;   startPointOriginY,0
;   sequentialIslands,0
;   spiralVaseMode,0
;   firstLayerHeightPercentage,100
;   firstLayerWidthPercentage,100
;   firstLayerUnderspeed,0.5
;   useRaft,0
;   raftExtruder,0
;   raftTopLayers,2
;   raftBaseLayers,1
;   raftOffset,1
;   raftSeparationDistance,0.14
;   raftTopInfill,90
;   aboveRaftSpeedMultiplier,0.3
;   useSkirt,0
;   skirtExtruder,0
;   skirtLayers,1
;   skirtOutlines,5
;   skirtOffset,0
;   usePrimePillar,0
;   primePillarExtruder,999
;   primePillarWidth,12
;   primePillarLocation,7
;   primePillarSpeedMultiplier,1
;   useOozeShield,0
;   oozeShieldExtruder,999
;   oozeShieldOffset,2
;   oozeShieldOutlines,1
;   oozeShieldSidewallShape,1
;   oozeShieldSidewallAngle,30
;   oozeShieldSpeedMultiplier,1
;   infillExtruder,0
;   internalInfillPattern,Rectilinear
;   externalInfillPattern,Rectilinear
;   infillPercentage,15
;   outlineOverlapPercentage,20
;   infillExtrusionWidthPercentage,100
;   minInfillLength,5
;   infillLayerInterval,1
;   internalInfillAngles,45,-45
;   overlapInternalInfillAngles,0
;   externalInfillAngles,45,-45
;   generateSupport,1
;   supportExtruder,0
;   supportInfillPercentage,30
;   supportExtraInflation,0.6
;   supportBaseLayers,0
;   denseSupportExtruder,0
;   denseSupportLayers,2
;   denseSupportInfillPercentage,70
;   supportLayerInterval,1
;   supportHorizontalPartOffset,0.3
;   supportUpperSeparationLayers,1
;   supportLowerSeparationLayers,1
;   supportType,0
;   supportGridSpacing,99
;   maxOverhangAngle,45
;   supportAngles,0
;   temperatureName,Primary Extruder,Heated Build Platform
;   temperatureNumber,0,0
;   temperatureSetpointCount,1,1
;   temperatureSetpointLayers,1,1
;   temperatureSetpointTemperatures,230,65
;   temperatureStabilizeAtStartup,1,1
;   temperatureHeatedBed,0,1
;   fanLayers,1,2
;   fanSpeeds,0,100
;   blipFanToFullPower,1
;   adjustSpeedForCooling,1
;   minSpeedLayerTime,15
;   minCoolingSpeedSlowdown,20
;   increaseFanForCooling,1
;   minFanLayerTime,45
;   maxCoolingFanSpeed,100
;   increaseFanForBridging,1
;   bridgingFanSpeed,100
;   use5D,1
;   relativeEdistances,1
;   allowEaxisZeroing,0
;   independentExtruderAxes,1
;   includeM10123,0
;   stickySupport,1
;   applyToolheadOffsets,0
;   gcodeXoffset,0
;   gcodeYoffset,0
;   gcodeZoffset,0
;   overrideMachineDefinition,1
;   machineTypeOverride,0
;   strokeXoverride,280
;   strokeYoverride,150
;   strokeZoverride,150
;   originOffsetXoverride,140
;   originOffsetYoverride,75
;   originOffsetZoverride,0
;   homeXdirOverride,1
;   homeYdirOverride,1
;   homeZdirOverride,-1
;   flipXoverride,1
;   flipYoverride,-1
;   flipZoverride,1
;   toolheadOffsets,0,0|0,0|0,0|0,0|0,0|0,0
;   overrideFirmwareConfiguration,1
;   firmwareTypeOverride,MakerBot/Sailfish Firmware
;   GPXconfigOverride,r2h
;   baudRateOverride,115200
;   overridePrinterModels,1
;   printerModelsOverride,MakerBot_Replicator2.stl
;   startingGcode,; **** Replicator 2 start.gcode ****,M73 P0 ; enable build progress,G162 X Y F3000 ; home XY maximum,G161 Z F1200 ; home Z minimum,G92 Z-5 ; set Z to -5,G1 Z0 ; move Z to 0,G28 ; better homing homie,M132 X Y Z A B ; recall home offsets,G1 X-145 Y-75 Z30 F9000 ; move to wait position off table,G130 X20 Y20 Z20 A20 B20 ; lower stepper Vrefs while heating,M126 S[fan_speed_pwm],M140 S[bed0_temperature] T0,M134 T0 ; stabilize bed temperature,M104 S[extruder0_temperature] T0,M133 T0 ; stabilize extruder temperature,G130 X127 Y127 Z40 A127 B127 ; default stepper Vrefs,G92 A0 ; zero extruder,G1 Z0.4 ; position nozzle,G1 E25 F300 ; purge nozzle,G1 X-140 Y-70 Z0.15 F1200 ; slow wipe,G1 X-135 Y-65 Z0.5 F1200 ; lift,G92 A0 ; zero extruder,M73 P1 ;@body (notify GPX body has started),; **** end of start.gcode ****
;   layerChangeGcode,
;   retractionGcode,
;   toolChangeGcode,
;   endingGcode,; **** Replicator 2 end.gcode ****,M73 P100 ; end build progress,G1 Z155 F1000 ; send Z axis to bottom of machine,M104 S0 T0 ; cool down extruder,M140 S0 T0 ; cool down HBP,M127 ; stop blower fan,G162 X Y F3000 ; home XY maximum,M18 ; disable stepper,M0 ; stop codes,M72 P1 ; play Ta-Da song,; **** end of end.gcode ****
;   exportFileFormat,gcode
;   celebration,0
;   celebrationSong,Random Song
;   postProcessing,
;   defaultSpeed,4800
;   outlineUnderspeed,0.5
;   solidInfillUnderspeed,1
;   supportUnderspeed,1
;   rapidXYspeed,9000
;   rapidZspeed,1200
;   minBridgingArea,50
;   bridgingExtraInflation,0
;   bridgingExtrusionMultiplier,1
;   bridgingSpeedMultiplier,0.8
;   useFixedBridgingAngle,0
;   fixedBridgingAngle,0
;   applyBridgingToPerimeters,0
;   filamentDiameters,1.75|1.75|1.75|1.75|1.75|1.75
;   filamentPricesPerKg,46|46|46|46|46|46
;   filamentDensities,1.25|1.25|1.25|1.25|1.25|1.25
;   useMinPrintHeight,0
;   minPrintHeight,0
;   useMaxPrintHeight,0
;   maxPrintHeight,4.84
;   useDiaphragm,0
;   diaphragmLayerInterval,20
;   robustSlicing,1
;   mergeAllIntoSolid,0
;   onlyRetractWhenCrossingOutline,0
;   retractBetweenLayers,0
;   useRetractionMinTravel,1
;   retractionMinTravel,7
;   retractWhileWiping,1
;   onlyWipeOutlines,1
;   avoidCrossingOutline,0
;   maxMovementDetourFactor,3
;   toolChangeRetractionDistance,12
;   toolChangeExtraRestartDistance,-0.5
;   toolChangeRetractionSpeed,600
;   externalThinWallType,0
;   internalThinWallType,0
;   thinWallAllowedOverlapPercentage,10
;   singleExtrusionMinLength,1
;   singleExtrusionMinPrintingWidthPercentage,50
;   singleExtrusionMaxPrintingWidthPercentage,200
;   singleExtrusionEndpointExtension,0.2
;   horizontalSizeCompensation,0
G90
M83
; **** Replicator 2 start.gcode ****
M73 P0 ; enable build progress
G162 X Y F3000 ; home XY maximum
G161 Z F1200 ; home Z minimum
G92 Z-5 ; set Z to -5
G1 Z0 ; move Z to 0
G28 ; better homing homie
M132 X Y Z A B ; recall home offsets
G1 X-145 Y-75 Z30 F9000 ; move to wait position off table
G130 X20 Y20 Z20 A20 B20 ; lower stepper Vrefs while heating
M127
M140 S65 T0
M134 T0 ; stabilize bed temperature
M104 S230 T0
M133 T0 ; stabilize extruder temperature
G130 X127 Y127 Z40 A127 B127 ; default stepper Vrefs
G92 A0 ; zero extruder
G1 Z0.4 ; position nozzle
G1 E25 F300 ; purge nozzle
G1 X-140 Y-70 Z0.15 F1200 ; slow wipe
G1 X-135 Y-65 Z0.5 F1200 ; lift
G92 A0 ; zero extruder
M73 P1 ;@body (notify GPX body has started)
; **** end of start.gcode ****
; process Process1
; layer 1, Z = 0.200
M135 T0
G1 E-1.9000 F1200
; feature inner perimeter
; tool H0.200 W0.400
G1 Z0.500 F1200
G1 X19.197 Y-33.243 F9000
G1 Z0.200 F1200
G1 E1.9000 F1200
G1 X19.197 Y66.707 E3.3244 F1800
G1 X19.124 Y67.600 E0.0298
G1 X18.910 Y68.444 E0.0290
G1 X18.561 Y69.242 E0.0290
G1 X18.086 Y69.972 E0.0290
G1 X17.498 Y70.614 E0.0290
G1 X16.812 Y71.150 E0.0290
G1 X16.047 Y71.567 E0.0290
G1 X15.224 Y71.853 E0.0290
G1 X14.366 Y71.999 E0.0290
G1 X13.495 Y72.003 E0.0290
G1 X12.635 Y71.863 E0.0290
G1 X11.810 Y71.585 E0.0290
G1 X11.042 Y71.174 E0.0290
G1 X10.352 Y70.643 E0.0290
G1 X9.758 Y70.006 E0.0290
G1 X9.263 Y69.260 E0.0298
G1 X-15.523 Y24.207 E1.7103
G1 X-15.853 Y23.467 E0.0269
G1 X-16.048 Y22.707 E0.0261
G1 X-16.116 Y21.900 E0.0269
G1 X-16.116 Y11.564 E0.3438
G1 X-16.048 Y10.757 E0.0269
G1 X-15.853 Y9.997 E0.0261
G1 X-15.538 Y9.289 E0.0258
G1 X9.263 Y-35.795 E1.7114
G1 X9.758 Y-36.542 E0.0298
G1 X10.352 Y-37.179 E0.0290
G1 X11.042 Y-37.710 E0.0290
G1 X11.810 Y-38.120 E0.0290
G1 X12.635 Y-38.399 E0.0290
G1 X13.495 Y-38.538 E0.0290
G1 X14.366 Y-38.535 E0.0290
G1 X15.224 Y-38.388 E0.0290
G1 X16.047 Y-38.103 E0.0290
G1 X16.812 Y-37.686 E0.0290
G1 X17.498 Y-37.150 E0.0290
G1 X18.086 Y-36.508 E0.0290
G1 X18.561 Y-35.778 E0.0290
G1 X18.910 Y-34.980 E0.0290
G1 X19.124 Y-34.136 E0.0290
G1 X19.197 Y-33.243 E0.0298
; feature outer perimeter
G1 X19.597 Y-33.260 F9000
G1 X19.597 Y66.724 E3.3255 F1200
G1 X19.519 Y67.666 E0.0314
G1 X19.290 Y68.574 E0.0312
G1 X18.915 Y69.433 E0.0312
G1 X18.403 Y70.218 E0.0312
G1 X17.770 Y70.909 E0.0312
G1 X17.032 Y71.486 E0.0312
G1 X16.209 Y71.934 E0.0312
G1 X15.324 Y72.241 E0.0312
G1 X14.400 Y72.399 E0.0312
G1 X13.463 Y72.403 E0.0312
G1 X12.539 Y72.253 E0.0312
G1 X11.651 Y71.953 E0.0312
G1 X10.824 Y71.511 E0.0312
G1 X10.082 Y70.940 E0.0312
G1 X9.443 Y70.255 E0.0312
G1 X8.920 Y69.467 E0.0314
G1 X-15.882 Y24.385 E1.7114
G1 X-16.232 Y23.599 E0.0286
G1 X-16.444 Y22.774 E0.0283
G1 X-16.516 Y21.917 E0.0286
G1 X-16.516 Y11.548 E0.3449
G1 X-16.444 Y10.690 E0.0286
G1 X-16.232 Y9.865 E0.0283
G1 X-15.896 Y9.111 E0.0274
G1 X8.920 Y-36.003 E1.7125
G1 X9.443 Y-36.791 E0.0314
G1 X10.082 Y-37.476 E0.0312
G1 X10.824 Y-38.047 E0.0312
G1 X11.651 Y-38.489 E0.0312
G1 X12.539 Y-38.788 E0.0312
G1 X13.463 Y-38.938 E0.0312
G1 X14.400 Y-38.935 E0.0312
G1 X15.324 Y-38.777 E0.0312
G1 X16.209 Y-38.470 E0.0312
G1 X17.032 Y-38.022 E0.0312
G1 X17.770 Y-37.444 E0.0312
G1 X18.403 Y-36.754 E0.0312
G1 X18.915 Y-35.968 E0.0312
G1 X19.290 Y-35.110 E0.0312
G1 X19.519 Y-34.202 E0.0312
G1 X19.597 Y-33.260 E0.0314
; feature solid layer
G1 X16.516 Y-37.483 F9000
G1 X18.103 Y-35.896 E0.0747 F2400
G1 X18.279 Y-35.626 E0.0107
G1 X18.607 Y-34.876 E0.0272
G1 X18.623 Y-34.810 E0.0023
G1 X15.468 Y-37.965 E0.1484
G1 X15.144 Y-38.077 E0.0114
G1 X14.717 Y-38.150 E0.0144
G1 X18.809 Y-34.058 E0.1925
G1 X18.860 Y-33.442 E0.0206
G1 X14.086 Y-38.216 E0.2246
G1 X13.518 Y-38.218 E0.0189
G1 X18.877 Y-32.858 E0.2521
G1 X18.877 Y-32.293 E0.0188
G1 X13.031 Y-38.139 E0.2750
G1 X12.713 Y-38.087 E0.0107
G1 X12.567 Y-38.038 E0.0051
G1 X18.877 Y-31.727 E0.2968
G1 X18.877 Y-31.161 E0.0188
G1 X12.144 Y-37.895 E0.3167
G1 X11.938 Y-37.825 E0.0072
G1 X11.749 Y-37.724 E0.0071
G1 X18.877 Y-30.596 E0.3353
G1 X18.877 Y-30.030 E0.0188
G1 X11.380 Y-37.527 E0.3527
G1 X11.216 Y-37.440 E0.0062
G1 X11.038 Y-37.303 E0.0075
G1 X18.877 Y-29.464 E0.3687
G1 X18.877 Y-28.899 E0.0188
G1 X10.719 Y-37.057 E0.3838
G1 X10.568 Y-36.941 E0.0063
G1 X10.424 Y-36.787 E0.0070
G1 X18.877 Y-28.333 E0.3976
G1 X18.877 Y-27.767 E0.0188
G1 X10.151 Y-36.494 E0.4105
G1 X10.010 Y-36.343 E0.0069
G1 X9.901 Y-36.178 E0.0066
G1 X18.877 Y-27.202 E0.4222
G1 X18.877 Y-26.636 E0.0188
G1 X9.675 Y-35.838 E0.4328
G1 X9.537 Y-35.630 E0.0083
G1 X9.459 Y-35.488 E0.0054
G1 X18.877 Y-26.070 E0.4430
G1 X18.877 Y-25.505 E0.0188
G1 X9.258 Y-35.123 E0.4524
G1 X9.058 Y-34.758 E0.0139
G1 X18.877 Y-24.939 E0.4619
G1 X18.877 Y-24.373 E0.0188
G1 X8.857 Y-34.394 E0.4713
G1 X8.656 Y-34.029 E0.0139
G1 X18.877 Y-23.808 E0.4808
G1 X18.877 Y-23.242 E0.0188
G1 X8.455 Y-33.664 E0.4902
G1 X8.255 Y-33.299 E0.0139
G1 X18.877 Y-22.676 E0.4997
G1 X18.877 Y-22.110 E0.0188
G1 X8.054 Y-32.934 E0.5091
G1 X7.853 Y-32.569 E0.0139
G1 X18.877 Y-21.545 E0.5185
G1 X18.877 Y-20.979 E0.0188
G1 X7.653 Y-32.204 E0.5280
G1 X7.452 Y-31.839 E0.0139
G1 X18.877 Y-20.413 E0.5374
G1 X18.877 Y-19.848 E0.0188
G1 X7.251 Y-31.474 E0.5469
G1 X7.050 Y-31.109 E0.0139
G1 X18.877 Y-19.282 E0.5563
G1 X18.877 Y-18.716 E0.0188
G1 X6.850 Y-30.744 E0.5658
G1 X6.649 Y-30.379 E0.0139
G1 X18.877 Y-18.151 E0.5752
G1 X18.877 Y-17.585 E0.0188
G1 X6.448 Y-30.014 E0.5846
G1 X6.247 Y-29.649 E0.0139
G1 X18.877 Y-17.019 E0.5941
G1 X18.877 Y-16.454 E0.0188
G1 X6.047 Y-29.284 E0.6035
G1 X5.846 Y-28.919 E0.0139
G1 X18.877 Y-15.888 E0.6130
G1 X18.877 Y-15.322 E0.0188
G1 X5.645 Y-28.555 E0.6224
G1 X5.444 Y-28.190 E0.0139
G1 X18.877 Y-14.757 E0.6318
G1 X18.877 Y-14.191 E0.0188
G1 X5.244 Y-27.825 E0.6413
G1 X5.043 Y-27.460 E0.0139
G1 X18.877 Y-13.625 E0.6507
G1 X18.877 Y-13.059 E0.0188
G1 X4.842 Y-27.095 E0.6602
G1 X4.641 Y-26.730 E0.0139
G1 X18.877 Y-12.494 E0.6696
G1 X18.877 Y-11.928 E0.0188
G1 X4.441 Y-26.365 E0.6791
G1 X4.240 Y-26.000 E0.0139
G1 X18.877 Y-11.362 E0.6885
G1 X18.877 Y-10.797 E0.0188
G1 X4.039 Y-25.635 E0.6979
G1 X3.838 Y-25.270 E0.0139
G1 X18.877 Y-10.231 E0.7074
G1 X18.877 Y-9.665 E0.0188
G1 X3.638 Y-24.905 E0.7168
G1 X3.437 Y-24.540 E0.0139
G1 X18.877 Y-9.100 E0.7263
G1 X18.877 Y-8.534 E0.0188
G1 X3.236 Y-24.175 E0.7357
G1 X3.035 Y-23.810 E0.0139
G1 X18.877 Y-7.968 E0.7452
G1 X18.877 Y-7.403 E0.0188
G1 X2.835 Y-23.445 E0.7546
G1 X2.634 Y-23.080 E0.0139
G1 X18.877 Y-6.837 E0.7640
G1 X18.877 Y-6.271 E0.0188
G1 X2.433 Y-22.716 E0.7735
G1 X2.232 Y-22.351 E0.0139
G1 X18.877 Y-5.706 E0.7829
G1 X18.877 Y-5.140 E0.0188
G1 X2.032 Y-21.986 E0.7924
G1 X1.831 Y-21.621 E0.0139
G1 X18.877 Y-4.574 E0.8018
G1 X18.877 Y-4.009 E0.0188
G1 X1.630 Y-21.256 E0.8113
G1 X1.429 Y-20.891 E0.0139
G1 X18.877 Y-3.443 E0.8207
G1 X18.877 Y-2.877 E0.0188
G1 X1.229 Y-20.526 E0.8301
G1 X1.028 Y-20.161 E0.0139
G1 X18.877 Y-2.311 E0.8396
G1 X18.877 Y-1.746 E0.0188
G1 X0.827 Y-19.796 E0.8490
G1 X0.626 Y-19.431 E0.0139
G1 X18.877 Y-1.180 E0.8585
G1 X18.877 Y-0.614 E0.0188
G1 X0.426 Y-19.066 E0.8679
G1 X0.225 Y-18.701 E0.0139
G1 X18.877 Y-0.049 E0.8774
G1 X18.877 Y0.517 E0.0188
G1 X0.024 Y-18.336 E0.8868
G1 X-0.177 Y-17.971 E0.0139
G1 X18.877 Y1.083 E0.8962
G1 X18.877 Y1.648 E0.0188
G1 X-0.377 Y-17.606 E0.9057
G1 X-0.578 Y-17.241 E0.0139
G1 X18.877 Y2.214 E0.9151
G1 X18.877 Y2.780 E0.0188
G1 X-0.779 Y-16.877 E0.9246
G1 X-0.980 Y-16.512 E0.0139
G1 X18.877 Y3.345 E0.9340
G1 X18.877 Y3.911 E0.0188
G1 X-1.180 Y-16.147 E0.9435
G1 X-1.381 Y-15.782 E0.0139
G1 X18.877 Y4.477 E0.9529
G1 X18.877 Y5.042 E0.0188
G1 X-1.582 Y-15.417 E0.9623
G1 X-1.783 Y-15.052 E0.0139
G1 X18.877 Y5.608 E0.9718
G1 X18.877 Y6.174 E0.0188
G1 X-1.983 Y-14.687 E0.9812
G1 X-2.184 Y-14.322 E0.0139
G1 X18.877 Y6.739 E0.9907
G1 X18.877 Y7.305 E0.0188
G1 X-2.385 Y-13.957 E1.0001
G1 X-2.586 Y-13.592 E0.0139
G1 X18.877 Y7.871 E1.0096
G1 X18.877 Y8.437 E0.0188
G1 X-2.786 Y-13.227 E1.0190
G1 X-2.987 Y-12.862 E0.0139
G1 X18.877 Y9.002 E1.0284
G1 X18.877 Y9.568 E0.0188
G1 X-3.188 Y-12.497 E1.0379
G1 X-3.389 Y-12.132 E0.0139
G1 X18.877 Y10.134 E1.0473
G1 X18.877 Y10.699 E0.0188
G1 X-3.589 Y-11.767 E1.0568
G1 X-3.790 Y-11.402 E0.0139
G1 X18.877 Y11.265 E1.0662
G1 X18.877 Y11.831 E0.0188
G1 X-3.991 Y-11.038 E1.0757
G1 X-4.192 Y-10.673 E0.0139
G1 X18.877 Y12.396 E1.0851
G1 X18.877 Y12.962 E0.0188
G1 X-4.392 Y-10.308 E1.0945
G1 X-4.593 Y-9.943 E0.0139
G1 X18.877 Y13.528 E1.1040
G1 X18.877 Y14.093 E0.0188
G1 X-4.794 Y-9.578 E1.1134
G1 X-4.995 Y-9.213 E0.0139
G1 X18.877 Y14.659 E1.1229
G1 X18.877 Y15.225 E0.0188
G1 X-5.195 Y-8.848 E1.1323
G1 X-5.396 Y-8.483 E0.0139
G1 X18.877 Y15.790 E1.1417
G1 X18.877 Y16.356 E0.0188
G1 X-5.597 Y-8.118 E1.1512
G1 X-5.798 Y-7.753 E0.0139
G1 X18.877 Y16.922 E1.1606
G1 X18.877 Y17.488 E0.0188
G1 X-5.998 Y-7.388 E1.1701
G1 X-6.199 Y-7.023 E0.0139
G1 X18.877 Y18.053 E1.1795
G1 X18.877 Y18.619 E0.0188
G1 X-6.400 Y-6.658 E1.1890
G1 X-6.601 Y-6.293 E0.0139
G1 X18.877 Y19.185 E1.1984
G1 X18.877 Y19.750 E0.0188
G1 X-6.801 Y-5.928 E1.2078
G1 X-7.002 Y-5.564 E0.0139
G1 X18.877 Y20.316 E1.2173
G1 X18.877 Y20.882 E0.0188
G1 X-7.203 Y-5.199 E1.2267
G1 X-7.404 Y-4.834 E0.0139
G1 X18.877 Y21.447 E1.2362
G1 X18.877 Y22.013 E0.0188
G1 X-7.604 Y-4.469 E1.2456
G1 X-7.805 Y-4.104 E0.0139
G1 X18.877 Y22.579 E1.2551
G1 X18.877 Y23.144 E0.0188
G1 X-8.006 Y-3.739 E1.2645
G1 X-8.207 Y-3.374 E0.0139
G1 X18.877 Y23.710 E1.2739
