; G-Code generated by Simplify3D(R) Version 4.1.2
; Jun 8, 2020 at 11:08:11 AM
; Settings Summary
;   processName,Process1
;   applyToModels,CityBracketV1R2,UBracket
;   profileName,MakerBot Replicator 2 HBP (modified)
;   profileVersion,2020-04-21 14:45:34
;   baseProfile,MakerBot Replicator 2(2)
;   printMaterial,PLA
;   printQuality,Medium
;   printExtruders,
;   extruderName,Primary Extruder
;   extruderToolheadNumber,0
;   extruderDiameter,0.4
;   extruderAutoWidth,0
;   extruderWidth,0.4
;   extrusionMultiplier,1
;   extruderUseRetract,1
;   extruderRetractionDistance,1.9
;   extruderExtraRestartDistance,0
;   extruderRetractionZLift,0.5
;   extruderRetractionSpeed,1200
;   extruderUseCoasting,0
;   extruderCoastingDistance,0.2
;   extruderUseWipe,0
;   extruderWipeDistance,5
;   primaryExtruder,0
;   layerHeight,0.2
;   topSolidLayers,4
;   bottomSolidLayers,3
;   perimeterOutlines,2
;   printPerimetersInsideOut,1
;   startPointOption,3
;   startPointOriginX,140
;   startPointOriginY,0
;   sequentialIslands,0
;   spiralVaseMode,0
;   firstLayerHeightPercentage,100
;   firstLayerWidthPercentage,100
;   firstLayerUnderspeed,0.5
;   useRaft,0
;   raftExtruder,0
;   raftTopLayers,2
;   raftBaseLayers,1
;   raftOffset,1
;   raftSeparationDistance,0.14
;   raftTopInfill,90
;   aboveRaftSpeedMultiplier,0.3
;   useSkirt,0
;   skirtExtruder,0
;   skirtLayers,1
;   skirtOutlines,5
;   skirtOffset,0
;   usePrimePillar,0
;   primePillarExtruder,999
;   primePillarWidth,12
;   primePillarLocation,7
;   primePillarSpeedMultiplier,1
;   useOozeShield,0
;   oozeShieldExtruder,999
;   oozeShieldOffset,2
;   oozeShieldOutlines,1
;   oozeShieldSidewallShape,1
;   oozeShieldSidewallAngle,30
;   oozeShieldSpeedMultiplier,1
;   infillExtruder,0
;   internalInfillPattern,Rectilinear
;   externalInfillPattern,Rectilinear
;   infillPercentage,15
;   outlineOverlapPercentage,20
;   infillExtrusionWidthPercentage,100
;   minInfillLength,5
;   infillLayerInterval,1
;   internalInfillAngles,45,-45
;   overlapInternalInfillAngles,0
;   externalInfillAngles,45,-45
;   generateSupport,1
;   supportExtruder,0
;   supportInfillPercentage,30
;   supportExtraInflation,0.6
;   supportBaseLayers,0
;   denseSupportExtruder,0
;   denseSupportLayers,2
;   denseSupportInfillPercentage,70
;   supportLayerInterval,1
;   supportHorizontalPartOffset,0.3
;   supportUpperSeparationLayers,1
;   supportLowerSeparationLayers,1
;   supportType,0
;   supportGridSpacing,99
;   maxOverhangAngle,45
;   supportAngles,0
;   temperatureName,Primary Extruder,Heated Build Platform
;   temperatureNumber,0,0
;   temperatureSetpointCount,1,1
;   temperatureSetpointLayers,1,1
;   temperatureSetpointTemperatures,230,65
;   temperatureStabilizeAtStartup,1,1
;   temperatureHeatedBed,0,1
;   fanLayers,1,2
;   fanSpeeds,0,100
;   blipFanToFullPower,1
;   adjustSpeedForCooling,1
;   minSpeedLayerTime,15
;   minCoolingSpeedSlowdown,20
;   increaseFanForCooling,1
;   minFanLayerTime,45
;   maxCoolingFanSpeed,100
;   increaseFanForBridging,1
;   bridgingFanSpeed,100
;   use5D,1
;   relativeEdistances,1
;   allowEaxisZeroing,0
;   independentExtruderAxes,1
;   includeM10123,0
;   stickySupport,1
;   applyToolheadOffsets,0
;   gcodeXoffset,0
;   gcodeYoffset,0
;   gcodeZoffset,0
;   overrideMachineDefinition,1
;   machineTypeOverride,0
;   strokeXoverride,280
;   strokeYoverride,150
;   strokeZoverride,150
;   originOffsetXoverride,140
;   originOffsetYoverride,75
;   originOffsetZoverride,0
;   homeXdirOverride,1
;   homeYdirOverride,1
;   homeZdirOverride,-1
;   flipXoverride,1
;   flipYoverride,-1
;   flipZoverride,1
;   toolheadOffsets,0,0|0,0|0,0|0,0|0,0|0,0
;   overrideFirmwareConfiguration,1
;   firmwareTypeOverride,MakerBot/Sailfish Firmware
;   GPXconfigOverride,r2h
;   baudRateOverride,115200
;   overridePrinterModels,1
;   printerModelsOverride,MakerBot_Replicator2.stl
;   startingGcode,; **** Replicator 2 start.gcode ****,M73 P0 ; enable build progress,G162 X Y F3000 ; home XY maximum,G161 Z F1200 ; home Z minimum,G92 Z-5 ; set Z to -5,G1 Z0 ; move Z to 0,G28 ; better homing homie,M132 X Y Z A B ; recall home offsets,G1 X-145 Y-75 Z30 F9000 ; move to wait position off table,G130 X20 Y20 Z20 A20 B20 ; lower stepper Vrefs while heating,M126 S[fan_speed_pwm],M140 S[bed0_temperature] T0,M134 T0 ; stabilize bed temperature,M104 S[extruder0_temperature] T0,M133 T0 ; stabilize extruder temperature,G130 X127 Y127 Z40 A127 B127 ; default stepper Vrefs,G92 A0 ; zero extruder,G1 Z0.4 ; position nozzle,G1 E25 F300 ; purge nozzle,G1 X-140 Y-70 Z0.15 F1200 ; slow wipe,G1 X-135 Y-65 Z0.5 F1200 ; lift,G92 A0 ; zero extruder,M73 P1 ;@body (notify GPX body has started),; **** end of start.gcode ****
;   layerChangeGcode,
;   retractionGcode,
;   toolChangeGcode,
;   endingGcode,; **** Replicator 2 end.gcode ****,M73 P100 ; end build progress,G1 Z155 F1000 ; send Z axis to bottom of machine,M104 S0 T0 ; cool down extruder,M140 S0 T0 ; cool down HBP,M127 ; stop blower fan,G162 X Y F3000 ; home XY maximum,M18 ; disable stepper,M0 ; stop codes,M72 P1 ; play Ta-Da song,; **** end of end.gcode ****
;   exportFileFormat,gcode
;   celebration,0
;   celebrationSong,Random Song
;   postProcessing,
;   defaultSpeed,4800
;   outlineUnderspeed,0.5
;   solidInfillUnderspeed,1
;   supportUnderspeed,1
;   rapidXYspeed,9000
;   rapidZspeed,1200
;   minBridgingArea,50
;   bridgingExtraInflation,0
;   bridgingExtrusionMultiplier,1
;   bridgingSpeedMultiplier,0.8
;   useFixedBridgingAngle,0
;   fixedBridgingAngle,0
;   applyBridgingToPerimeters,0
;   filamentDiameters,1.75|1.75|1.75|1.75|1.75|1.75
;   filamentPricesPerKg,46|46|46|46|46|46
;   filamentDensities,1.25|1.25|1.25|1.25|1.25|1.25
;   useMinPrintHeight,0
;   minPrintHeight,0
;   useMaxPrintHeight,0
;   maxPrintHeight,4.84
;   useDiaphragm,0
;   diaphragmLayerInterval,20
;   robustSlicing,1
;   mergeAllIntoSolid,0
;   onlyRetractWhenCrossingOutline,0
;   retractBetweenLayers,0
;   useRetractionMinTravel,1
;   retractionMinTravel,7
;   retractWhileWiping,1
;   onlyWipeOutlines,1
;   avoidCrossingOutline,0
;   maxMovementDetourFactor,3
;   toolChangeRetractionDistance,12
;   toolChangeExtraRestartDistance,-0.5
;   toolChangeRetractionSpeed,600
;   externalThinWallType,0
;   internalThinWallType,0
;   thinWallAllowedOverlapPercentage,10
;   singleExtrusionMinLength,1
;   singleExtrusionMinPrintingWidthPercentage,50
;   singleExtrusionMaxPrintingWidthPercentage,200
;   singleExtrusionEndpointExtension,0.2
;   horizontalSizeCompensation,0
G90
M83
; **** Replicator 2 start.gcode ****
M73 P0 ; enable build progress
G162 X Y F3000 ; home XY maximum
G161 Z F1200 ; home Z minimum
G92 Z-5 ; set Z to -5
G1 Z0 ; move Z to 0
G28 ; better homing homie
M132 X Y Z A B ; recall home offsets
G1 X-145 Y-75 Z30 F9000 ; move to wait position off table
G130 X20 Y20 Z20 A20 B20 ; lower stepper Vrefs while heating
M127
M140 S65 T0
M134 T0 ; stabilize bed temperature
M104 S230 T0
M133 T0 ; stabilize extruder temperature
G130 X127 Y127 Z40 A127 B127 ; default stepper Vrefs
G92 A0 ; zero extruder
G1 Z0.4 ; position nozzle
G1 E25 F300 ; purge nozzle
G1 X-140 Y-70 Z0.15 F1200 ; slow wipe
G1 X-135 Y-65 Z0.5 F1200 ; lift
G92 A0 ; zero extruder
M73 P1 ;@body (notify GPX body has started)
; **** end of start.gcode ****
; process Process1
; layer 1, Z = 0.200
M135 T0
G1 E-1.9000 F1200
; feature inner perimeter
; tool H0.200 W0.400
G1 Z0.500 F1200
G1 X30.605 Y14.876 F9000
G1 Z0.200 F1200
G1 E1.9000 F1200
G1 X-1.729 Y14.876 E1.0754 F1800
G1 X-1.729 Y-17.170 E1.0658
G1 X6.108 Y-17.170 E0.2606
G1 X6.108 Y7.572 E0.8229
G1 X22.768 Y7.572 E0.5541
G1 X22.768 Y-17.170 E0.8229
G1 X30.605 Y-17.170 E0.2606
G1 X30.605 Y14.876 E1.0658
; feature outer perimeter
G1 X31.005 Y15.276 F9000
G1 X-2.129 Y15.276 E1.1020 F1200
G1 X-2.129 Y-17.570 E1.0924
G1 X6.508 Y-17.570 E0.2873
G1 X6.508 Y7.173 E0.8229
G1 X22.368 Y7.173 E0.5275
G1 X22.368 Y-17.570 E0.8229
G1 X31.005 Y-17.570 E0.2873
G1 X31.005 Y15.276 E1.0924
G1 E-1.9000 F1200
; feature solid layer
G1 Z0.700 F1200
G1 X30.102 Y-16.850 F9000
G1 Z0.200 F1200
G1 E1.9000 F1200
G1 X30.285 Y-16.667 E0.0086 F2400
G1 X30.285 Y-16.101 E0.0188
G1 X29.537 Y-16.850 E0.0352
G1 X28.971 Y-16.850 E0.0188
G1 X30.285 Y-15.536 E0.0618
G1 X30.285 Y-14.970 E0.0188
G1 X28.405 Y-16.850 E0.0884
G1 X27.839 Y-16.850 E0.0188
G1 X30.285 Y-14.404 E0.1150
G1 X30.285 Y-13.838 E0.0188
G1 X27.274 Y-16.850 E0.1416
G1 X26.708 Y-16.850 E0.0188
G1 X30.285 Y-13.273 E0.1682
G1 X30.285 Y-12.707 E0.0188
G1 X26.142 Y-16.850 E0.1949
G1 X25.577 Y-16.850 E0.0188
G1 X30.285 Y-12.141 E0.2215
G1 X30.285 Y-11.576 E0.0188
G1 X25.011 Y-16.850 E0.2481
G1 X24.445 Y-16.850 E0.0188
G1 X30.285 Y-11.010 E0.2747
G1 X30.285 Y-10.444 E0.0188
G1 X23.880 Y-16.850 E0.3013
G1 X23.314 Y-16.850 E0.0188
G1 X30.285 Y-9.879 E0.3279
G1 X30.285 Y-9.313 E0.0188
G1 X23.088 Y-16.510 E0.3385
G1 X23.088 Y-15.944 E0.0188
G1 X30.285 Y-8.747 E0.3385
G1 X30.285 Y-8.182 E0.0188
G1 X23.088 Y-15.378 E0.3385
G1 X23.088 Y-14.812 E0.0188
G1 X30.285 Y-7.616 E0.3385
G1 X30.285 Y-7.050 E0.0188
G1 X23.088 Y-14.247 E0.3385
G1 X23.088 Y-13.681 E0.0188
G1 X30.285 Y-6.485 E0.3385
G1 X30.285 Y-5.919 E0.0188
G1 X23.088 Y-13.115 E0.3385
G1 X23.088 Y-12.550 E0.0188
G1 X30.285 Y-5.353 E0.3385
G1 X30.285 Y-4.788 E0.0188
G1 X23.088 Y-11.984 E0.3385
G1 X23.088 Y-11.418 E0.0188
G1 X30.285 Y-4.222 E0.3385
G1 X30.285 Y-3.656 E0.0188
G1 X23.088 Y-10.853 E0.3385
G1 X23.088 Y-10.287 E0.0188
G1 X30.285 Y-3.090 E0.3385
G1 X30.285 Y-2.525 E0.0188
G1 X23.088 Y-9.721 E0.3385
G1 X23.088 Y-9.156 E0.0188
G1 X30.285 Y-1.959 E0.3385
G1 X30.285 Y-1.393 E0.0188
G1 X23.088 Y-8.590 E0.3385
G1 X23.088 Y-8.024 E0.0188
G1 X30.285 Y-0.828 E0.3385
G1 X30.285 Y-0.262 E0.0188
G1 X23.088 Y-7.459 E0.3385
G1 X23.088 Y-6.893 E0.0188
G1 X30.285 Y0.304 E0.3385
G1 X30.285 Y0.869 E0.0188
G1 X23.088 Y-6.327 E0.3385
G1 X23.088 Y-5.762 E0.0188
G1 X30.285 Y1.435 E0.3385
G1 X30.285 Y2.001 E0.0188
G1 X23.088 Y-5.196 E0.3385
G1 X23.088 Y-4.630 E0.0188
G1 X30.285 Y2.566 E0.3385
G1 X30.285 Y3.132 E0.0188
G1 X23.088 Y-4.064 E0.3385
G1 X23.088 Y-3.499 E0.0188
G1 X30.285 Y3.698 E0.3385
G1 X30.285 Y4.263 E0.0188
G1 X23.088 Y-2.933 E0.3385
G1 X23.088 Y-2.367 E0.0188
G1 X30.285 Y4.829 E0.3385
G1 X30.285 Y5.395 E0.0188
G1 X23.088 Y-1.802 E0.3385
G1 X23.088 Y-1.236 E0.0188
G1 X30.285 Y5.961 E0.3385
G1 X30.285 Y6.526 E0.0188
G1 X23.088 Y-0.670 E0.3385
G1 X23.088 Y-0.105 E0.0188
G1 X30.285 Y7.092 E0.3385
G1 X30.285 Y7.658 E0.0188
G1 X23.088 Y0.461 E0.3385
G1 X23.088 Y1.027 E0.0188
G1 X30.285 Y8.223 E0.3385
G1 X30.285 Y8.789 E0.0188
G1 X23.088 Y1.592 E0.3385
G1 X23.088 Y2.158 E0.0188
G1 X30.285 Y9.355 E0.3385
G1 X30.285 Y9.920 E0.0188
G1 X23.088 Y2.724 E0.3385
G1 X23.088 Y3.289 E0.0188
G1 X30.285 Y10.486 E0.3385
G1 X30.285 Y11.052 E0.0188
G1 X23.088 Y3.855 E0.3385
G1 X23.088 Y4.421 E0.0188
G1 X30.285 Y11.617 E0.3385
G1 X30.285 Y12.183 E0.0188
G1 X23.088 Y4.986 E0.3385
G1 X23.088 Y5.552 E0.0188
G1 X30.285 Y12.749 E0.3385
G1 X30.285 Y13.314 E0.0188
G1 X23.088 Y6.118 E0.3385
G1 X23.088 Y6.684 E0.0188
G1 X30.285 Y13.880 E0.3385
G1 X30.285 Y14.446 E0.0188
G1 X23.088 Y7.249 E0.3385
G1 X23.088 Y7.815 E0.0188
G1 X29.829 Y14.556 E0.3171
G1 X29.263 Y14.556 E0.0188
G1 X22.600 Y7.893 E0.3134
G1 X22.035 Y7.893 E0.0188
G1 X28.698 Y14.556 E0.3134
G1 X28.132 Y14.556 E0.0188
G1 X21.469 Y7.893 E0.3134
G1 X20.903 Y7.893 E0.0188
G1 X27.566 Y14.556 E0.3134
G1 X27.001 Y14.556 E0.0188
G1 X20.338 Y7.893 E0.3134
G1 X19.772 Y7.893 E0.0188
G1 X26.435 Y14.556 E0.3134
G1 X25.869 Y14.556 E0.0188
G1 X19.206 Y7.893 E0.3134
G1 X18.641 Y7.893 E0.0188
G1 X25.304 Y14.556 E0.3134
G1 X24.738 Y14.556 E0.0188
G1 X18.075 Y7.893 E0.3134
G1 X17.509 Y7.893 E0.0188
G1 X24.172 Y14.556 E0.3134
G1 X23.607 Y14.556 E0.0188
G1 X16.943 Y7.893 E0.3134
G1 X16.378 Y7.893 E0.0188
G1 X23.041 Y14.556 E0.3134
G1 X22.475 Y14.556 E0.0188
G1 X15.812 Y7.893 E0.3134
G1 X15.246 Y7.893 E0.0188
G1 X21.909 Y14.556 E0.3134
G1 X21.344 Y14.556 E0.0188
G1 X14.681 Y7.893 E0.3134
G1 X14.115 Y7.893 E0.0188
G1 X20.778 Y14.556 E0.3134
G1 X20.212 Y14.556 E0.0188
G1 X13.549 Y7.893 E0.3134
G1 X12.984 Y7.893 E0.0188
G1 X19.647 Y14.556 E0.3134
G1 X19.081 Y14.556 E0.0188
G1 X12.418 Y7.893 E0.3134
G1 X11.852 Y7.893 E0.0188
G1 X18.515 Y14.556 E0.3134
G1 X17.950 Y14.556 E0.0188
G1 X11.287 Y7.893 E0.3134
G1 X10.721 Y7.893 E0.0188
G1 X17.384 Y14.556 E0.3134
G1 X16.818 Y14.556 E0.0188
G1 X10.155 Y7.893 E0.3134
G1 X9.590 Y7.893 E0.0188
G1 X16.253 Y14.556 E0.3134
G1 X15.687 Y14.556 E0.0188
G1 X9.024 Y7.893 E0.3134
G1 X8.458 Y7.893 E0.0188
G1 X15.121 Y14.556 E0.3134
G1 X14.556 Y14.556 E0.0188
G1 X7.893 Y7.893 E0.3134
G1 X7.327 Y7.893 E0.0188
G1 X13.990 Y14.556 E0.3134
G1 X13.424 Y14.556 E0.0188
G1 X6.761 Y7.893 E0.3134
G1 X6.195 Y7.893 E0.0188
G1 X12.858 Y14.556 E0.3134
G1 X12.293 Y14.556 E0.0188
G1 X-1.409 Y0.854 E0.6445
G1 X-1.409 Y0.288 E0.0188
G1 X5.788 Y7.485 E0.3385
G1 X5.788 Y6.919 E0.0188
G1 X-1.409 Y-0.278 E0.3385
G1 X-1.409 Y-0.843 E0.0188
G1 X5.788 Y6.353 E0.3385
G1 X5.788 Y5.788 E0.0188
G1 X-1.409 Y-1.409 E0.3385
G1 X-1.409 Y-1.975 E0.0188
G1 X5.788 Y5.222 E0.3385
G1 X5.788 Y4.656 E0.0188
G1 X-1.409 Y-2.540 E0.3385
G1 X-1.409 Y-3.106 E0.0188
G1 X5.788 Y4.091 E0.3385
G1 X5.788 Y3.525 E0.0188
G1 X-1.409 Y-3.672 E0.3385
G1 X-1.409 Y-4.237 E0.0188
G1 X5.788 Y2.959 E0.3385
G1 X5.788 Y2.393 E0.0188
G1 X-1.409 Y-4.803 E0.3385
G1 X-1.409 Y-5.369 E0.0188
G1 X5.788 Y1.828 E0.3385
G1 X5.788 Y1.262 E0.0188
G1 X-1.409 Y-5.934 E0.3385
G1 X-1.409 Y-6.500 E0.0188
G1 X5.788 Y0.696 E0.3385
G1 X5.788 Y0.131 E0.0188
G1 X-1.409 Y-7.066 E0.3385
G1 X-1.409 Y-7.631 E0.0188
G1 X5.788 Y-0.435 E0.3385
G1 X5.788 Y-1.001 E0.0188
G1 X-1.409 Y-8.197 E0.3385
G1 X-1.409 Y-8.763 E0.0188
G1 X5.788 Y-1.566 E0.3385
G1 X5.788 Y-2.132 E0.0188
G1 X-1.409 Y-9.329 E0.3385
G1 X-1.409 Y-9.894 E0.0188
G1 X5.788 Y-2.698 E0.3385
G1 X5.788 Y-3.263 E0.0188
G1 X-1.409 Y-10.460 E0.3385
G1 X-1.409 Y-11.026 E0.0188
G1 X5.788 Y-3.829 E0.3385
G1 X5.788 Y-4.395 E0.0188
G1 X-1.409 Y-11.591 E0.3385
G1 X-1.409 Y-12.157 E0.0188
G1 X5.788 Y-4.960 E0.3385
G1 X5.788 Y-5.526 E0.0188
G1 X-1.409 Y-12.723 E0.3385
G1 X-1.409 Y-13.288 E0.0188
G1 X5.788 Y-6.092 E0.3385
G1 X5.788 Y-6.658 E0.0188
G1 X-1.409 Y-13.854 E0.3385
G1 X-1.409 Y-14.420 E0.0188
G1 X5.788 Y-7.223 E0.3385
G1 X5.788 Y-7.789 E0.0188
G1 X-1.409 Y-14.985 E0.3385
G1 X-1.409 Y-15.551 E0.0188
G1 X5.788 Y-8.355 E0.3385
G1 X5.788 Y-8.920 E0.0188
G1 X-1.409 Y-16.117 E0.3385
G1 X-1.409 Y-16.682 E0.0188
G1 X5.788 Y-9.486 E0.3385
G1 X5.788 Y-10.052 E0.0188
G1 X-1.010 Y-16.850 E0.3198
G1 X-0.445 Y-16.850 E0.0188
G1 X5.788 Y-10.617 E0.2932
G1 X5.788 Y-11.183 E0.0188
G1 X0.121 Y-16.850 E0.2665
G1 X0.687 Y-16.850 E0.0188
G1 X5.788 Y-11.749 E0.2399
G1 X5.788 Y-12.314 E0.0188
G1 X1.252 Y-16.850 E0.2133
G1 X1.818 Y-16.850 E0.0188
G1 X5.788 Y-12.880 E0.1867
G1 X5.788 Y-13.446 E0.0188
G1 X2.384 Y-16.850 E0.1601
G1 X2.949 Y-16.850 E0.0188
G1 X5.788 Y-14.011 E0.1335
G1 X5.788 Y-14.577 E0.0188
G1 X3.515 Y-16.850 E0.1069
G1 X4.081 Y-16.850 E0.0188
G1 X5.788 Y-15.143 E0.0803
G1 X5.788 Y-15.708 E0.0188
G1 X4.646 Y-16.850 E0.0537
G1 X5.212 Y-16.850 E0.0188
G1 X5.788 Y-16.274 E0.0271
G1 X5.788 Y-16.840 E0.0188
G1 X5.778 Y-16.850 E0.0005
G1 E-1.9000 F1200
G1 Z0.700 F1200
G1 X-1.409 Y1.419 F9000
G1 Z0.200 F1200
G1 E1.9000 F1200
G1 X11.727 Y14.556 E0.6179 F2400
G1 X11.161 Y14.556 E0.0188
G1 X-1.409 Y1.985 E0.5913
G1 X-1.409 Y2.551 E0.0188
G1 X10.596 Y14.556 E0.5647
G1 X10.030 Y14.556 E0.0188
G1 X-1.409 Y3.117 E0.5381
G1 X-1.409 Y3.682 E0.0188
G1 X9.464 Y14.556 E0.5114
G1 X8.899 Y14.556 E0.0188
G1 X-1.409 Y4.248 E0.4848
G1 X-1.409 Y4.814 E0.0188
G1 X8.333 Y14.556 E0.4582
G1 X7.767 Y14.556 E0.0188
G1 X-1.409 Y5.379 E0.4316
G1 X-1.409 Y5.945 E0.0188
G1 X7.202 Y14.556 E0.4050
G1 X6.636 Y14.556 E0.0188
G1 X-1.409 Y6.511 E0.3784
G1 X-1.409 Y7.076 E0.0188
G1 X6.070 Y14.556 E0.3518
G1 X5.505 Y14.556 E0.0188
G1 X-1.409 Y7.642 E0.3252
G1 X-1.409 Y8.208 E0.0188
G1 X4.939 Y14.556 E0.2986
G1 X4.373 Y14.556 E0.0188
G1 X-1.409 Y8.773 E0.2720
G1 X-1.409 Y9.339 E0.0188
G1 X3.808 Y14.556 E0.2454
