; G-Code generated by Simplify3D(R) Version 4.1.2
; Apr 29, 2020 at 11:20:15 AM
; Settings Summary
;   processName,Process1
;   applyToModels,LookoutFloodDiffuserV1R1,LookoutSpotlightDiffuserV1R1,LookoutFloodDiffuserV1R1(2),LookoutFloodDiffuserV1R1(3),LookoutSpotlightDiffuserV1R1(2),LookoutFloodDiffuserV1R1(2)(2),LookoutFloodDiffuserV1R1(4),LookoutSpotlightDiffuserV1R1(3),LookoutFloodDiffuserV1R1(2)(3),LookoutFloodDiffuserV1R1(3)(2),LookoutSpotlightDiffuserV1R1(2)(2),LookoutFloodDiffuserV1R1(2)(2)(2),LookoutFloodDiffuserV1R1(5),LookoutSpotlightDiffuserV1R1(4),LookoutFloodDiffuserV1R1(2)(4),LookoutFloodDiffuserV1R1(3)(3),LookoutSpotlightDiffuserV1R1(2)(3),LookoutFloodDiffuserV1R1(2)(2)(3),LookoutFloodDiffuserV1R1(4)(2),LookoutSpotlightDiffuserV1R1(3)(2),LookoutFloodDiffuserV1R1(2)(3)(2),LookoutFloodDiffuserV1R1(3)(2)(2),LookoutSpotlightDiffuserV1R1(2)(2)(2),LookoutFloodDiffuserV1R1(2)(2)(2)(2)
;   profileName,MakerBot Replicator 2 HBP (modified)
;   profileVersion,2020-04-21 14:45:34
;   baseProfile,MakerBot Replicator 2(2)
;   printMaterial,PLA
;   printQuality,Medium
;   printExtruders,
;   extruderName,Primary Extruder
;   extruderToolheadNumber,0
;   extruderDiameter,0.4
;   extruderAutoWidth,0
;   extruderWidth,0.4
;   extrusionMultiplier,1
;   extruderUseRetract,1
;   extruderRetractionDistance,1.9
;   extruderExtraRestartDistance,0
;   extruderRetractionZLift,0.5
;   extruderRetractionSpeed,1200
;   extruderUseCoasting,0
;   extruderCoastingDistance,0.2
;   extruderUseWipe,0
;   extruderWipeDistance,5
;   primaryExtruder,0
;   layerHeight,0.2
;   topSolidLayers,3
;   bottomSolidLayers,3
;   perimeterOutlines,2
;   printPerimetersInsideOut,1
;   startPointOption,3
;   startPointOriginX,140
;   startPointOriginY,0
;   sequentialIslands,0
;   spiralVaseMode,0
;   firstLayerHeightPercentage,100
;   firstLayerWidthPercentage,100
;   firstLayerUnderspeed,0.5
;   useRaft,0
;   raftExtruder,0
;   raftTopLayers,2
;   raftBaseLayers,1
;   raftOffset,1
;   raftSeparationDistance,0.14
;   raftTopInfill,90
;   aboveRaftSpeedMultiplier,0.3
;   useSkirt,0
;   skirtExtruder,0
;   skirtLayers,1
;   skirtOutlines,5
;   skirtOffset,0
;   usePrimePillar,0
;   primePillarExtruder,999
;   primePillarWidth,12
;   primePillarLocation,7
;   primePillarSpeedMultiplier,1
;   useOozeShield,0
;   oozeShieldExtruder,999
;   oozeShieldOffset,2
;   oozeShieldOutlines,1
;   oozeShieldSidewallShape,1
;   oozeShieldSidewallAngle,30
;   oozeShieldSpeedMultiplier,1
;   infillExtruder,0
;   internalInfillPattern,Rectilinear
;   externalInfillPattern,Rectilinear
;   infillPercentage,15
;   outlineOverlapPercentage,20
;   infillExtrusionWidthPercentage,100
;   minInfillLength,5
;   infillLayerInterval,1
;   internalInfillAngles,45,-45
;   overlapInternalInfillAngles,0
;   externalInfillAngles,45,-45
;   generateSupport,0
;   supportExtruder,0
;   supportInfillPercentage,30
;   supportExtraInflation,0.6
;   supportBaseLayers,0
;   denseSupportExtruder,0
;   denseSupportLayers,2
;   denseSupportInfillPercentage,70
;   supportLayerInterval,1
;   supportHorizontalPartOffset,0.3
;   supportUpperSeparationLayers,1
;   supportLowerSeparationLayers,1
;   supportType,0
;   supportGridSpacing,99
;   maxOverhangAngle,45
;   supportAngles,0
;   temperatureName,Primary Extruder,Heated Build Platform
;   temperatureNumber,0,0
;   temperatureSetpointCount,1,1
;   temperatureSetpointLayers,1,1
;   temperatureSetpointTemperatures,230,60
;   temperatureStabilizeAtStartup,1,1
;   temperatureHeatedBed,0,1
;   fanLayers,1,2
;   fanSpeeds,0,100
;   blipFanToFullPower,1
;   adjustSpeedForCooling,1
;   minSpeedLayerTime,15
;   minCoolingSpeedSlowdown,20
;   increaseFanForCooling,1
;   minFanLayerTime,45
;   maxCoolingFanSpeed,100
;   increaseFanForBridging,1
;   bridgingFanSpeed,100
;   use5D,1
;   relativeEdistances,1
;   allowEaxisZeroing,0
;   independentExtruderAxes,1
;   includeM10123,0
;   stickySupport,1
;   applyToolheadOffsets,0
;   gcodeXoffset,0
;   gcodeYoffset,0
;   gcodeZoffset,0
;   overrideMachineDefinition,1
;   machineTypeOverride,0
;   strokeXoverride,280
;   strokeYoverride,150
;   strokeZoverride,150
;   originOffsetXoverride,140
;   originOffsetYoverride,75
;   originOffsetZoverride,0
;   homeXdirOverride,1
;   homeYdirOverride,1
;   homeZdirOverride,-1
;   flipXoverride,1
;   flipYoverride,-1
;   flipZoverride,1
;   toolheadOffsets,0,0|0,0|0,0|0,0|0,0|0,0
;   overrideFirmwareConfiguration,1
;   firmwareTypeOverride,MakerBot/Sailfish Firmware
;   GPXconfigOverride,r2h
;   baudRateOverride,115200
;   overridePrinterModels,1
;   printerModelsOverride,MakerBot_Replicator2.stl
;   startingGcode,; **** Replicator 2 start.gcode ****,M73 P0 ; enable build progress,G162 X Y F3000 ; home XY maximum,G161 Z F1200 ; home Z minimum,G92 Z-5 ; set Z to -5,G1 Z0 ; move Z to 0,G28 ; better homing homie,M132 X Y Z A B ; recall home offsets,G1 X-145 Y-75 Z30 F9000 ; move to wait position off table,G130 X20 Y20 Z20 A20 B20 ; lower stepper Vrefs while heating,M126 S[fan_speed_pwm],M140 S[bed0_temperature] T0,M134 T0 ; stabilize bed temperature,M104 S[extruder0_temperature] T0,M133 T0 ; stabilize extruder temperature,G130 X127 Y127 Z40 A127 B127 ; default stepper Vrefs,G92 A0 ; zero extruder,G1 Z0.4 ; position nozzle,G1 E25 F300 ; purge nozzle,G1 X-140 Y-70 Z0.15 F1200 ; slow wipe,G1 X-135 Y-65 Z0.5 F1200 ; lift,G92 A0 ; zero extruder,M73 P1 ;@body (notify GPX body has started),; **** end of start.gcode ****
;   layerChangeGcode,
;   retractionGcode,
;   toolChangeGcode,
;   endingGcode,; **** Replicator 2 end.gcode ****,M73 P100 ; end build progress,G1 Z155 F1000 ; send Z axis to bottom of machine,M104 S0 T0 ; cool down extruder,M140 S0 T0 ; cool down HBP,M127 ; stop blower fan,G162 X Y F3000 ; home XY maximum,M18 ; disable stepper,M0 ; stop codes,M72 P1 ; play Ta-Da song,; **** end of end.gcode ****
;   exportFileFormat,gcode
;   celebration,0
;   celebrationSong,Random Song
;   postProcessing,
;   defaultSpeed,4800
;   outlineUnderspeed,0.5
;   solidInfillUnderspeed,1
;   supportUnderspeed,1
;   rapidXYspeed,9000
;   rapidZspeed,1200
;   minBridgingArea,50
;   bridgingExtraInflation,0
;   bridgingExtrusionMultiplier,1
;   bridgingSpeedMultiplier,0.8
;   useFixedBridgingAngle,0
;   fixedBridgingAngle,0
;   applyBridgingToPerimeters,0
;   filamentDiameters,1.75|1.75|1.75|1.75|1.75|1.75
;   filamentPricesPerKg,46|46|46|46|46|46
;   filamentDensities,1.25|1.25|1.25|1.25|1.25|1.25
;   useMinPrintHeight,0
;   minPrintHeight,0
;   useMaxPrintHeight,0
;   maxPrintHeight,4.84
;   useDiaphragm,0
;   diaphragmLayerInterval,20
;   robustSlicing,1
;   mergeAllIntoSolid,0
;   onlyRetractWhenCrossingOutline,0
;   retractBetweenLayers,0
;   useRetractionMinTravel,1
;   retractionMinTravel,7
;   retractWhileWiping,1
;   onlyWipeOutlines,1
;   avoidCrossingOutline,0
;   maxMovementDetourFactor,3
;   toolChangeRetractionDistance,12
;   toolChangeExtraRestartDistance,-0.5
;   toolChangeRetractionSpeed,600
;   externalThinWallType,0
;   internalThinWallType,0
;   thinWallAllowedOverlapPercentage,10
;   singleExtrusionMinLength,1
;   singleExtrusionMinPrintingWidthPercentage,50
;   singleExtrusionMaxPrintingWidthPercentage,200
;   singleExtrusionEndpointExtension,0.2
;   horizontalSizeCompensation,0
G90
M83
; **** Replicator 2 start.gcode ****
M73 P0 ; enable build progress
G162 X Y F3000 ; home XY maximum
G161 Z F1200 ; home Z minimum
G92 Z-5 ; set Z to -5
G1 Z0 ; move Z to 0
G28 ; better homing homie
M132 X Y Z A B ; recall home offsets
G1 X-145 Y-75 Z30 F9000 ; move to wait position off table
G130 X20 Y20 Z20 A20 B20 ; lower stepper Vrefs while heating
M127
M140 S60 T0
M134 T0 ; stabilize bed temperature
M104 S230 T0
M133 T0 ; stabilize extruder temperature
G130 X127 Y127 Z40 A127 B127 ; default stepper Vrefs
G92 A0 ; zero extruder
G1 Z0.4 ; position nozzle
G1 E25 F300 ; purge nozzle
G1 X-140 Y-70 Z0.15 F1200 ; slow wipe
G1 X-135 Y-65 Z0.5 F1200 ; lift
G92 A0 ; zero extruder
M73 P1 ;@body (notify GPX body has started)
; **** end of start.gcode ****
; process Process1
; layer 1, Z = 0.200
M135 T0
G1 E-1.9000 F1200
; feature inner perimeter
; tool H0.200 W0.400
G1 Z0.500 F1200
G1 X16.259 Y-2.206 F9000
G1 Z0.200 F1200
G1 E1.9000 F1200
G1 X2.129 Y-2.136 E0.4700 F1800
G1 X2.093 Y-9.456 E0.2435
G1 X16.223 Y-9.527 E0.4700
G1 X16.259 Y-2.206 E0.2435
; feature outer perimeter
G1 X16.661 Y-1.808 F9000
G1 X1.731 Y-1.734 E0.4966 F1200
G1 X1.691 Y-9.854 E0.2701
G1 X16.621 Y-9.929 E0.4966
G1 X16.661 Y-1.808 E0.2701
G1 E-1.9000 F1200
; feature solid layer
G1 Z0.700 F1200
G1 X15.686 Y-9.204 F9000
G1 Z0.200 F1200
G1 E1.9000 F1200
G1 X15.905 Y-8.985 E0.0103 F2400
G1 X15.908 Y-8.416 E0.0189
G1 X15.123 Y-9.201 E0.0369
G1 X14.560 Y-9.199 E0.0187
G1 X15.911 Y-7.848 E0.0635
G1 X15.914 Y-7.279 E0.0189
G1 X13.997 Y-9.196 E0.0902
G1 X13.434 Y-9.193 E0.0187
G1 X15.917 Y-6.711 E0.1168
G1 X15.920 Y-6.142 E0.0189
G1 X12.872 Y-9.190 E0.1434
G1 X12.309 Y-9.187 E0.0187
G1 X15.922 Y-5.574 E0.1700
G1 X15.925 Y-5.005 E0.0189
G1 X11.746 Y-9.185 E0.1966
G1 X11.183 Y-9.182 E0.0187
G1 X15.928 Y-4.437 E0.2232
G1 X15.931 Y-3.868 E0.0189
G1 X10.620 Y-9.179 E0.2498
G1 X10.057 Y-9.176 E0.0187
G1 X15.934 Y-3.299 E0.2764
G1 X15.937 Y-2.731 E0.0189
G1 X9.494 Y-9.173 E0.3030
G1 X8.931 Y-9.170 E0.0187
G1 X15.579 Y-2.523 E0.3127
G1 X15.016 Y-2.520 E0.0187
G1 X8.369 Y-9.168 E0.3127
G1 X7.806 Y-9.165 E0.0187
G1 X14.453 Y-2.517 E0.3127
G1 X13.890 Y-2.514 E0.0187
G1 X7.243 Y-9.162 E0.3127
G1 X6.680 Y-9.159 E0.0187
G1 X13.328 Y-2.512 E0.3127
G1 X12.765 Y-2.509 E0.0187
G1 X6.117 Y-9.156 E0.3127
G1 X5.554 Y-9.154 E0.0187
G1 X12.202 Y-2.506 E0.3127
G1 X11.639 Y-2.503 E0.0187
G1 X4.991 Y-9.151 E0.3127
G1 X4.428 Y-9.148 E0.0187
G1 X11.076 Y-2.500 E0.3127
G1 X10.513 Y-2.498 E0.0187
G1 X3.866 Y-9.145 E0.3127
G1 X3.303 Y-9.142 E0.0187
G1 X9.950 Y-2.495 E0.3127
G1 X9.388 Y-2.492 E0.0187
G1 X2.740 Y-9.140 E0.3127
G1 X2.414 Y-9.138 E0.0108
G1 X2.415 Y-8.898 E0.0080
G1 X8.825 Y-2.489 E0.3015
G1 X8.262 Y-2.486 E0.0187
G1 X2.418 Y-8.330 E0.2749
G1 X2.421 Y-7.761 E0.0189
G1 X7.699 Y-2.483 E0.2483
G1 X7.136 Y-2.481 E0.0187
G1 X2.424 Y-7.193 E0.2216
G1 X2.427 Y-6.624 E0.0189
G1 X6.573 Y-2.478 E0.1950
G1 X6.010 Y-2.475 E0.0187
G1 X2.430 Y-6.056 E0.1684
G1 X2.432 Y-5.487 E0.0189
G1 X5.447 Y-2.472 E0.1418
G1 X4.885 Y-2.469 E0.0187
G1 X2.435 Y-4.919 E0.1152
G1 X2.438 Y-4.350 E0.0189
G1 X4.322 Y-2.467 E0.0886
G1 X3.759 Y-2.464 E0.0187
G1 X2.441 Y-3.782 E0.0620
G1 X2.444 Y-3.213 E0.0189
G1 X3.196 Y-2.461 E0.0354
G1 X2.633 Y-2.458 E0.0187
G1 X2.447 Y-2.645 E0.0088
; feature inner perimeter
G1 X-4.113 Y-2.206 F9000
G1 X-18.243 Y-2.136 E0.4700 F1800
G1 X-18.280 Y-9.456 E0.2435
G1 X-4.150 Y-9.527 E0.4700
G1 X-4.113 Y-2.206 E0.2435
; feature outer perimeter
G1 X-3.711 Y-1.808 F9000
G1 X-18.641 Y-1.734 E0.4966 F1200
G1 X-18.682 Y-9.854 E0.2701
G1 X-3.752 Y-9.929 E0.4966
G1 X-3.711 Y-1.808 E0.2701
G1 E-1.9000 F1200
; feature solid layer
G1 Z0.700 F1200
G1 X-4.679 Y-9.204 F9000
G1 Z0.200 F1200
G1 E1.9000 F1200
G1 X-4.467 Y-8.993 E0.0099 F2400
G1 X-4.464 Y-8.424 E0.0189
G1 X-5.242 Y-9.201 E0.0366
G1 X-5.805 Y-9.199 E0.0187
G1 X-4.462 Y-7.856 E0.0632
G1 X-4.459 Y-7.287 E0.0189
G1 X-6.367 Y-9.196 E0.0898
G1 X-6.930 Y-9.193 E0.0187
G1 X-4.456 Y-6.719 E0.1164
G1 X-4.453 Y-6.150 E0.0189
G1 X-7.493 Y-9.190 E0.1430
G1 X-8.056 Y-9.187 E0.0187
G1 X-4.450 Y-5.582 E0.1696
G1 X-4.447 Y-5.013 E0.0189
G1 X-8.619 Y-9.185 E0.1962
G1 X-9.182 Y-9.182 E0.0187
G1 X-4.445 Y-4.445 E0.2228
G1 X-4.442 Y-3.876 E0.0189
G1 X-9.745 Y-9.179 E0.2494
G1 X-10.308 Y-9.176 E0.0187
G1 X-4.439 Y-3.308 E0.2760
G1 X-4.436 Y-2.739 E0.0189
G1 X-10.870 Y-9.173 E0.3027
G1 X-11.433 Y-9.171 E0.0187
G1 X-4.786 Y-2.523 E0.3127
G1 X-5.349 Y-2.520 E0.0187
G1 X-11.996 Y-9.168 E0.3127
G1 X-12.559 Y-9.165 E0.0187
G1 X-5.911 Y-2.517 E0.3127
G1 X-6.474 Y-2.514 E0.0187
G1 X-13.122 Y-9.162 E0.3127
G1 X-13.685 Y-9.159 E0.0187
G1 X-7.037 Y-2.512 E0.3127
G1 X-7.600 Y-2.509 E0.0187
G1 X-14.248 Y-9.156 E0.3127
G1 X-14.811 Y-9.154 E0.0187
G1 X-8.163 Y-2.506 E0.3127
G1 X-8.726 Y-2.503 E0.0187
G1 X-15.373 Y-9.151 E0.3127
G1 X-15.936 Y-9.148 E0.0187
G1 X-9.289 Y-2.500 E0.3127
G1 X-9.851 Y-2.498 E0.0187
G1 X-16.499 Y-9.145 E0.3127
G1 X-17.062 Y-9.142 E0.0187
G1 X-10.414 Y-2.495 E0.3127
G1 X-10.977 Y-2.492 E0.0187
G1 X-17.625 Y-9.140 E0.3127
G1 X-17.958 Y-9.138 E0.0111
G1 X-17.957 Y-8.906 E0.0077
G1 X-11.540 Y-2.489 E0.3018
G1 X-12.103 Y-2.486 E0.0187
G1 X-17.954 Y-8.338 E0.2752
G1 X-17.952 Y-7.769 E0.0189
G1 X-12.666 Y-2.483 E0.2486
G1 X-13.229 Y-2.481 E0.0187
G1 X-17.949 Y-7.201 E0.2220
G1 X-17.946 Y-6.632 E0.0189
G1 X-13.792 Y-2.478 E0.1954
G1 X-14.354 Y-2.475 E0.0187
G1 X-17.943 Y-6.064 E0.1688
G1 X-17.940 Y-5.495 E0.0189
G1 X-14.917 Y-2.472 E0.1422
G1 X-15.480 Y-2.469 E0.0187
G1 X-17.937 Y-4.927 E0.1156
G1 X-17.935 Y-4.358 E0.0189
G1 X-16.043 Y-2.467 E0.0890
G1 X-16.606 Y-2.464 E0.0187
G1 X-17.932 Y-3.790 E0.0624
G1 X-17.929 Y-3.221 E0.0189
G1 X-17.169 Y-2.461 E0.0358
G1 X-17.732 Y-2.458 E0.0187
G1 X-17.926 Y-2.653 E0.0091
; feature inner perimeter
G1 X-24.486 Y-2.206 F9000
G1 X-38.616 Y-2.136 E0.4700 F1800
G1 X-38.653 Y-9.456 E0.2435
G1 X-24.523 Y-9.527 E0.4700
G1 X-24.486 Y-2.206 E0.2435
; feature outer perimeter
G1 X-24.084 Y-1.808 F9000
G1 X-39.014 Y-1.734 E0.4966 F1200
G1 X-39.055 Y-9.854 E0.2701
G1 X-24.125 Y-9.929 E0.4966
G1 X-24.084 Y-1.808 E0.2701
G1 E-1.9000 F1200
; feature solid layer
G1 Z0.700 F1200
G1 X-25.044 Y-9.204 F9000
G1 Z0.200 F1200
G1 E1.9000 F1200
G1 X-24.840 Y-9.001 E0.0096 F2400
G1 X-24.837 Y-8.432 E0.0189
G1 X-25.606 Y-9.202 E0.0362
G1 X-26.169 Y-9.199 E0.0187
G1 X-24.834 Y-7.864 E0.0628
G1 X-24.832 Y-7.295 E0.0189
G1 X-26.732 Y-9.196 E0.0894
G1 X-27.295 Y-9.193 E0.0187
G1 X-24.829 Y-6.727 E0.1160
G1 X-24.826 Y-6.158 E0.0189
G1 X-27.858 Y-9.190 E0.1426
G1 X-28.421 Y-9.187 E0.0187
G1 X-24.823 Y-5.590 E0.1692
G1 X-24.820 Y-5.021 E0.0189
G1 X-28.984 Y-9.185 E0.1958
G1 X-29.546 Y-9.182 E0.0187
G1 X-24.817 Y-4.453 E0.2224
G1 X-24.814 Y-3.884 E0.0189
G1 X-30.109 Y-9.179 E0.2491
G1 X-30.672 Y-9.176 E0.0187
G1 X-24.812 Y-3.316 E0.2757
G1 X-24.809 Y-2.747 E0.0189
G1 X-31.235 Y-9.173 E0.3023
G1 X-31.798 Y-9.171 E0.0187
G1 X-25.150 Y-2.523 E0.3127
G1 X-25.713 Y-2.520 E0.0187
G1 X-32.361 Y-9.168 E0.3127
G1 X-32.924 Y-9.165 E0.0187
G1 X-26.276 Y-2.517 E0.3127
G1 X-26.839 Y-2.514 E0.0187
G1 X-33.487 Y-9.162 E0.3127
G1 X-34.049 Y-9.159 E0.0187
G1 X-27.402 Y-2.512 E0.3127
G1 X-27.965 Y-2.509 E0.0187
G1 X-34.612 Y-9.157 E0.3127
G1 X-35.175 Y-9.154 E0.0187
G1 X-28.528 Y-2.506 E0.3127
G1 X-29.090 Y-2.503 E0.0187
G1 X-35.738 Y-9.151 E0.3127
G1 X-36.301 Y-9.148 E0.0187
G1 X-29.653 Y-2.500 E0.3127
G1 X-30.216 Y-2.498 E0.0187
G1 X-36.864 Y-9.145 E0.3127
G1 X-37.427 Y-9.142 E0.0187
G1 X-30.779 Y-2.495 E0.3127
G1 X-31.342 Y-2.492 E0.0187
G1 X-37.990 Y-9.140 E0.3127
G1 X-38.331 Y-9.138 E0.0114
G1 X-38.330 Y-8.914 E0.0074
G1 X-31.905 Y-2.489 E0.3022
G1 X-32.468 Y-2.486 E0.0187
G1 X-38.327 Y-8.346 E0.2756
G1 X-38.324 Y-7.777 E0.0189
G1 X-33.031 Y-2.484 E0.2490
G1 X-33.593 Y-2.481 E0.0187
G1 X-38.322 Y-7.209 E0.2224
G1 X-38.319 Y-6.640 E0.0189
G1 X-34.156 Y-2.478 E0.1958
G1 X-34.719 Y-2.475 E0.0187
G1 X-38.316 Y-6.072 E0.1692
G1 X-38.313 Y-5.503 E0.0189
G1 X-35.282 Y-2.472 E0.1426
G1 X-35.845 Y-2.469 E0.0187
G1 X-38.310 Y-4.935 E0.1160
G1 X-38.307 Y-4.366 E0.0189
G1 X-36.408 Y-2.467 E0.0893
G1 X-36.971 Y-2.464 E0.0187
G1 X-38.304 Y-3.798 E0.0627
G1 X-38.302 Y-3.229 E0.0189
G1 X-37.534 Y-2.461 E0.0361
G1 X-38.096 Y-2.458 E0.0187
G1 X-38.299 Y-2.661 E0.0095
; feature inner perimeter
G1 X-44.859 Y-2.206 F9000
G1 X-58.989 Y-2.136 E0.4700 F1800
G1 X-59.025 Y-9.456 E0.2435
G1 X-44.895 Y-9.527 E0.4700
G1 X-44.859 Y-2.206 E0.2435
; feature outer perimeter
G1 X-44.457 Y-1.808 F9000
G1 X-59.387 Y-1.734 E0.4966 F1200
G1 X-59.427 Y-9.854 E0.2701
G1 X-44.497 Y-9.929 E0.4966
G1 X-44.457 Y-1.808 E0.2701
G1 E-1.9000 F1200
; feature solid layer
G1 Z0.700 F1200
G1 X-45.408 Y-9.204 F9000
G1 Z0.200 F1200
G1 E1.9000 F1200
G1 X-45.213 Y-9.009 E0.0092 F2400
G1 X-45.210 Y-8.440 E0.0189
G1 X-45.971 Y-9.202 E0.0358
