; G-Code generated by Simplify3D(R) Version 4.1.2
; Apr 29, 2020 at 11:19:34 AM
; Settings Summary
;   processName,Process1
;   applyToModels,LookoutFloodDiffuserV1R1,LookoutSpotlightDiffuserV1R1,LookoutFloodDiffuserV1R1(2),LookoutFloodDiffuserV1R1(3),LookoutSpotlightDiffuserV1R1(2),LookoutFloodDiffuserV1R1(2)(2)
;   profileName,MakerBot Replicator 2 HBP (modified)
;   profileVersion,2020-04-21 14:45:34
;   baseProfile,MakerBot Replicator 2(2)
;   printMaterial,PLA
;   printQuality,Medium
;   printExtruders,
;   extruderName,Primary Extruder
;   extruderToolheadNumber,0
;   extruderDiameter,0.4
;   extruderAutoWidth,0
;   extruderWidth,0.4
;   extrusionMultiplier,1
;   extruderUseRetract,1
;   extruderRetractionDistance,1.9
;   extruderExtraRestartDistance,0
;   extruderRetractionZLift,0.5
;   extruderRetractionSpeed,1200
;   extruderUseCoasting,0
;   extruderCoastingDistance,0.2
;   extruderUseWipe,0
;   extruderWipeDistance,5
;   primaryExtruder,0
;   layerHeight,0.2
;   topSolidLayers,3
;   bottomSolidLayers,3
;   perimeterOutlines,2
;   printPerimetersInsideOut,1
;   startPointOption,3
;   startPointOriginX,140
;   startPointOriginY,0
;   sequentialIslands,0
;   spiralVaseMode,0
;   firstLayerHeightPercentage,100
;   firstLayerWidthPercentage,100
;   firstLayerUnderspeed,0.5
;   useRaft,0
;   raftExtruder,0
;   raftTopLayers,2
;   raftBaseLayers,1
;   raftOffset,1
;   raftSeparationDistance,0.14
;   raftTopInfill,90
;   aboveRaftSpeedMultiplier,0.3
;   useSkirt,0
;   skirtExtruder,0
;   skirtLayers,1
;   skirtOutlines,5
;   skirtOffset,0
;   usePrimePillar,0
;   primePillarExtruder,999
;   primePillarWidth,12
;   primePillarLocation,7
;   primePillarSpeedMultiplier,1
;   useOozeShield,0
;   oozeShieldExtruder,999
;   oozeShieldOffset,2
;   oozeShieldOutlines,1
;   oozeShieldSidewallShape,1
;   oozeShieldSidewallAngle,30
;   oozeShieldSpeedMultiplier,1
;   infillExtruder,0
;   internalInfillPattern,Rectilinear
;   externalInfillPattern,Rectilinear
;   infillPercentage,15
;   outlineOverlapPercentage,20
;   infillExtrusionWidthPercentage,100
;   minInfillLength,5
;   infillLayerInterval,1
;   internalInfillAngles,45,-45
;   overlapInternalInfillAngles,0
;   externalInfillAngles,45,-45
;   generateSupport,0
;   supportExtruder,0
;   supportInfillPercentage,30
;   supportExtraInflation,0.6
;   supportBaseLayers,0
;   denseSupportExtruder,0
;   denseSupportLayers,2
;   denseSupportInfillPercentage,70
;   supportLayerInterval,1
;   supportHorizontalPartOffset,0.3
;   supportUpperSeparationLayers,1
;   supportLowerSeparationLayers,1
;   supportType,0
;   supportGridSpacing,99
;   maxOverhangAngle,45
;   supportAngles,0
;   temperatureName,Primary Extruder,Heated Build Platform
;   temperatureNumber,0,0
;   temperatureSetpointCount,1,1
;   temperatureSetpointLayers,1,1
;   temperatureSetpointTemperatures,230,60
;   temperatureStabilizeAtStartup,1,1
;   temperatureHeatedBed,0,1
;   fanLayers,1,2
;   fanSpeeds,0,100
;   blipFanToFullPower,1
;   adjustSpeedForCooling,1
;   minSpeedLayerTime,15
;   minCoolingSpeedSlowdown,20
;   increaseFanForCooling,1
;   minFanLayerTime,45
;   maxCoolingFanSpeed,100
;   increaseFanForBridging,1
;   bridgingFanSpeed,100
;   use5D,1
;   relativeEdistances,1
;   allowEaxisZeroing,0
;   independentExtruderAxes,1
;   includeM10123,0
;   stickySupport,1
;   applyToolheadOffsets,0
;   gcodeXoffset,0
;   gcodeYoffset,0
;   gcodeZoffset,0
;   overrideMachineDefinition,1
;   machineTypeOverride,0
;   strokeXoverride,280
;   strokeYoverride,150
;   strokeZoverride,150
;   originOffsetXoverride,140
;   originOffsetYoverride,75
;   originOffsetZoverride,0
;   homeXdirOverride,1
;   homeYdirOverride,1
;   homeZdirOverride,-1
;   flipXoverride,1
;   flipYoverride,-1
;   flipZoverride,1
;   toolheadOffsets,0,0|0,0|0,0|0,0|0,0|0,0
;   overrideFirmwareConfiguration,1
;   firmwareTypeOverride,MakerBot/Sailfish Firmware
;   GPXconfigOverride,r2h
;   baudRateOverride,115200
;   overridePrinterModels,1
;   printerModelsOverride,MakerBot_Replicator2.stl
;   startingGcode,; **** Replicator 2 start.gcode ****,M73 P0 ; enable build progress,G162 X Y F3000 ; home XY maximum,G161 Z F1200 ; home Z minimum,G92 Z-5 ; set Z to -5,G1 Z0 ; move Z to 0,G28 ; better homing homie,M132 X Y Z A B ; recall home offsets,G1 X-145 Y-75 Z30 F9000 ; move to wait position off table,G130 X20 Y20 Z20 A20 B20 ; lower stepper Vrefs while heating,M126 S[fan_speed_pwm],M140 S[bed0_temperature] T0,M134 T0 ; stabilize bed temperature,M104 S[extruder0_temperature] T0,M133 T0 ; stabilize extruder temperature,G130 X127 Y127 Z40 A127 B127 ; default stepper Vrefs,G92 A0 ; zero extruder,G1 Z0.4 ; position nozzle,G1 E25 F300 ; purge nozzle,G1 X-140 Y-70 Z0.15 F1200 ; slow wipe,G1 X-135 Y-65 Z0.5 F1200 ; lift,G92 A0 ; zero extruder,M73 P1 ;@body (notify GPX body has started),; **** end of start.gcode ****
;   layerChangeGcode,
;   retractionGcode,
;   toolChangeGcode,
;   endingGcode,; **** Replicator 2 end.gcode ****,M73 P100 ; end build progress,G1 Z155 F1000 ; send Z axis to bottom of machine,M104 S0 T0 ; cool down extruder,M140 S0 T0 ; cool down HBP,M127 ; stop blower fan,G162 X Y F3000 ; home XY maximum,M18 ; disable stepper,M0 ; stop codes,M72 P1 ; play Ta-Da song,; **** end of end.gcode ****
;   exportFileFormat,gcode
;   celebration,0
;   celebrationSong,Random Song
;   postProcessing,
;   defaultSpeed,4800
;   outlineUnderspeed,0.5
;   solidInfillUnderspeed,1
;   supportUnderspeed,1
;   rapidXYspeed,9000
;   rapidZspeed,1200
;   minBridgingArea,50
;   bridgingExtraInflation,0
;   bridgingExtrusionMultiplier,1
;   bridgingSpeedMultiplier,0.8
;   useFixedBridgingAngle,0
;   fixedBridgingAngle,0
;   applyBridgingToPerimeters,0
;   filamentDiameters,1.75|1.75|1.75|1.75|1.75|1.75
;   filamentPricesPerKg,46|46|46|46|46|46
;   filamentDensities,1.25|1.25|1.25|1.25|1.25|1.25
;   useMinPrintHeight,0
;   minPrintHeight,0
;   useMaxPrintHeight,0
;   maxPrintHeight,4.84
;   useDiaphragm,0
;   diaphragmLayerInterval,20
;   robustSlicing,1
;   mergeAllIntoSolid,0
;   onlyRetractWhenCrossingOutline,0
;   retractBetweenLayers,0
;   useRetractionMinTravel,1
;   retractionMinTravel,7
;   retractWhileWiping,1
;   onlyWipeOutlines,1
;   avoidCrossingOutline,0
;   maxMovementDetourFactor,3
;   toolChangeRetractionDistance,12
;   toolChangeExtraRestartDistance,-0.5
;   toolChangeRetractionSpeed,600
;   externalThinWallType,0
;   internalThinWallType,0
;   thinWallAllowedOverlapPercentage,10
;   singleExtrusionMinLength,1
;   singleExtrusionMinPrintingWidthPercentage,50
;   singleExtrusionMaxPrintingWidthPercentage,200
;   singleExtrusionEndpointExtension,0.2
;   horizontalSizeCompensation,0
G90
M83
; **** Replicator 2 start.gcode ****
M73 P0 ; enable build progress
G162 X Y F3000 ; home XY maximum
G161 Z F1200 ; home Z minimum
G92 Z-5 ; set Z to -5
G1 Z0 ; move Z to 0
G28 ; better homing homie
M132 X Y Z A B ; recall home offsets
G1 X-145 Y-75 Z30 F9000 ; move to wait position off table
G130 X20 Y20 Z20 A20 B20 ; lower stepper Vrefs while heating
M127
M140 S60 T0
M134 T0 ; stabilize bed temperature
M104 S230 T0
M133 T0 ; stabilize extruder temperature
G130 X127 Y127 Z40 A127 B127 ; default stepper Vrefs
G92 A0 ; zero extruder
G1 Z0.4 ; position nozzle
G1 E25 F300 ; purge nozzle
G1 X-140 Y-70 Z0.15 F1200 ; slow wipe
G1 X-135 Y-65 Z0.5 F1200 ; lift
G92 A0 ; zero extruder
M73 P1 ;@body (notify GPX body has started)
; **** end of start.gcode ****
; process Process1
; layer 1, Z = 0.200
M135 T0
G1 E-1.9000 F1200
; feature inner perimeter
; tool H0.200 W0.400
G1 Z0.500 F1200
G1 X17.775 Y-4.141 F9000
G1 Z0.200 F1200
G1 E1.9000 F1200
G1 X3.645 Y-4.070 E0.4700 F1800
G1 X3.608 Y-11.391 E0.2435
G1 X17.738 Y-11.462 E0.4700
G1 X17.775 Y-4.141 E0.2435
; feature outer perimeter
G1 X18.177 Y-3.743 F9000
G1 X3.247 Y-3.668 E0.4966 F1200
G1 X3.206 Y-11.789 E0.2701
G1 X18.136 Y-11.864 E0.4966
G1 X18.177 Y-3.743 E0.2701
G1 E-1.9000 F1200
; feature solid layer
G1 Z0.700 F1200
G1 X17.146 Y-11.139 F9000
G1 Z0.200 F1200
G1 E1.9000 F1200
G1 X17.421 Y-10.863 E0.0130 F2400
G1 X17.424 Y-10.294 E0.0189
G1 X16.583 Y-11.136 E0.0396
G1 X16.020 Y-11.133 E0.0187
G1 X17.427 Y-9.726 E0.0662
G1 X17.430 Y-9.157 E0.0189
G1 X15.457 Y-11.130 E0.0928
G1 X14.894 Y-11.128 E0.0187
G1 X17.433 Y-8.589 E0.1194
G1 X17.435 Y-8.020 E0.0189
G1 X14.331 Y-11.125 E0.1460
G1 X13.768 Y-11.122 E0.0187
G1 X17.438 Y-7.452 E0.1726
G1 X17.441 Y-6.883 E0.0189
G1 X13.205 Y-11.119 E0.1992
G1 X12.643 Y-11.116 E0.0187
G1 X17.444 Y-6.315 E0.2258
G1 X17.447 Y-5.746 E0.0189
G1 X12.080 Y-11.113 E0.2525
G1 X11.517 Y-11.111 E0.0187
G1 X17.450 Y-5.178 E0.2791
G1 X17.453 Y-4.609 E0.0189
G1 X10.954 Y-11.108 E0.3057
G1 X10.391 Y-11.105 E0.0187
G1 X17.039 Y-4.457 E0.3127
G1 X16.476 Y-4.455 E0.0187
G1 X9.828 Y-11.102 E0.3127
G1 X9.265 Y-11.099 E0.0187
G1 X15.913 Y-4.452 E0.3127
G1 X15.350 Y-4.449 E0.0187
G1 X8.702 Y-11.097 E0.3127
G1 X8.140 Y-11.094 E0.0187
G1 X14.787 Y-4.446 E0.3127
G1 X14.224 Y-4.443 E0.0187
G1 X7.577 Y-11.091 E0.3127
G1 X7.014 Y-11.088 E0.0187
G1 X13.661 Y-4.440 E0.3127
G1 X13.099 Y-4.438 E0.0187
G1 X6.451 Y-11.085 E0.3127
G1 X5.888 Y-11.082 E0.0187
G1 X12.536 Y-4.435 E0.3127
G1 X11.973 Y-4.432 E0.0187
G1 X5.325 Y-11.080 E0.3127
G1 X4.762 Y-11.077 E0.0187
G1 X11.410 Y-4.429 E0.3127
G1 X10.847 Y-4.426 E0.0187
G1 X4.199 Y-11.074 E0.3127
G1 X3.930 Y-11.073 E0.0090
G1 X3.931 Y-10.777 E0.0098
G1 X10.284 Y-4.424 E0.2988
G1 X9.721 Y-4.421 E0.0187
G1 X3.934 Y-10.208 E0.2722
G1 X3.937 Y-9.640 E0.0189
G1 X9.159 Y-4.418 E0.2456
G1 X8.596 Y-4.415 E0.0187
G1 X3.940 Y-9.071 E0.2190
G1 X3.943 Y-8.502 E0.0189
G1 X8.033 Y-4.412 E0.1924
G1 X7.470 Y-4.410 E0.0187
G1 X3.945 Y-7.934 E0.1658
G1 X3.948 Y-7.365 E0.0189
G1 X6.907 Y-4.407 E0.1392
G1 X6.344 Y-4.404 E0.0187
G1 X3.951 Y-6.797 E0.1126
G1 X3.954 Y-6.228 E0.0189
G1 X5.781 Y-4.401 E0.0860
G1 X5.218 Y-4.398 E0.0187
G1 X3.957 Y-5.660 E0.0593
G1 X3.960 Y-5.091 E0.0189
G1 X4.656 Y-4.395 E0.0327
G1 X4.093 Y-4.393 E0.0187
G1 X3.963 Y-4.523 E0.0061
; feature inner perimeter
G1 X-2.605 Y-6.570 F9000
G1 X-2.650 Y-6.115 E0.0152 F1800
G1 X-2.739 Y-5.666 E0.0152
G1 X-2.872 Y-5.228 E0.0152
G1 X-3.047 Y-4.806 E0.0152
G1 X-3.263 Y-4.402 E0.0152
G1 X-3.517 Y-4.022 E0.0152
G1 X-3.807 Y-3.668 E0.0152
G1 X-4.131 Y-3.345 E0.0152
G1 X-4.484 Y-3.055 E0.0152
G1 X-4.864 Y-2.801 E0.0152
G1 X-5.268 Y-2.585 E0.0152
G1 X-5.691 Y-2.410 E0.0152
G1 X-6.128 Y-2.277 E0.0152
G1 X-6.577 Y-2.188 E0.0152
G1 X-7.032 Y-2.143 E0.0152
G1 X-7.490 Y-2.143 E0.0152
G1 X-7.945 Y-2.188 E0.0152
G1 X-8.393 Y-2.277 E0.0152
G1 X-8.831 Y-2.410 E0.0152
G1 X-9.254 Y-2.585 E0.0152
G1 X-9.657 Y-2.801 E0.0152
G1 X-10.038 Y-3.055 E0.0152
G1 X-10.391 Y-3.345 E0.0152
G1 X-10.715 Y-3.668 E0.0152
G1 X-11.005 Y-4.022 E0.0152
G1 X-11.259 Y-4.402 E0.0152
G1 X-11.475 Y-4.806 E0.0152
G1 X-11.650 Y-5.228 E0.0152
G1 X-11.782 Y-5.666 E0.0152
G1 X-11.872 Y-6.115 E0.0152
G1 X-11.916 Y-6.570 E0.0152
G1 X-11.916 Y-7.027 E0.0152
G1 X-11.872 Y-7.483 E0.0152
G1 X-11.782 Y-7.931 E0.0152
G1 X-11.650 Y-8.369 E0.0152
G1 X-11.475 Y-8.792 E0.0152
G1 X-11.259 Y-9.195 E0.0152
G1 X-11.005 Y-9.575 E0.0152
G1 X-10.715 Y-9.929 E0.0152
G1 X-10.391 Y-10.252 E0.0152
G1 X-10.038 Y-10.543 E0.0152
G1 X-9.657 Y-10.797 E0.0152
G1 X-9.254 Y-11.012 E0.0152
G1 X-8.831 Y-11.187 E0.0152
G1 X-8.393 Y-11.320 E0.0152
G1 X-7.945 Y-11.409 E0.0152
G1 X-7.490 Y-11.454 E0.0152
G1 X-7.032 Y-11.454 E0.0152
G1 X-6.577 Y-11.409 E0.0152
G1 X-6.128 Y-11.320 E0.0152
G1 X-5.691 Y-11.187 E0.0152
G1 X-5.268 Y-11.012 E0.0152
G1 X-4.865 Y-10.797 E0.0152
G1 X-4.484 Y-10.543 E0.0152
G1 X-4.130 Y-10.252 E0.0152
G1 X-3.807 Y-9.929 E0.0152
G1 X-3.517 Y-9.575 E0.0152
G1 X-3.263 Y-9.195 E0.0152
G1 X-3.047 Y-8.792 E0.0152
G1 X-2.872 Y-8.369 E0.0152
G1 X-2.739 Y-7.931 E0.0152
G1 X-2.650 Y-7.483 E0.0152
G1 X-2.605 Y-7.027 E0.0152
G1 X-2.605 Y-6.570 E0.0152
; feature outer perimeter
G1 X-2.205 Y-6.550 F9000
G1 X-2.254 Y-6.056 E0.0165 F1200
G1 X-2.351 Y-5.569 E0.0165
G1 X-2.495 Y-5.093 E0.0165
G1 X-2.685 Y-4.635 E0.0165
G1 X-2.919 Y-4.196 E0.0165
G1 X-3.195 Y-3.783 E0.0165
G1 X-3.510 Y-3.399 E0.0165
G1 X-3.862 Y-3.048 E0.0165
G1 X-4.246 Y-2.733 E0.0165
G1 X-4.659 Y-2.457 E0.0165
G1 X-5.097 Y-2.223 E0.0165
G1 X-5.556 Y-2.033 E0.0165
G1 X-6.031 Y-1.889 E0.0165
G1 X-6.518 Y-1.792 E0.0165
G1 X-7.013 Y-1.743 E0.0165
G1 X-7.509 Y-1.743 E0.0165
G1 X-8.004 Y-1.792 E0.0165
G1 X-8.491 Y-1.889 E0.0165
G1 X-8.966 Y-2.033 E0.0165
G1 X-9.425 Y-2.223 E0.0165
G1 X-9.863 Y-2.457 E0.0165
G1 X-10.276 Y-2.733 E0.0165
G1 X-10.660 Y-3.048 E0.0165
G1 X-11.011 Y-3.399 E0.0165
G1 X-11.326 Y-3.783 E0.0165
G1 X-11.602 Y-4.196 E0.0165
G1 X-11.837 Y-4.635 E0.0165
G1 X-12.027 Y-5.093 E0.0165
G1 X-12.171 Y-5.569 E0.0165
G1 X-12.268 Y-6.056 E0.0165
G1 X-12.316 Y-6.550 E0.0165
G1 X-12.316 Y-7.047 E0.0165
G1 X-12.268 Y-7.541 E0.0165
G1 X-12.171 Y-8.029 E0.0165
G1 X-12.027 Y-8.504 E0.0165
G1 X-11.837 Y-8.963 E0.0165
G1 X-11.602 Y-9.401 E0.0165
G1 X-11.326 Y-9.814 E0.0165
G1 X-11.011 Y-10.198 E0.0165
G1 X-10.660 Y-10.549 E0.0165
G1 X-10.276 Y-10.864 E0.0165
G1 X-9.863 Y-11.140 E0.0165
G1 X-9.425 Y-11.374 E0.0165
G1 X-8.966 Y-11.564 E0.0165
G1 X-8.491 Y-11.709 E0.0165
G1 X-8.004 Y-11.806 E0.0165
G1 X-7.509 Y-11.854 E0.0165
G1 X-7.013 Y-11.854 E0.0165
G1 X-6.518 Y-11.806 E0.0165
G1 X-6.031 Y-11.709 E0.0165
G1 X-5.556 Y-11.564 E0.0165
G1 X-5.097 Y-11.374 E0.0165
G1 X-4.659 Y-11.140 E0.0165
G1 X-4.246 Y-10.864 E0.0165
G1 X-3.862 Y-10.549 E0.0165
G1 X-3.510 Y-10.198 E0.0165
G1 X-3.195 Y-9.814 E0.0165
G1 X-2.919 Y-9.401 E0.0165
G1 X-2.685 Y-8.963 E0.0165
G1 X-2.495 Y-8.504 E0.0165
G1 X-2.351 Y-8.029 E0.0165
G1 X-2.254 Y-7.541 E0.0165
G1 X-2.205 Y-7.047 E0.0165
G1 X-2.205 Y-6.550 E0.0165
; feature solid layer
G1 X-4.415 Y-10.072 F9000
G1 X-3.988 Y-9.645 E0.0201 F2400
G1 X-3.774 Y-9.384 E0.0112
G1 X-3.538 Y-9.030 E0.0142
G1 X-3.337 Y-8.655 E0.0142
G1 X-3.177 Y-8.268 E0.0139
G1 X-5.792 Y-10.883 E0.1230
G1 X-5.798 Y-10.886 E0.0002
G1 X-6.206 Y-11.009 E0.0142
G1 X-6.553 Y-11.078 E0.0118
G1 X-2.981 Y-7.507 E0.1680
G1 X-2.967 Y-7.436 E0.0024
G1 X-2.925 Y-7.012 E0.0142
G1 X-2.925 Y-6.885 E0.0042
G1 X-7.174 Y-11.134 E0.1999
G1 X-7.474 Y-11.134 E0.0100
G1 X-7.716 Y-11.110 E0.0081
G1 X-2.949 Y-6.343 E0.2242
G1 X-2.967 Y-6.162 E0.0061
G1 X-3.028 Y-5.856 E0.0104
G1 X-8.203 Y-11.032 E0.2434
G1 X-8.316 Y-11.009 E0.0038
G1 X-8.646 Y-10.909 E0.0115
G1 X-3.150 Y-5.413 E0.2585
G1 X-3.174 Y-5.336 E0.0027
G1 X-3.310 Y-5.007 E0.0118
G1 X-9.052 Y-10.749 E0.2701
G1 X-9.117 Y-10.723 E0.0023
G1 X-9.426 Y-10.557 E0.0117
G1 X-3.502 Y-4.633 E0.2786
G1 X-3.538 Y-4.567 E0.0025
G1 X-3.723 Y-4.289 E0.0111
G1 X-9.770 Y-10.336 E0.2844
G1 X-9.847 Y-10.285 E0.0030
G1 X-10.088 Y-10.088 E0.0104
G1 X-3.972 Y-3.972 E0.2877
G1 X-4.045 Y-3.884 E0.0038
G1 X-4.247 Y-3.681 E0.0095
G1 X-10.378 Y-9.813 E0.2884
G1 X-10.477 Y-9.714 E0.0047
G1 X-10.643 Y-9.512 E0.0087
G1 X-4.548 Y-3.416 E0.2867
G1 X-4.675 Y-3.312 E0.0055
G1 X-4.875 Y-3.178 E0.0080
G1 X-10.881 Y-9.184 E0.2825
G1 X-10.984 Y-9.030 E0.0062
G1 X-11.092 Y-8.829 E0.0076
G1 X-5.231 Y-2.968 E0.2757
G1 X-5.405 Y-2.875 E0.0066
G1 X-5.616 Y-2.787 E0.0076
G1 X-11.272 Y-8.444 E0.2661
G1 X-11.348 Y-8.261 E0.0066
G1 X-11.419 Y-8.025 E0.0082
G1 X-6.034 Y-2.640 E0.2533
G1 X-6.206 Y-2.588 E0.0060
G1 X-6.491 Y-2.531 E0.0097
G1 X-11.528 Y-7.568 E0.2369
G1 X-11.555 Y-7.436 E0.0045
G1 X-11.591 Y-7.066 E0.0124
G1 X-6.994 Y-2.468 E0.2162
G1 X-7.048 Y-2.463 E0.0018
G1 X-7.474 Y-2.463 E0.0142
G1 X-7.563 Y-2.472 E0.0030
G1 X-11.588 Y-6.496 E0.1893
G1 X-11.555 Y-6.162 E0.0112
G1 X-11.489 Y-5.832 E0.0112
G1 X-8.227 Y-2.570 E0.1534
G1 X-8.316 Y-2.588 E0.0030
G1 X-8.723 Y-2.712 E0.0142
G1 X-9.083 Y-2.861 E0.0130
G1 X-11.199 Y-4.976 E0.0995
G1 E-1.9000 F1200
; feature inner perimeter
G1 Z0.700 F1200
G1 X-18.137 Y-6.570 F9000
G1 Z0.200 F1200
G1 E1.9000 F1200
G1 X-18.182 Y-6.115 E0.0152 F1800
G1 X-18.271 Y-5.666 E0.0152
G1 X-18.404 Y-5.228 E0.0152
G1 X-18.579 Y-4.806 E0.0152
G1 X-18.795 Y-4.402 E0.0152
G1 X-19.049 Y-4.022 E0.0152
G1 X-19.339 Y-3.668 E0.0152
G1 X-19.663 Y-3.345 E0.0152
G1 X-20.016 Y-3.055 E0.0152
G1 X-20.397 Y-2.801 E0.0152
