; G-Code generated by Simplify3D(R) Version 4.1.2
; Apr 29, 2020 at 11:20:05 AM
; Settings Summary
;   processName,Process1
;   applyToModels,LookoutFloodDiffuserV1R1,LookoutSpotlightDiffuserV1R1,LookoutFloodDiffuserV1R1(2),LookoutFloodDiffuserV1R1(3),LookoutSpotlightDiffuserV1R1(2),LookoutFloodDiffuserV1R1(2)(2),LookoutFloodDiffuserV1R1(4),LookoutSpotlightDiffuserV1R1(3),LookoutFloodDiffuserV1R1(2)(3),LookoutFloodDiffuserV1R1(3)(2),LookoutSpotlightDiffuserV1R1(2)(2),LookoutFloodDiffuserV1R1(2)(2)(2)
;   profileName,MakerBot Replicator 2 HBP (modified)
;   profileVersion,2020-04-21 14:45:34
;   baseProfile,MakerBot Replicator 2(2)
;   printMaterial,PLA
;   printQuality,Medium
;   printExtruders,
;   extruderName,Primary Extruder
;   extruderToolheadNumber,0
;   extruderDiameter,0.4
;   extruderAutoWidth,0
;   extruderWidth,0.4
;   extrusionMultiplier,1
;   extruderUseRetract,1
;   extruderRetractionDistance,1.9
;   extruderExtraRestartDistance,0
;   extruderRetractionZLift,0.5
;   extruderRetractionSpeed,1200
;   extruderUseCoasting,0
;   extruderCoastingDistance,0.2
;   extruderUseWipe,0
;   extruderWipeDistance,5
;   primaryExtruder,0
;   layerHeight,0.2
;   topSolidLayers,3
;   bottomSolidLayers,3
;   perimeterOutlines,2
;   printPerimetersInsideOut,1
;   startPointOption,3
;   startPointOriginX,140
;   startPointOriginY,0
;   sequentialIslands,0
;   spiralVaseMode,0
;   firstLayerHeightPercentage,100
;   firstLayerWidthPercentage,100
;   firstLayerUnderspeed,0.5
;   useRaft,0
;   raftExtruder,0
;   raftTopLayers,2
;   raftBaseLayers,1
;   raftOffset,1
;   raftSeparationDistance,0.14
;   raftTopInfill,90
;   aboveRaftSpeedMultiplier,0.3
;   useSkirt,0
;   skirtExtruder,0
;   skirtLayers,1
;   skirtOutlines,5
;   skirtOffset,0
;   usePrimePillar,0
;   primePillarExtruder,999
;   primePillarWidth,12
;   primePillarLocation,7
;   primePillarSpeedMultiplier,1
;   useOozeShield,0
;   oozeShieldExtruder,999
;   oozeShieldOffset,2
;   oozeShieldOutlines,1
;   oozeShieldSidewallShape,1
;   oozeShieldSidewallAngle,30
;   oozeShieldSpeedMultiplier,1
;   infillExtruder,0
;   internalInfillPattern,Rectilinear
;   externalInfillPattern,Rectilinear
;   infillPercentage,15
;   outlineOverlapPercentage,20
;   infillExtrusionWidthPercentage,100
;   minInfillLength,5
;   infillLayerInterval,1
;   internalInfillAngles,45,-45
;   overlapInternalInfillAngles,0
;   externalInfillAngles,45,-45
;   generateSupport,0
;   supportExtruder,0
;   supportInfillPercentage,30
;   supportExtraInflation,0.6
;   supportBaseLayers,0
;   denseSupportExtruder,0
;   denseSupportLayers,2
;   denseSupportInfillPercentage,70
;   supportLayerInterval,1
;   supportHorizontalPartOffset,0.3
;   supportUpperSeparationLayers,1
;   supportLowerSeparationLayers,1
;   supportType,0
;   supportGridSpacing,99
;   maxOverhangAngle,45
;   supportAngles,0
;   temperatureName,Primary Extruder,Heated Build Platform
;   temperatureNumber,0,0
;   temperatureSetpointCount,1,1
;   temperatureSetpointLayers,1,1
;   temperatureSetpointTemperatures,230,60
;   temperatureStabilizeAtStartup,1,1
;   temperatureHeatedBed,0,1
;   fanLayers,1,2
;   fanSpeeds,0,100
;   blipFanToFullPower,1
;   adjustSpeedForCooling,1
;   minSpeedLayerTime,15
;   minCoolingSpeedSlowdown,20
;   increaseFanForCooling,1
;   minFanLayerTime,45
;   maxCoolingFanSpeed,100
;   increaseFanForBridging,1
;   bridgingFanSpeed,100
;   use5D,1
;   relativeEdistances,1
;   allowEaxisZeroing,0
;   independentExtruderAxes,1
;   includeM10123,0
;   stickySupport,1
;   applyToolheadOffsets,0
;   gcodeXoffset,0
;   gcodeYoffset,0
;   gcodeZoffset,0
;   overrideMachineDefinition,1
;   machineTypeOverride,0
;   strokeXoverride,280
;   strokeYoverride,150
;   strokeZoverride,150
;   originOffsetXoverride,140
;   originOffsetYoverride,75
;   originOffsetZoverride,0
;   homeXdirOverride,1
;   homeYdirOverride,1
;   homeZdirOverride,-1
;   flipXoverride,1
;   flipYoverride,-1
;   flipZoverride,1
;   toolheadOffsets,0,0|0,0|0,0|0,0|0,0|0,0
;   overrideFirmwareConfiguration,1
;   firmwareTypeOverride,MakerBot/Sailfish Firmware
;   GPXconfigOverride,r2h
;   baudRateOverride,115200
;   overridePrinterModels,1
;   printerModelsOverride,MakerBot_Replicator2.stl
;   startingGcode,; **** Replicator 2 start.gcode ****,M73 P0 ; enable build progress,G162 X Y F3000 ; home XY maximum,G161 Z F1200 ; home Z minimum,G92 Z-5 ; set Z to -5,G1 Z0 ; move Z to 0,G28 ; better homing homie,M132 X Y Z A B ; recall home offsets,G1 X-145 Y-75 Z30 F9000 ; move to wait position off table,G130 X20 Y20 Z20 A20 B20 ; lower stepper Vrefs while heating,M126 S[fan_speed_pwm],M140 S[bed0_temperature] T0,M134 T0 ; stabilize bed temperature,M104 S[extruder0_temperature] T0,M133 T0 ; stabilize extruder temperature,G130 X127 Y127 Z40 A127 B127 ; default stepper Vrefs,G92 A0 ; zero extruder,G1 Z0.4 ; position nozzle,G1 E25 F300 ; purge nozzle,G1 X-140 Y-70 Z0.15 F1200 ; slow wipe,G1 X-135 Y-65 Z0.5 F1200 ; lift,G92 A0 ; zero extruder,M73 P1 ;@body (notify GPX body has started),; **** end of start.gcode ****
;   layerChangeGcode,
;   retractionGcode,
;   toolChangeGcode,
;   endingGcode,; **** Replicator 2 end.gcode ****,M73 P100 ; end build progress,G1 Z155 F1000 ; send Z axis to bottom of machine,M104 S0 T0 ; cool down extruder,M140 S0 T0 ; cool down HBP,M127 ; stop blower fan,G162 X Y F3000 ; home XY maximum,M18 ; disable stepper,M0 ; stop codes,M72 P1 ; play Ta-Da song,; **** end of end.gcode ****
;   exportFileFormat,gcode
;   celebration,0
;   celebrationSong,Random Song
;   postProcessing,
;   defaultSpeed,4800
;   outlineUnderspeed,0.5
;   solidInfillUnderspeed,1
;   supportUnderspeed,1
;   rapidXYspeed,9000
;   rapidZspeed,1200
;   minBridgingArea,50
;   bridgingExtraInflation,0
;   bridgingExtrusionMultiplier,1
;   bridgingSpeedMultiplier,0.8
;   useFixedBridgingAngle,0
;   fixedBridgingAngle,0
;   applyBridgingToPerimeters,0
;   filamentDiameters,1.75|1.75|1.75|1.75|1.75|1.75
;   filamentPricesPerKg,46|46|46|46|46|46
;   filamentDensities,1.25|1.25|1.25|1.25|1.25|1.25
;   useMinPrintHeight,0
;   minPrintHeight,0
;   useMaxPrintHeight,0
;   maxPrintHeight,4.84
;   useDiaphragm,0
;   diaphragmLayerInterval,20
;   robustSlicing,1
;   mergeAllIntoSolid,0
;   onlyRetractWhenCrossingOutline,0
;   retractBetweenLayers,0
;   useRetractionMinTravel,1
;   retractionMinTravel,7
;   retractWhileWiping,1
;   onlyWipeOutlines,1
;   avoidCrossingOutline,0
;   maxMovementDetourFactor,3
;   toolChangeRetractionDistance,12
;   toolChangeExtraRestartDistance,-0.5
;   toolChangeRetractionSpeed,600
;   externalThinWallType,0
;   internalThinWallType,0
;   thinWallAllowedOverlapPercentage,10
;   singleExtrusionMinLength,1
;   singleExtrusionMinPrintingWidthPercentage,50
;   singleExtrusionMaxPrintingWidthPercentage,200
;   singleExtrusionEndpointExtension,0.2
;   horizontalSizeCompensation,0
G90
M83
; **** Replicator 2 start.gcode ****
M73 P0 ; enable build progress
G162 X Y F3000 ; home XY maximum
G161 Z F1200 ; home Z minimum
G92 Z-5 ; set Z to -5
G1 Z0 ; move Z to 0
G28 ; better homing homie
M132 X Y Z A B ; recall home offsets
G1 X-145 Y-75 Z30 F9000 ; move to wait position off table
G130 X20 Y20 Z20 A20 B20 ; lower stepper Vrefs while heating
M127
M140 S60 T0
M134 T0 ; stabilize bed temperature
M104 S230 T0
M133 T0 ; stabilize extruder temperature
G130 X127 Y127 Z40 A127 B127 ; default stepper Vrefs
G92 A0 ; zero extruder
G1 Z0.4 ; position nozzle
G1 E25 F300 ; purge nozzle
G1 X-140 Y-70 Z0.15 F1200 ; slow wipe
G1 X-135 Y-65 Z0.5 F1200 ; lift
G92 A0 ; zero extruder
M73 P1 ;@body (notify GPX body has started)
; **** end of start.gcode ****
; process Process1
; layer 1, Z = 0.200
M135 T0
G1 E-1.9000 F1200
; feature inner perimeter
; tool H0.200 W0.400
G1 Z0.500 F1200
G1 X16.728 Y-2.728 F9000
G1 Z0.200 F1200
G1 E1.9000 F1200
G1 X16.764 Y4.592 E0.2435 F1800
G1 X2.634 Y4.663 E0.4700
G1 X2.598 Y-2.658 E0.2435
G1 X16.728 Y-2.728 E0.4700
; feature outer perimeter
G1 X17.126 Y-3.130 F9000
G1 X17.166 Y4.990 E0.2701 F1200
G1 X2.236 Y5.065 E0.4966
G1 X2.196 Y-3.056 E0.2701
G1 X17.126 Y-3.130 E0.4966
; feature solid layer
G1 X16.262 Y-2.406 F9000
G1 X16.410 Y-2.257 E0.0070 F2400
G1 X16.413 Y-1.689 E0.0189
G1 X15.699 Y-2.403 E0.0336
G1 X15.136 Y-2.400 E0.0187
G1 X16.416 Y-1.120 E0.0602
G1 X16.419 Y-0.552 E0.0189
G1 X14.573 Y-2.398 E0.0868
G1 X14.010 Y-2.395 E0.0187
G1 X16.422 Y0.017 E0.1134
G1 X16.424 Y0.585 E0.0189
G1 X13.447 Y-2.392 E0.1400
G1 X12.884 Y-2.389 E0.0187
G1 X16.427 Y1.154 E0.1666
G1 X16.430 Y1.722 E0.0189
G1 X12.322 Y-2.386 E0.1933
G1 X11.759 Y-2.383 E0.0187
G1 X16.433 Y2.291 E0.2199
G1 X16.436 Y2.859 E0.0189
G1 X11.196 Y-2.381 E0.2465
G1 X10.633 Y-2.378 E0.0187
G1 X16.439 Y3.428 E0.2731
G1 X16.442 Y3.996 E0.0189
G1 X10.070 Y-2.375 E0.2997
G1 X9.507 Y-2.372 E0.0187
G1 X16.155 Y4.275 E0.3127
G1 X15.592 Y4.278 E0.0187
G1 X8.944 Y-2.369 E0.3127
G1 X8.381 Y-2.367 E0.0187
G1 X15.029 Y4.281 E0.3127
G1 X14.466 Y4.284 E0.0187
G1 X7.819 Y-2.364 E0.3127
G1 X7.256 Y-2.361 E0.0187
G1 X13.903 Y4.287 E0.3127
G1 X13.340 Y4.290 E0.0187
G1 X6.693 Y-2.358 E0.3127
G1 X6.130 Y-2.355 E0.0187
G1 X12.778 Y4.292 E0.3127
G1 X12.215 Y4.295 E0.0187
G1 X5.567 Y-2.352 E0.3127
G1 X5.004 Y-2.350 E0.0187
G1 X11.652 Y4.298 E0.3127
G1 X11.089 Y4.301 E0.0187
G1 X4.441 Y-2.347 E0.3127
G1 X3.879 Y-2.344 E0.0187
G1 X10.526 Y4.304 E0.3127
G1 X9.963 Y4.306 E0.0187
G1 X3.316 Y-2.341 E0.3127
G1 X2.919 Y-2.339 E0.0132
G1 X2.920 Y-2.171 E0.0056
G1 X9.400 Y4.309 E0.3048
G1 X8.838 Y4.312 E0.0187
G1 X2.923 Y-1.602 E0.2782
G1 X2.926 Y-1.034 E0.0189
G1 X8.275 Y4.315 E0.2516
G1 X7.712 Y4.318 E0.0187
G1 X2.929 Y-0.465 E0.2250
G1 X2.932 Y0.103 E0.0189
G1 X7.149 Y4.320 E0.1984
G1 X6.586 Y4.323 E0.0187
G1 X2.934 Y0.672 E0.1718
G1 X2.937 Y1.240 E0.0189
G1 X6.023 Y4.326 E0.1452
G1 X5.460 Y4.329 E0.0187
G1 X2.940 Y1.809 E0.1185
G1 X2.943 Y2.377 E0.0189
G1 X4.897 Y4.332 E0.0919
G1 X4.335 Y4.335 E0.0187
G1 X2.946 Y2.946 E0.0653
G1 X2.949 Y3.514 E0.0189
G1 X3.772 Y4.337 E0.0387
G1 X3.209 Y4.340 E0.0187
G1 X2.951 Y4.083 E0.0121
G1 E-1.9000 F1200
; feature inner perimeter
G1 Z0.700 F1200
G1 X-3.645 Y-2.728 F9000
G1 Z0.200 F1200
G1 E1.9000 F1200
G1 X-3.608 Y4.592 E0.2435 F1800
G1 X-17.738 Y4.663 E0.4700
G1 X-17.775 Y-2.658 E0.2435
G1 X-3.645 Y-2.728 E0.4700
; feature outer perimeter
G1 X-3.247 Y-3.130 F9000
G1 X-3.206 Y4.990 E0.2701 F1200
G1 X-18.136 Y5.065 E0.4966
G1 X-18.177 Y-3.056 E0.2701
G1 X-3.247 Y-3.130 E0.4966
; feature solid layer
G1 X-4.103 Y-2.406 F9000
G1 X-3.962 Y-2.265 E0.0066 F2400
G1 X-3.960 Y-1.697 E0.0189
G1 X-4.666 Y-2.403 E0.0332
G1 X-5.229 Y-2.400 E0.0187
G1 X-3.957 Y-1.128 E0.0598
G1 X-3.954 Y-0.560 E0.0189
G1 X-5.792 Y-2.398 E0.0864
G1 X-6.355 Y-2.395 E0.0187
G1 X-3.951 Y0.009 E0.1130
G1 X-3.948 Y0.577 E0.0189
G1 X-6.917 Y-2.392 E0.1397
G1 X-7.480 Y-2.389 E0.0187
G1 X-3.945 Y1.146 E0.1663
G1 X-3.943 Y1.714 E0.0189
G1 X-8.043 Y-2.386 E0.1929
G1 X-8.606 Y-2.383 E0.0187
G1 X-3.940 Y2.283 E0.2195
G1 X-3.937 Y2.851 E0.0189
G1 X-9.169 Y-2.381 E0.2461
G1 X-9.732 Y-2.378 E0.0187
G1 X-3.934 Y3.420 E0.2727
G1 X-3.931 Y3.988 E0.0189
G1 X-10.295 Y-2.375 E0.2993
G1 X-10.857 Y-2.372 E0.0187
G1 X-4.210 Y4.275 E0.3127
G1 X-4.773 Y4.278 E0.0187
G1 X-11.420 Y-2.369 E0.3127
G1 X-11.983 Y-2.367 E0.0187
G1 X-5.336 Y4.281 E0.3127
G1 X-5.898 Y4.284 E0.0187
G1 X-12.546 Y-2.364 E0.3127
G1 X-13.109 Y-2.361 E0.0187
G1 X-6.461 Y4.287 E0.3127
G1 X-7.024 Y4.289 E0.0187
G1 X-13.672 Y-2.358 E0.3127
G1 X-14.235 Y-2.355 E0.0187
G1 X-7.587 Y4.292 E0.3127
G1 X-8.150 Y4.295 E0.0187
G1 X-14.798 Y-2.353 E0.3127
G1 X-15.360 Y-2.350 E0.0187
G1 X-8.713 Y4.298 E0.3127
G1 X-9.276 Y4.301 E0.0187
G1 X-15.923 Y-2.347 E0.3127
G1 X-16.486 Y-2.344 E0.0187
G1 X-9.839 Y4.304 E0.3127
G1 X-10.401 Y4.306 E0.0187
G1 X-17.049 Y-2.341 E0.3127
G1 X-17.453 Y-2.339 E0.0134
G1 X-17.452 Y-2.179 E0.0053
G1 X-10.964 Y4.309 E0.3052
G1 X-11.527 Y4.312 E0.0187
G1 X-17.450 Y-1.610 E0.2786
G1 X-17.447 Y-1.042 E0.0189
G1 X-12.090 Y4.315 E0.2520
G1 X-12.653 Y4.318 E0.0187
G1 X-17.444 Y-0.473 E0.2254
G1 X-17.441 Y0.095 E0.0189
G1 X-13.216 Y4.320 E0.1987
G1 X-13.779 Y4.323 E0.0187
G1 X-17.438 Y0.664 E0.1721
G1 X-17.435 Y1.232 E0.0189
G1 X-14.342 Y4.326 E0.1455
G1 X-14.904 Y4.329 E0.0187
G1 X-17.433 Y1.801 E0.1189
G1 X-17.430 Y2.369 E0.0189
G1 X-15.467 Y4.332 E0.0923
G1 X-16.030 Y4.335 E0.0187
G1 X-17.427 Y2.938 E0.0657
G1 X-17.424 Y3.506 E0.0189
G1 X-16.593 Y4.337 E0.0391
G1 X-17.156 Y4.340 E0.0187
G1 X-17.421 Y4.075 E0.0125
G1 E-1.9000 F1200
; feature inner perimeter
G1 Z0.700 F1200
G1 X-24.017 Y-2.728 F9000
G1 Z0.200 F1200
G1 E1.9000 F1200
G1 X-23.981 Y4.592 E0.2435 F1800
G1 X-38.111 Y4.663 E0.4700
G1 X-38.148 Y-2.658 E0.2435
G1 X-24.017 Y-2.728 E0.4700
; feature outer perimeter
G1 X-23.619 Y-3.130 F9000
G1 X-23.579 Y4.990 E0.2701 F1200
G1 X-38.509 Y5.065 E0.4966
G1 X-38.550 Y-3.056 E0.2701
G1 X-23.619 Y-3.130 E0.4966
; feature solid layer
G1 X-24.468 Y-2.406 F9000
G1 X-24.335 Y-2.273 E0.0062 F2400
G1 X-24.332 Y-1.705 E0.0189
G1 X-25.031 Y-2.403 E0.0328
G1 X-25.593 Y-2.400 E0.0187
G1 X-24.330 Y-1.136 E0.0595
G1 X-24.327 Y-0.568 E0.0189
G1 X-26.156 Y-2.398 E0.0861
G1 X-26.719 Y-2.395 E0.0187
G1 X-24.324 Y0.001 E0.1127
G1 X-24.321 Y0.569 E0.0189
G1 X-27.282 Y-2.392 E0.1393
G1 X-27.845 Y-2.389 E0.0187
G1 X-24.318 Y1.138 E0.1659
G1 X-24.315 Y1.706 E0.0189
G1 X-28.408 Y-2.386 E0.1925
G1 X-28.971 Y-2.384 E0.0187
G1 X-24.312 Y2.275 E0.2191
G1 X-24.310 Y2.843 E0.0189
G1 X-29.534 Y-2.381 E0.2457
G1 X-30.096 Y-2.378 E0.0187
G1 X-24.307 Y3.412 E0.2723
G1 X-24.304 Y3.980 E0.0189
G1 X-30.659 Y-2.375 E0.2989
G1 X-31.222 Y-2.372 E0.0187
G1 X-24.575 Y4.275 E0.3127
G1 X-25.137 Y4.278 E0.0187
G1 X-31.785 Y-2.369 E0.3127
G1 X-32.348 Y-2.367 E0.0187
G1 X-25.700 Y4.281 E0.3127
G1 X-26.263 Y4.284 E0.0187
G1 X-32.911 Y-2.364 E0.3127
G1 X-33.474 Y-2.361 E0.0187
G1 X-26.826 Y4.287 E0.3127
G1 X-27.389 Y4.289 E0.0187
G1 X-34.037 Y-2.358 E0.3127
G1 X-34.599 Y-2.355 E0.0187
G1 X-27.952 Y4.292 E0.3127
G1 X-28.515 Y4.295 E0.0187
G1 X-35.162 Y-2.353 E0.3127
G1 X-35.725 Y-2.350 E0.0187
G1 X-29.078 Y4.298 E0.3127
G1 X-29.640 Y4.301 E0.0187
G1 X-36.288 Y-2.347 E0.3127
G1 X-36.851 Y-2.344 E0.0187
G1 X-30.203 Y4.304 E0.3127
G1 X-30.766 Y4.306 E0.0187
G1 X-37.414 Y-2.341 E0.3127
G1 X-37.826 Y-2.339 E0.0137
G1 X-37.825 Y-2.187 E0.0051
G1 X-31.329 Y4.309 E0.3056
G1 X-31.892 Y4.312 E0.0187
G1 X-37.822 Y-1.619 E0.2790
G1 X-37.820 Y-1.050 E0.0189
G1 X-32.455 Y4.315 E0.2523
G1 X-33.018 Y4.318 E0.0187
G1 X-37.817 Y-0.481 E0.2257
G1 X-37.814 Y0.087 E0.0189
G1 X-33.581 Y4.320 E0.1991
G1 X-34.143 Y4.323 E0.0187
G1 X-37.811 Y0.656 E0.1725
G1 X-37.808 Y1.224 E0.0189
G1 X-34.706 Y4.326 E0.1459
G1 X-35.269 Y4.329 E0.0187
G1 X-37.805 Y1.793 E0.1193
G1 X-37.802 Y2.361 E0.0189
G1 X-35.832 Y4.332 E0.0927
G1 X-36.395 Y4.334 E0.0187
G1 X-37.800 Y2.930 E0.0661
G1 X-37.797 Y3.498 E0.0189
G1 X-36.958 Y4.337 E0.0395
G1 X-37.521 Y4.340 E0.0187
G1 X-37.794 Y4.067 E0.0129
G1 E-1.9000 F1200
; feature inner perimeter
G1 Z0.700 F1200
G1 X-24.017 Y10.869 F9000
G1 Z0.200 F1200
G1 E1.9000 F1200
G1 X-23.981 Y18.190 E0.2435 F1800
G1 X-38.111 Y18.260 E0.4700
G1 X-38.148 Y10.940 E0.2435
G1 X-24.017 Y10.869 E0.4700
; feature outer perimeter
G1 X-23.619 Y10.467 F9000
G1 X-23.579 Y18.588 E0.2701 F1200
G1 X-38.509 Y18.662 E0.4966
G1 X-38.550 Y10.542 E0.2701
G1 X-23.619 Y10.467 E0.4966
; feature solid layer
G1 X-24.447 Y11.191 F9000
G1 X-24.335 Y11.303 E0.0053 F2400
G1 X-24.332 Y11.871 E0.0189
G1 X-25.010 Y11.194 E0.0319
G1 X-25.573 Y11.197 E0.0187
G1 X-24.330 Y12.440 E0.0585
G1 X-24.327 Y13.008 E0.0189
G1 X-26.136 Y11.200 E0.0851
G1 X-26.698 Y11.202 E0.0187
G1 X-24.324 Y13.577 E0.1117
G1 X-24.321 Y14.146 E0.0189
G1 X-27.261 Y11.205 E0.1383
G1 X-27.824 Y11.208 E0.0187
G1 X-24.318 Y14.714 E0.1649
G1 X-24.315 Y15.283 E0.0189
G1 X-28.387 Y11.211 E0.1915
G1 X-28.950 Y11.214 E0.0187
G1 X-24.313 Y15.851 E0.2181
G1 X-24.310 Y16.420 E0.0189
G1 X-29.513 Y11.217 E0.2447
G1 X-30.076 Y11.219 E0.0187
G1 X-24.307 Y16.988 E0.2713
G1 X-24.304 Y17.557 E0.0189
G1 X-30.639 Y11.222 E0.2980
G1 X-31.201 Y11.225 E0.0187
G1 X-24.554 Y17.873 E0.3127
