; G-Code generated by Simplify3D(R) Version 4.1.2
; Apr 29, 2020 at 11:20:28 AM
; Settings Summary
;   processName,Process1
;   applyToModels,LookoutFloodDiffuserV1R1,LookoutSpotlightDiffuserV1R1,LookoutFloodDiffuserV1R1(2),LookoutFloodDiffuserV1R1(3),LookoutSpotlightDiffuserV1R1(2),LookoutFloodDiffuserV1R1(2)(2),LookoutFloodDiffuserV1R1(4),LookoutSpotlightDiffuserV1R1(3),LookoutFloodDiffuserV1R1(2)(3),LookoutFloodDiffuserV1R1(3)(2),LookoutSpotlightDiffuserV1R1(2)(2),LookoutFloodDiffuserV1R1(2)(2)(2),LookoutFloodDiffuserV1R1(5),LookoutSpotlightDiffuserV1R1(4),LookoutFloodDiffuserV1R1(2)(4),LookoutFloodDiffuserV1R1(3)(3),LookoutSpotlightDiffuserV1R1(2)(3),LookoutFloodDiffuserV1R1(2)(2)(3),LookoutFloodDiffuserV1R1(4)(2),LookoutSpotlightDiffuserV1R1(3)(2),LookoutFloodDiffuserV1R1(2)(3)(2),LookoutFloodDiffuserV1R1(3)(2)(2),LookoutSpotlightDiffuserV1R1(2)(2)(2),LookoutFloodDiffuserV1R1(2)(2)(2)(2),LookoutFloodDiffuserV1R1(6),LookoutSpotlightDiffuserV1R1(5),LookoutFloodDiffuserV1R1(2)(5),LookoutFloodDiffuserV1R1(3)(4),LookoutSpotlightDiffuserV1R1(2)(4),LookoutFloodDiffuserV1R1(2)(2)(4),LookoutFloodDiffuserV1R1(4)(3),LookoutSpotlightDiffuserV1R1(3)(3),LookoutFloodDiffuserV1R1(2)(3)(3),LookoutFloodDiffuserV1R1(3)(2)(3),LookoutSpotlightDiffuserV1R1(2)(2)(3),LookoutFloodDiffuserV1R1(2)(2)(2)(3),LookoutFloodDiffuserV1R1(5)(2),LookoutSpotlightDiffuserV1R1(4)(2),LookoutFloodDiffuserV1R1(2)(4)(2),LookoutFloodDiffuserV1R1(3)(3)(2),LookoutSpotlightDiffuserV1R1(2)(3)(2),LookoutFloodDiffuserV1R1(2)(2)(3)(2),LookoutFloodDiffuserV1R1(4)(2)(2),LookoutSpotlightDiffuserV1R1(3)(2)(2),LookoutFloodDiffuserV1R1(2)(3)(2)(2),LookoutFloodDiffuserV1R1(3)(2)(2)(2),LookoutSpotlightDiffuserV1R1(2)(2)(2)(2),LookoutFloodDiffuserV1R1(2)(2)(2)(2)(2)
;   profileName,MakerBot Replicator 2 HBP (modified)
;   profileVersion,2020-04-21 14:45:34
;   baseProfile,MakerBot Replicator 2(2)
;   printMaterial,PLA
;   printQuality,Medium
;   printExtruders,
;   extruderName,Primary Extruder
;   extruderToolheadNumber,0
;   extruderDiameter,0.4
;   extruderAutoWidth,0
;   extruderWidth,0.4
;   extrusionMultiplier,1
;   extruderUseRetract,1
;   extruderRetractionDistance,1.9
;   extruderExtraRestartDistance,0
;   extruderRetractionZLift,0.5
;   extruderRetractionSpeed,1200
;   extruderUseCoasting,0
;   extruderCoastingDistance,0.2
;   extruderUseWipe,0
;   extruderWipeDistance,5
;   primaryExtruder,0
;   layerHeight,0.2
;   topSolidLayers,3
;   bottomSolidLayers,3
;   perimeterOutlines,2
;   printPerimetersInsideOut,1
;   startPointOption,3
;   startPointOriginX,140
;   startPointOriginY,0
;   sequentialIslands,0
;   spiralVaseMode,0
;   firstLayerHeightPercentage,100
;   firstLayerWidthPercentage,100
;   firstLayerUnderspeed,0.5
;   useRaft,0
;   raftExtruder,0
;   raftTopLayers,2
;   raftBaseLayers,1
;   raftOffset,1
;   raftSeparationDistance,0.14
;   raftTopInfill,90
;   aboveRaftSpeedMultiplier,0.3
;   useSkirt,0
;   skirtExtruder,0
;   skirtLayers,1
;   skirtOutlines,5
;   skirtOffset,0
;   usePrimePillar,0
;   primePillarExtruder,999
;   primePillarWidth,12
;   primePillarLocation,7
;   primePillarSpeedMultiplier,1
;   useOozeShield,0
;   oozeShieldExtruder,999
;   oozeShieldOffset,2
;   oozeShieldOutlines,1
;   oozeShieldSidewallShape,1
;   oozeShieldSidewallAngle,30
;   oozeShieldSpeedMultiplier,1
;   infillExtruder,0
;   internalInfillPattern,Rectilinear
;   externalInfillPattern,Rectilinear
;   infillPercentage,15
;   outlineOverlapPercentage,20
;   infillExtrusionWidthPercentage,100
;   minInfillLength,5
;   infillLayerInterval,1
;   internalInfillAngles,45,-45
;   overlapInternalInfillAngles,0
;   externalInfillAngles,45,-45
;   generateSupport,0
;   supportExtruder,0
;   supportInfillPercentage,30
;   supportExtraInflation,0.6
;   supportBaseLayers,0
;   denseSupportExtruder,0
;   denseSupportLayers,2
;   denseSupportInfillPercentage,70
;   supportLayerInterval,1
;   supportHorizontalPartOffset,0.3
;   supportUpperSeparationLayers,1
;   supportLowerSeparationLayers,1
;   supportType,0
;   supportGridSpacing,99
;   maxOverhangAngle,45
;   supportAngles,0
;   temperatureName,Primary Extruder,Heated Build Platform
;   temperatureNumber,0,0
;   temperatureSetpointCount,1,1
;   temperatureSetpointLayers,1,1
;   temperatureSetpointTemperatures,230,60
;   temperatureStabilizeAtStartup,1,1
;   temperatureHeatedBed,0,1
;   fanLayers,1,2
;   fanSpeeds,0,100
;   blipFanToFullPower,1
;   adjustSpeedForCooling,1
;   minSpeedLayerTime,15
;   minCoolingSpeedSlowdown,20
;   increaseFanForCooling,1
;   minFanLayerTime,45
;   maxCoolingFanSpeed,100
;   increaseFanForBridging,1
;   bridgingFanSpeed,100
;   use5D,1
;   relativeEdistances,1
;   allowEaxisZeroing,0
;   independentExtruderAxes,1
;   includeM10123,0
;   stickySupport,1
;   applyToolheadOffsets,0
;   gcodeXoffset,0
;   gcodeYoffset,0
;   gcodeZoffset,0
;   overrideMachineDefinition,1
;   machineTypeOverride,0
;   strokeXoverride,280
;   strokeYoverride,150
;   strokeZoverride,150
;   originOffsetXoverride,140
;   originOffsetYoverride,75
;   originOffsetZoverride,0
;   homeXdirOverride,1
;   homeYdirOverride,1
;   homeZdirOverride,-1
;   flipXoverride,1
;   flipYoverride,-1
;   flipZoverride,1
;   toolheadOffsets,0,0|0,0|0,0|0,0|0,0|0,0
;   overrideFirmwareConfiguration,1
;   firmwareTypeOverride,MakerBot/Sailfish Firmware
;   GPXconfigOverride,r2h
;   baudRateOverride,115200
;   overridePrinterModels,1
;   printerModelsOverride,MakerBot_Replicator2.stl
;   startingGcode,; **** Replicator 2 start.gcode ****,M73 P0 ; enable build progress,G162 X Y F3000 ; home XY maximum,G161 Z F1200 ; home Z minimum,G92 Z-5 ; set Z to -5,G1 Z0 ; move Z to 0,G28 ; better homing homie,M132 X Y Z A B ; recall home offsets,G1 X-145 Y-75 Z30 F9000 ; move to wait position off table,G130 X20 Y20 Z20 A20 B20 ; lower stepper Vrefs while heating,M126 S[fan_speed_pwm],M140 S[bed0_temperature] T0,M134 T0 ; stabilize bed temperature,M104 S[extruder0_temperature] T0,M133 T0 ; stabilize extruder temperature,G130 X127 Y127 Z40 A127 B127 ; default stepper Vrefs,G92 A0 ; zero extruder,G1 Z0.4 ; position nozzle,G1 E25 F300 ; purge nozzle,G1 X-140 Y-70 Z0.15 F1200 ; slow wipe,G1 X-135 Y-65 Z0.5 F1200 ; lift,G92 A0 ; zero extruder,M73 P1 ;@body (notify GPX body has started),; **** end of start.gcode ****
;   layerChangeGcode,
;   retractionGcode,
;   toolChangeGcode,
;   endingGcode,; **** Replicator 2 end.gcode ****,M73 P100 ; end build progress,G1 Z155 F1000 ; send Z axis to bottom of machine,M104 S0 T0 ; cool down extruder,M140 S0 T0 ; cool down HBP,M127 ; stop blower fan,G162 X Y F3000 ; home XY maximum,M18 ; disable stepper,M0 ; stop codes,M72 P1 ; play Ta-Da song,; **** end of end.gcode ****
;   exportFileFormat,gcode
;   celebration,0
;   celebrationSong,Random Song
;   postProcessing,
;   defaultSpeed,4800
;   outlineUnderspeed,0.5
;   solidInfillUnderspeed,1
;   supportUnderspeed,1
;   rapidXYspeed,9000
;   rapidZspeed,1200
;   minBridgingArea,50
;   bridgingExtraInflation,0
;   bridgingExtrusionMultiplier,1
;   bridgingSpeedMultiplier,0.8
;   useFixedBridgingAngle,0
;   fixedBridgingAngle,0
;   applyBridgingToPerimeters,0
;   filamentDiameters,1.75|1.75|1.75|1.75|1.75|1.75
;   filamentPricesPerKg,46|46|46|46|46|46
;   filamentDensities,1.25|1.25|1.25|1.25|1.25|1.25
;   useMinPrintHeight,0
;   minPrintHeight,0
;   useMaxPrintHeight,0
;   maxPrintHeight,4.84
;   useDiaphragm,0
;   diaphragmLayerInterval,20
;   robustSlicing,1
;   mergeAllIntoSolid,0
;   onlyRetractWhenCrossingOutline,0
;   retractBetweenLayers,0
;   useRetractionMinTravel,1
;   retractionMinTravel,7
;   retractWhileWiping,1
;   onlyWipeOutlines,1
;   avoidCrossingOutline,0
;   maxMovementDetourFactor,3
;   toolChangeRetractionDistance,12
;   toolChangeExtraRestartDistance,-0.5
;   toolChangeRetractionSpeed,600
;   externalThinWallType,0
;   internalThinWallType,0
;   thinWallAllowedOverlapPercentage,10
;   singleExtrusionMinLength,1
;   singleExtrusionMinPrintingWidthPercentage,50
;   singleExtrusionMaxPrintingWidthPercentage,200
;   singleExtrusionEndpointExtension,0.2
;   horizontalSizeCompensation,0
G90
M83
; **** Replicator 2 start.gcode ****
M73 P0 ; enable build progress
G162 X Y F3000 ; home XY maximum
G161 Z F1200 ; home Z minimum
G92 Z-5 ; set Z to -5
G1 Z0 ; move Z to 0
G28 ; better homing homie
M132 X Y Z A B ; recall home offsets
G1 X-145 Y-75 Z30 F9000 ; move to wait position off table
G130 X20 Y20 Z20 A20 B20 ; lower stepper Vrefs while heating
M127
M140 S60 T0
M134 T0 ; stabilize bed temperature
M104 S230 T0
M133 T0 ; stabilize extruder temperature
G130 X127 Y127 Z40 A127 B127 ; default stepper Vrefs
G92 A0 ; zero extruder
G1 Z0.4 ; position nozzle
G1 E25 F300 ; purge nozzle
G1 X-140 Y-70 Z0.15 F1200 ; slow wipe
G1 X-135 Y-65 Z0.5 F1200 ; lift
G92 A0 ; zero extruder
M73 P1 ;@body (notify GPX body has started)
; **** end of start.gcode ****
; process Process1
; layer 1, Z = 0.200
M135 T0
G1 E-1.9000 F1200
; feature inner perimeter
; tool H0.200 W0.400
G1 Z0.500 F1200
G1 X5.531 Y-1.761 F9000
G1 Z0.200 F1200
G1 E1.9000 F1200
G1 X5.568 Y5.560 E0.2435 F1800
G1 X-8.562 Y5.630 E0.4700
G1 X-8.599 Y-1.690 E0.2435
G1 X5.531 Y-1.761 E0.4700
; feature outer perimeter
G1 X5.929 Y-2.163 F9000
G1 X5.970 Y5.958 E0.2701 F1200
G1 X-8.960 Y6.032 E0.4966
G1 X-9.001 Y-2.088 E0.2701
G1 X5.929 Y-2.163 E0.4966
; feature solid layer
G1 X4.785 Y-1.437 F9000
G1 X5.215 Y-1.008 E0.0202 F2400
G1 X5.218 Y-0.439 E0.0189
G1 X4.223 Y-1.434 E0.0468
G1 X3.660 Y-1.432 E0.0187
G1 X5.221 Y0.129 E0.0734
G1 X5.223 Y0.698 E0.0189
G1 X3.097 Y-1.429 E0.1000
G1 X2.534 Y-1.426 E0.0187
G1 X5.226 Y1.266 E0.1266
G1 X5.229 Y1.835 E0.0189
G1 X1.971 Y-1.423 E0.1533
G1 X1.408 Y-1.420 E0.0187
G1 X5.232 Y2.404 E0.1799
G1 X5.235 Y2.972 E0.0189
G1 X0.845 Y-1.417 E0.2065
G1 X0.282 Y-1.415 E0.0187
G1 X5.238 Y3.541 E0.2331
G1 X5.241 Y4.109 E0.0189
G1 X-0.280 Y-1.412 E0.2597
G1 X-0.843 Y-1.409 E0.0187
G1 X5.243 Y4.678 E0.2863
G1 X5.241 Y5.241 E0.0189
G1 X-1.406 Y-1.406 E0.3127
G1 X-1.969 Y-1.403 E0.0187
G1 X4.679 Y5.244 E0.3127
G1 X4.116 Y5.247 E0.0187
G1 X-2.532 Y-1.401 E0.3127
G1 X-3.095 Y-1.398 E0.0187
G1 X3.553 Y5.250 E0.3127
G1 X2.990 Y5.253 E0.0187
G1 X-3.658 Y-1.395 E0.3127
G1 X-4.221 Y-1.392 E0.0187
G1 X2.427 Y5.255 E0.3127
G1 X1.864 Y5.258 E0.0187
G1 X-4.783 Y-1.389 E0.3127
G1 X-5.346 Y-1.387 E0.0187
G1 X1.301 Y5.261 E0.3127
G1 X0.738 Y5.264 E0.0187
G1 X-5.909 Y-1.384 E0.3127
G1 X-6.472 Y-1.381 E0.0187
G1 X0.176 Y5.267 E0.3127
G1 X-0.387 Y5.270 E0.0187
G1 X-7.035 Y-1.378 E0.3127
G1 X-7.598 Y-1.375 E0.0187
G1 X-0.950 Y5.272 E0.3127
G1 X-1.513 Y5.275 E0.0187
G1 X-8.161 Y-1.372 E0.3127
G1 X-8.277 Y-1.372 E0.0039
G1 X-8.275 Y-0.921 E0.0150
G1 X-2.076 Y5.278 E0.2916
G1 X-2.639 Y5.281 E0.0187
G1 X-8.272 Y-0.353 E0.2650
G1 X-8.269 Y0.216 E0.0189
G1 X-3.202 Y5.284 E0.2384
G1 X-3.765 Y5.286 E0.0187
G1 X-8.267 Y0.784 E0.2118
G1 X-8.264 Y1.353 E0.0189
G1 X-4.327 Y5.289 E0.1852
G1 X-4.890 Y5.292 E0.0187
G1 X-8.261 Y1.921 E0.1585
G1 X-8.258 Y2.490 E0.0189
G1 X-5.453 Y5.295 E0.1319
G1 X-6.016 Y5.298 E0.0187
G1 X-8.255 Y3.059 E0.1053
G1 X-8.252 Y3.627 E0.0189
G1 X-6.579 Y5.301 E0.0787
G1 X-7.142 Y5.303 E0.0187
G1 X-8.249 Y4.196 E0.0521
G1 X-8.247 Y4.764 E0.0189
G1 X-7.705 Y5.306 E0.0255
G1 E-1.9000 F1200
; feature inner perimeter
G1 Z0.700 F1200
G1 X5.531 Y11.836 F9000
G1 Z0.200 F1200
G1 E1.9000 F1200
G1 X5.568 Y19.157 E0.2435 F1800
G1 X-8.562 Y19.228 E0.4700
G1 X-8.599 Y11.907 E0.2435
G1 X5.531 Y11.836 E0.4700
; feature outer perimeter
G1 X5.929 Y11.434 F9000
G1 X5.970 Y19.555 E0.2701 F1200
G1 X-8.960 Y19.630 E0.4966
G1 X-9.001 Y11.509 E0.2701
G1 X5.929 Y11.434 E0.4966
; feature solid layer
G1 X4.806 Y12.160 F9000
G1 X5.215 Y12.569 E0.0192 F2400
G1 X5.218 Y13.137 E0.0189
G1 X4.243 Y12.163 E0.0458
G1 X3.680 Y12.166 E0.0187
G1 X5.220 Y13.706 E0.0724
G1 X5.223 Y14.274 E0.0189
G1 X3.118 Y12.168 E0.0991
G1 X2.555 Y12.171 E0.0187
G1 X5.226 Y14.843 E0.1257
G1 X5.229 Y15.411 E0.0189
G1 X1.992 Y12.174 E0.1523
G1 X1.429 Y12.177 E0.0187
G1 X5.232 Y15.980 E0.1789
G1 X5.235 Y16.548 E0.0189
G1 X0.866 Y12.180 E0.2055
G1 X0.303 Y12.183 E0.0187
G1 X5.238 Y17.117 E0.2321
G1 X5.240 Y17.685 E0.0189
G1 X-0.260 Y12.185 E0.2587
G1 X-0.823 Y12.188 E0.0187
G1 X5.243 Y18.254 E0.2853
G1 X5.246 Y18.823 E0.0189
G1 X-1.385 Y12.191 E0.3119
G1 X-1.948 Y12.194 E0.0187
G1 X4.699 Y18.841 E0.3127
G1 X4.136 Y18.844 E0.0187
G1 X-2.511 Y12.197 E0.3127
G1 X-3.074 Y12.199 E0.0187
G1 X3.574 Y18.847 E0.3127
G1 X3.011 Y18.850 E0.0187
G1 X-3.637 Y12.202 E0.3127
G1 X-4.200 Y12.205 E0.0187
G1 X2.448 Y18.853 E0.3127
G1 X1.885 Y18.856 E0.0187
G1 X-4.763 Y12.208 E0.3127
G1 X-5.326 Y12.211 E0.0187
G1 X1.322 Y18.858 E0.3127
G1 X0.759 Y18.861 E0.0187
G1 X-5.888 Y12.214 E0.3127
G1 X-6.451 Y12.216 E0.0187
G1 X0.196 Y18.864 E0.3127
G1 X-0.366 Y18.867 E0.0187
G1 X-7.014 Y12.219 E0.3127
G1 X-7.577 Y12.222 E0.0187
G1 X-0.929 Y18.870 E0.3127
G1 X-1.492 Y18.872 E0.0187
G1 X-8.140 Y12.225 E0.3127
G1 X-8.277 Y12.225 E0.0046
G1 X-8.275 Y12.655 E0.0143
G1 X-2.055 Y18.875 E0.2926
G1 X-2.618 Y18.878 E0.0187
G1 X-8.272 Y13.224 E0.2660
G1 X-8.269 Y13.792 E0.0189
G1 X-3.181 Y18.881 E0.2394
G1 X-3.744 Y18.884 E0.0187
G1 X-8.267 Y14.361 E0.2127
G1 X-8.264 Y14.929 E0.0189
G1 X-4.307 Y18.886 E0.1861
G1 X-4.869 Y18.889 E0.0187
G1 X-8.261 Y15.498 E0.1595
G1 X-8.258 Y16.066 E0.0189
G1 X-5.432 Y18.892 E0.1329
G1 X-5.995 Y18.895 E0.0187
G1 X-8.255 Y16.635 E0.1063
G1 X-8.252 Y17.203 E0.0189
G1 X-6.558 Y18.898 E0.0797
G1 X-7.121 Y18.901 E0.0187
G1 X-8.250 Y17.772 E0.0531
G1 X-8.247 Y18.340 E0.0189
G1 X-7.684 Y18.903 E0.0265
G1 E-1.9000 F1200
; feature inner perimeter
G1 Z0.700 F1200
G1 X5.531 Y25.434 F9000
G1 Z0.200 F1200
G1 E1.9000 F1200
G1 X5.568 Y32.754 E0.2435 F1800
G1 X-8.562 Y32.825 E0.4700
G1 X-8.599 Y25.504 E0.2435
G1 X5.531 Y25.434 E0.4700
; feature outer perimeter
G1 X5.929 Y25.032 F9000
G1 X5.970 Y33.152 E0.2701 F1200
G1 X-8.960 Y33.227 E0.4966
G1 X-9.001 Y25.106 E0.2701
G1 X5.929 Y25.032 E0.4966
; feature solid layer
G1 X4.827 Y25.757 F9000
G1 X5.215 Y26.145 E0.0182 F2400
G1 X5.218 Y26.714 E0.0189
G1 X4.264 Y25.760 E0.0448
G1 X3.701 Y25.763 E0.0187
G1 X5.220 Y27.282 E0.0715
G1 X5.223 Y27.851 E0.0189
G1 X3.138 Y25.766 E0.0981
G1 X2.575 Y25.769 E0.0187
G1 X5.226 Y28.419 E0.1247
G1 X5.229 Y28.988 E0.0189
G1 X2.013 Y25.771 E0.1513
G1 X1.450 Y25.774 E0.0187
G1 X5.232 Y29.556 E0.1779
G1 X5.235 Y30.125 E0.0189
G1 X0.887 Y25.777 E0.2045
G1 X0.324 Y25.780 E0.0187
G1 X5.237 Y30.693 E0.2311
G1 X5.240 Y31.262 E0.0189
G1 X-0.239 Y25.783 E0.2577
G1 X-0.802 Y25.785 E0.0187
G1 X5.243 Y31.830 E0.2843
G1 X5.246 Y32.399 E0.0189
G1 X-1.365 Y25.788 E0.3109
G1 X-1.928 Y25.791 E0.0187
G1 X4.720 Y32.439 E0.3127
G1 X4.157 Y32.442 E0.0187
G1 X-2.490 Y25.794 E0.3127
G1 X-3.053 Y25.797 E0.0187
G1 X3.594 Y32.444 E0.3127
G1 X3.032 Y32.447 E0.0187
G1 X-3.616 Y25.800 E0.3127
G1 X-4.179 Y25.802 E0.0187
G1 X2.469 Y32.450 E0.3127
G1 X1.906 Y32.453 E0.0187
G1 X-4.742 Y25.805 E0.3127
G1 X-5.305 Y25.808 E0.0187
G1 X1.343 Y32.456 E0.3127
G1 X0.780 Y32.458 E0.0187
G1 X-5.868 Y25.811 E0.3127
G1 X-6.430 Y25.814 E0.0187
G1 X0.217 Y32.461 E0.3127
G1 X-0.346 Y32.464 E0.0187
G1 X-6.993 Y25.816 E0.3127
G1 X-7.556 Y25.819 E0.0187
G1 X-0.909 Y32.467 E0.3127
G1 X-1.471 Y32.470 E0.0187
G1 X-8.119 Y25.822 E0.3127
G1 X-8.277 Y25.823 E0.0053
G1 X-8.275 Y26.232 E0.0136
G1 X-2.034 Y32.472 E0.2936
G1 X-2.597 Y32.475 E0.0187
G1 X-8.272 Y26.800 E0.2669
G1 X-8.270 Y27.369 E0.0189
G1 X-3.160 Y32.478 E0.2403
G1 X-3.723 Y32.481 E0.0187
G1 X-8.267 Y27.937 E0.2137
G1 X-8.264 Y28.506 E0.0189
G1 X-4.286 Y32.484 E0.1871
G1 X-4.849 Y32.487 E0.0187
G1 X-8.261 Y29.074 E0.1605
G1 X-8.258 Y29.643 E0.0189
G1 X-5.412 Y32.489 E0.1339
G1 X-5.974 Y32.492 E0.0187
G1 X-8.255 Y30.211 E0.1073
G1 X-8.253 Y30.780 E0.0189
G1 X-6.537 Y32.495 E0.0807
G1 X-7.100 Y32.498 E0.0187
G1 X-8.250 Y31.348 E0.0541
G1 X-8.247 Y31.917 E0.0189
G1 X-7.663 Y32.501 E0.0275
G1 X-8.226 Y32.503 E0.0187
G1 X-8.244 Y32.485 E0.0009
G1 E-1.9000 F1200
; feature inner perimeter
G1 Z0.700 F1200
G1 X-14.842 Y25.434 F9000
G1 Z0.200 F1200
G1 E1.9000 F1200
