; G-Code generated by Simplify3D(R) Version 4.1.2
; Jun 17, 2020 at 4:01:55 PM
; Settings Summary
;   processName,Process1
;   applyToModels,BOB bkt
;   profileName,MakerBot Replicator 2 HBP (modified)
;   profileVersion,2020-04-21 14:45:34
;   baseProfile,MakerBot Replicator 2(2)
;   printMaterial,PLA
;   printQuality,Medium
;   printExtruders,
;   extruderName,Primary Extruder
;   extruderToolheadNumber,0
;   extruderDiameter,0.4
;   extruderAutoWidth,0
;   extruderWidth,0.4
;   extrusionMultiplier,1
;   extruderUseRetract,1
;   extruderRetractionDistance,1.9
;   extruderExtraRestartDistance,0
;   extruderRetractionZLift,0.5
;   extruderRetractionSpeed,1200
;   extruderUseCoasting,0
;   extruderCoastingDistance,0.2
;   extruderUseWipe,0
;   extruderWipeDistance,5
;   primaryExtruder,0
;   layerHeight,0.2
;   topSolidLayers,4
;   bottomSolidLayers,3
;   perimeterOutlines,2
;   printPerimetersInsideOut,1
;   startPointOption,3
;   startPointOriginX,140
;   startPointOriginY,0
;   sequentialIslands,0
;   spiralVaseMode,0
;   firstLayerHeightPercentage,100
;   firstLayerWidthPercentage,100
;   firstLayerUnderspeed,0.5
;   useRaft,0
;   raftExtruder,0
;   raftTopLayers,2
;   raftBaseLayers,1
;   raftOffset,1
;   raftSeparationDistance,0.14
;   raftTopInfill,90
;   aboveRaftSpeedMultiplier,0.3
;   useSkirt,0
;   skirtExtruder,0
;   skirtLayers,1
;   skirtOutlines,5
;   skirtOffset,0
;   usePrimePillar,0
;   primePillarExtruder,999
;   primePillarWidth,12
;   primePillarLocation,7
;   primePillarSpeedMultiplier,1
;   useOozeShield,0
;   oozeShieldExtruder,999
;   oozeShieldOffset,2
;   oozeShieldOutlines,1
;   oozeShieldSidewallShape,1
;   oozeShieldSidewallAngle,30
;   oozeShieldSpeedMultiplier,1
;   infillExtruder,0
;   internalInfillPattern,Rectilinear
;   externalInfillPattern,Rectilinear
;   infillPercentage,30
;   outlineOverlapPercentage,20
;   infillExtrusionWidthPercentage,100
;   minInfillLength,5
;   infillLayerInterval,1
;   internalInfillAngles,45,-45
;   overlapInternalInfillAngles,0
;   externalInfillAngles,45,-45
;   generateSupport,0
;   supportExtruder,0
;   supportInfillPercentage,30
;   supportExtraInflation,0.6
;   supportBaseLayers,0
;   denseSupportExtruder,0
;   denseSupportLayers,2
;   denseSupportInfillPercentage,70
;   supportLayerInterval,1
;   supportHorizontalPartOffset,0.3
;   supportUpperSeparationLayers,1
;   supportLowerSeparationLayers,1
;   supportType,0
;   supportGridSpacing,99
;   maxOverhangAngle,45
;   supportAngles,0
;   temperatureName,Primary Extruder,Heated Build Platform
;   temperatureNumber,0,0
;   temperatureSetpointCount,1,1
;   temperatureSetpointLayers,1,1
;   temperatureSetpointTemperatures,210,65
;   temperatureStabilizeAtStartup,1,1
;   temperatureHeatedBed,0,1
;   fanLayers,1,2
;   fanSpeeds,0,100
;   blipFanToFullPower,1
;   adjustSpeedForCooling,1
;   minSpeedLayerTime,15
;   minCoolingSpeedSlowdown,20
;   increaseFanForCooling,1
;   minFanLayerTime,45
;   maxCoolingFanSpeed,100
;   increaseFanForBridging,1
;   bridgingFanSpeed,100
;   use5D,1
;   relativeEdistances,1
;   allowEaxisZeroing,0
;   independentExtruderAxes,1
;   includeM10123,0
;   stickySupport,1
;   applyToolheadOffsets,0
;   gcodeXoffset,0
;   gcodeYoffset,0
;   gcodeZoffset,0
;   overrideMachineDefinition,1
;   machineTypeOverride,0
;   strokeXoverride,280
;   strokeYoverride,150
;   strokeZoverride,150
;   originOffsetXoverride,140
;   originOffsetYoverride,75
;   originOffsetZoverride,0
;   homeXdirOverride,1
;   homeYdirOverride,1
;   homeZdirOverride,-1
;   flipXoverride,1
;   flipYoverride,-1
;   flipZoverride,1
;   toolheadOffsets,0,0|0,0|0,0|0,0|0,0|0,0
;   overrideFirmwareConfiguration,1
;   firmwareTypeOverride,MakerBot/Sailfish Firmware
;   GPXconfigOverride,r2h
;   baudRateOverride,115200
;   overridePrinterModels,1
;   printerModelsOverride,MakerBot_Replicator2.stl
;   startingGcode,; **** Replicator 2 start.gcode ****,M73 P0 ; enable build progress,G162 X Y F3000 ; home XY maximum,G161 Z F1200 ; home Z minimum,G92 Z-5 ; set Z to -5,G1 Z0 ; move Z to 0,G28 ; better homing homie,M132 X Y Z A B ; recall home offsets,G1 X-145 Y-75 Z30 F9000 ; move to wait position off table,G130 X20 Y20 Z20 A20 B20 ; lower stepper Vrefs while heating,M126 S[fan_speed_pwm],M140 S[bed0_temperature] T0,M134 T0 ; stabilize bed temperature,M104 S[extruder0_temperature] T0,M133 T0 ; stabilize extruder temperature,G130 X127 Y127 Z40 A127 B127 ; default stepper Vrefs,G92 A0 ; zero extruder,G1 Z0.4 ; position nozzle,G1 E25 F300 ; purge nozzle,G1 X-140 Y-70 Z0.15 F1200 ; slow wipe,G1 X-135 Y-65 Z0.5 F1200 ; lift,G92 A0 ; zero extruder,M73 P1 ;@body (notify GPX body has started),; **** end of start.gcode ****
;   layerChangeGcode,
;   retractionGcode,
;   toolChangeGcode,
;   endingGcode,; **** Replicator 2 end.gcode ****,M73 P100 ; end build progress,G1 Z155 F1000 ; send Z axis to bottom of machine,M104 S0 T0 ; cool down extruder,M140 S0 T0 ; cool down HBP,M127 ; stop blower fan,G162 X Y F3000 ; home XY maximum,M18 ; disable stepper,M0 ; stop codes,M72 P1 ; play Ta-Da song,; **** end of end.gcode ****
;   exportFileFormat,gcode
;   celebration,0
;   celebrationSong,Random Song
;   postProcessing,
;   defaultSpeed,4800
;   outlineUnderspeed,0.5
;   solidInfillUnderspeed,1
;   supportUnderspeed,1
;   rapidXYspeed,9000
;   rapidZspeed,1200
;   minBridgingArea,50
;   bridgingExtraInflation,0
;   bridgingExtrusionMultiplier,1
;   bridgingSpeedMultiplier,0.8
;   useFixedBridgingAngle,0
;   fixedBridgingAngle,0
;   applyBridgingToPerimeters,0
;   filamentDiameters,1.75|1.75|1.75|1.75|1.75|1.75
;   filamentPricesPerKg,46|46|46|46|46|46
;   filamentDensities,1.25|1.25|1.25|1.25|1.25|1.25
;   useMinPrintHeight,0
;   minPrintHeight,0
;   useMaxPrintHeight,0
;   maxPrintHeight,4.84
;   useDiaphragm,0
;   diaphragmLayerInterval,20
;   robustSlicing,1
;   mergeAllIntoSolid,0
;   onlyRetractWhenCrossingOutline,0
;   retractBetweenLayers,0
;   useRetractionMinTravel,1
;   retractionMinTravel,7
;   retractWhileWiping,1
;   onlyWipeOutlines,1
;   avoidCrossingOutline,0
;   maxMovementDetourFactor,3
;   toolChangeRetractionDistance,12
;   toolChangeExtraRestartDistance,-0.5
;   toolChangeRetractionSpeed,600
;   externalThinWallType,0
;   internalThinWallType,0
;   thinWallAllowedOverlapPercentage,10
;   singleExtrusionMinLength,1
;   singleExtrusionMinPrintingWidthPercentage,50
;   singleExtrusionMaxPrintingWidthPercentage,200
;   singleExtrusionEndpointExtension,0.2
;   horizontalSizeCompensation,0
G90
M83
; **** Replicator 2 start.gcode ****
M73 P0 ; enable build progress
G162 X Y F3000 ; home XY maximum
G161 Z F1200 ; home Z minimum
G92 Z-5 ; set Z to -5
G1 Z0 ; move Z to 0
G28 ; better homing homie
M132 X Y Z A B ; recall home offsets
G1 X-145 Y-75 Z30 F9000 ; move to wait position off table
G130 X20 Y20 Z20 A20 B20 ; lower stepper Vrefs while heating
M127
M140 S65 T0
M134 T0 ; stabilize bed temperature
M104 S210 T0
M133 T0 ; stabilize extruder temperature
G130 X127 Y127 Z40 A127 B127 ; default stepper Vrefs
G92 A0 ; zero extruder
G1 Z0.4 ; position nozzle
G1 E25 F300 ; purge nozzle
G1 X-140 Y-70 Z0.15 F1200 ; slow wipe
G1 X-135 Y-65 Z0.5 F1200 ; lift
G92 A0 ; zero extruder
M73 P1 ;@body (notify GPX body has started)
; **** end of start.gcode ****
; process Process1
; layer 1, Z = 0.200
M135 T0
G1 E-1.9000 F1200
; feature inner perimeter
; tool H0.200 W0.400
G1 Z0.500 F1200
G1 X11.122 Y-16.900 F9000
G1 Z0.200 F1200
G1 E1.9000 F1200
G1 X11.122 Y16.900 E1.1242 F1800
G1 X-11.146 Y16.900 E0.7406
G1 X-11.146 Y-16.900 E1.1242
G1 X11.122 Y-16.900 E0.7406
; feature outer perimeter
G1 X11.522 Y-17.300 F9000
G1 X11.522 Y17.300 E1.1508 F1200
G1 X-11.546 Y17.300 E0.7672
G1 X-11.546 Y-17.300 E1.1508
G1 X11.522 Y-17.300 E0.7672
; feature solid layer
G1 X10.573 Y-16.580 F9000
G1 X10.802 Y-16.351 E0.0108 F2400
G1 X10.802 Y-15.786 E0.0188
G1 X10.007 Y-16.580 E0.0374
G1 X9.442 Y-16.580 E0.0188
G1 X10.802 Y-15.220 E0.0640
G1 X10.802 Y-14.654 E0.0188
G1 X8.876 Y-16.580 E0.0906
G1 X8.310 Y-16.580 E0.0188
G1 X10.802 Y-14.089 E0.1172
G1 X10.802 Y-13.523 E0.0188
G1 X7.745 Y-16.580 E0.1438
G1 X7.179 Y-16.580 E0.0188
G1 X10.802 Y-12.957 E0.1704
G1 X10.802 Y-12.391 E0.0188
G1 X6.613 Y-16.580 E0.1970
G1 X6.047 Y-16.580 E0.0188
G1 X10.802 Y-11.826 E0.2236
G1 X10.802 Y-11.260 E0.0188
G1 X5.482 Y-16.580 E0.2502
G1 X4.916 Y-16.580 E0.0188
G1 X10.802 Y-10.694 E0.2768
G1 X10.802 Y-10.129 E0.0188
G1 X4.350 Y-16.580 E0.3034
G1 X3.785 Y-16.580 E0.0188
G1 X10.802 Y-9.563 E0.3301
G1 X10.802 Y-8.997 E0.0188
G1 X3.219 Y-16.580 E0.3567
G1 X2.653 Y-16.580 E0.0188
G1 X10.802 Y-8.432 E0.3833
G1 X10.802 Y-7.866 E0.0188
G1 X2.088 Y-16.580 E0.4099
G1 X1.522 Y-16.580 E0.0188
G1 X10.802 Y-7.300 E0.4365
G1 X10.802 Y-6.735 E0.0188
G1 X0.956 Y-16.580 E0.4631
G1 X0.391 Y-16.580 E0.0188
G1 X10.802 Y-6.169 E0.4897
G1 X10.802 Y-5.603 E0.0188
G1 X-0.175 Y-16.580 E0.5163
G1 X-0.741 Y-16.580 E0.0188
G1 X10.802 Y-5.038 E0.5429
G1 X10.802 Y-4.472 E0.0188
G1 X-1.306 Y-16.580 E0.5695
G1 X-1.872 Y-16.580 E0.0188
G1 X10.802 Y-3.906 E0.5961
G1 X10.802 Y-3.341 E0.0188
G1 X-2.438 Y-16.580 E0.6227
G1 X-3.004 Y-16.580 E0.0188
G1 X10.802 Y-2.775 E0.6494
G1 X10.802 Y-2.209 E0.0188
G1 X-3.569 Y-16.580 E0.6760
G1 X-4.135 Y-16.580 E0.0188
G1 X10.802 Y-1.643 E0.7026
G1 X10.802 Y-1.078 E0.0188
G1 X-4.701 Y-16.580 E0.7292
G1 X-5.266 Y-16.580 E0.0188
G1 X10.802 Y-0.512 E0.7558
G1 X10.802 Y0.054 E0.0188
G1 X-5.832 Y-16.580 E0.7824
G1 X-6.398 Y-16.580 E0.0188
G1 X10.802 Y0.619 E0.8090
G1 X10.802 Y1.185 E0.0188
G1 X-6.963 Y-16.580 E0.8356
G1 X-7.529 Y-16.580 E0.0188
G1 X10.802 Y1.751 E0.8622
G1 X10.802 Y2.316 E0.0188
G1 X-8.095 Y-16.580 E0.8888
G1 X-8.660 Y-16.580 E0.0188
G1 X10.802 Y2.882 E0.9154
G1 X10.802 Y3.448 E0.0188
G1 X-9.226 Y-16.580 E0.9420
G1 X-9.792 Y-16.580 E0.0188
G1 X10.802 Y4.013 E0.9686
G1 X10.802 Y4.579 E0.0188
G1 X-10.357 Y-16.580 E0.9953
G1 X-10.826 Y-16.580 E0.0156
G1 X-10.826 Y-16.482 E0.0032
G1 X10.802 Y5.145 E1.0173
G1 X10.802 Y5.710 E0.0188
G1 X-10.826 Y-15.917 E1.0173
G1 X-10.826 Y-15.351 E0.0188
G1 X10.802 Y6.276 E1.0173
G1 X10.802 Y6.842 E0.0188
G1 X-10.826 Y-14.785 E1.0173
G1 X-10.826 Y-14.220 E0.0188
G1 X10.802 Y7.407 E1.0173
G1 X10.802 Y7.973 E0.0188
G1 X-10.826 Y-13.654 E1.0173
G1 X-10.826 Y-13.088 E0.0188
G1 X10.802 Y8.539 E1.0173
G1 X10.802 Y9.105 E0.0188
G1 X-10.826 Y-12.523 E1.0173
G1 X-10.826 Y-11.957 E0.0188
G1 X10.802 Y9.670 E1.0173
G1 X10.802 Y10.236 E0.0188
G1 X-10.826 Y-11.391 E1.0173
G1 X-10.826 Y-10.826 E0.0188
G1 X10.802 Y10.802 E1.0173
G1 X10.802 Y11.367 E0.0188
G1 X-10.826 Y-10.260 E1.0173
G1 X-10.826 Y-9.694 E0.0188
G1 X10.802 Y11.933 E1.0173
G1 X10.802 Y12.499 E0.0188
G1 X-10.826 Y-9.129 E1.0173
G1 X-10.826 Y-8.563 E0.0188
G1 X10.802 Y13.064 E1.0173
G1 X10.802 Y13.630 E0.0188
G1 X-10.826 Y-7.997 E1.0173
G1 X-10.826 Y-7.432 E0.0188
G1 X10.802 Y14.196 E1.0173
G1 X10.802 Y14.761 E0.0188
G1 X-10.826 Y-6.866 E1.0173
G1 X-10.826 Y-6.300 E0.0188
G1 X10.802 Y15.327 E1.0173
G1 X10.802 Y15.893 E0.0188
G1 X-10.826 Y-5.734 E1.0173
G1 X-10.826 Y-5.169 E0.0188
G1 X10.802 Y16.458 E1.0173
G1 X10.802 Y16.580 E0.0040
G1 X10.357 Y16.580 E0.0148
G1 X-10.826 Y-4.603 E0.9964
G1 X-10.826 Y-4.037 E0.0188
G1 X9.792 Y16.580 E0.9698
G1 X9.226 Y16.580 E0.0188
G1 X-10.826 Y-3.472 E0.9432
G1 X-10.826 Y-2.906 E0.0188
G1 X8.660 Y16.580 E0.9166
G1 X8.095 Y16.580 E0.0188
G1 X-10.826 Y-2.340 E0.8900
G1 X-10.826 Y-1.775 E0.0188
G1 X7.529 Y16.580 E0.8633
G1 X6.963 Y16.580 E0.0188
G1 X-10.826 Y-1.209 E0.8367
G1 X-10.826 Y-0.643 E0.0188
G1 X6.398 Y16.580 E0.8101
G1 X5.832 Y16.580 E0.0188
G1 X-10.826 Y-0.078 E0.7835
G1 X-10.826 Y0.488 E0.0188
G1 X5.266 Y16.580 E0.7569
G1 X4.701 Y16.580 E0.0188
G1 X-10.826 Y1.054 E0.7303
G1 X-10.826 Y1.619 E0.0188
G1 X4.135 Y16.580 E0.7037
G1 X3.569 Y16.580 E0.0188
G1 X-10.826 Y2.185 E0.6771
G1 X-10.826 Y2.751 E0.0188
G1 X3.004 Y16.580 E0.6505
G1 X2.438 Y16.580 E0.0188
G1 X-10.826 Y3.317 E0.6239
G1 X-10.826 Y3.882 E0.0188
G1 X1.872 Y16.580 E0.5973
G1 X1.306 Y16.580 E0.0188
G1 X-10.826 Y4.448 E0.5707
G1 X-10.826 Y5.014 E0.0188
G1 X0.741 Y16.580 E0.5440
G1 X0.175 Y16.580 E0.0188
G1 X-10.826 Y5.579 E0.5174
G1 X-10.826 Y6.145 E0.0188
G1 X-0.391 Y16.580 E0.4908
G1 X-0.956 Y16.580 E0.0188
G1 X-10.826 Y6.711 E0.4642
G1 X-10.826 Y7.276 E0.0188
G1 X-1.522 Y16.580 E0.4376
G1 X-2.088 Y16.580 E0.0188
G1 X-10.826 Y7.842 E0.4110
G1 X-10.826 Y8.408 E0.0188
G1 X-2.653 Y16.580 E0.3844
G1 X-3.219 Y16.580 E0.0188
G1 X-10.826 Y8.973 E0.3578
G1 X-10.826 Y9.539 E0.0188
G1 X-3.785 Y16.580 E0.3312
G1 X-4.350 Y16.580 E0.0188
G1 X-10.826 Y10.105 E0.3046
G1 X-10.826 Y10.670 E0.0188
G1 X-4.916 Y16.580 E0.2780
G1 X-5.482 Y16.580 E0.0188
G1 X-10.826 Y11.236 E0.2514
G1 X-10.826 Y11.802 E0.0188
G1 X-6.047 Y16.580 E0.2248
G1 X-6.613 Y16.580 E0.0188
G1 X-10.826 Y12.367 E0.1981
G1 X-10.826 Y12.933 E0.0188
G1 X-7.179 Y16.580 E0.1715
G1 X-7.744 Y16.580 E0.0188
G1 X-10.826 Y13.499 E0.1449
G1 X-10.826 Y14.065 E0.0188
G1 X-8.310 Y16.580 E0.1183
G1 X-8.876 Y16.580 E0.0188
G1 X-10.826 Y14.630 E0.0917
G1 X-10.826 Y15.196 E0.0188
G1 X-9.442 Y16.580 E0.0651
G1 X-10.007 Y16.580 E0.0188
G1 X-10.826 Y15.762 E0.0385
G1 X-10.826 Y16.327 E0.0188
G1 X-10.573 Y16.580 E0.0119
G1 E-1.9000 F1200
; layer 2, Z = 0.400
M126 S255
; feature inner perimeter
G1 Z0.700 F1200
G1 X11.074 Y-16.900 F9000
G1 Z0.400 F1200
G1 E1.9000 F1200
G1 X11.074 Y16.900 E1.1242 F3600
G1 X-11.146 Y16.900 E0.7390
G1 X-11.146 Y-16.900 E1.1242
G1 X11.074 Y-16.900 E0.7390
; feature outer perimeter
G1 X11.474 Y-17.300 F9000
G1 X11.474 Y17.300 E1.1508 F2400
G1 X-11.546 Y17.300 E0.7656
G1 X-11.546 Y-17.300 E1.1508
G1 X11.474 Y-17.300 E0.7656
G1 E-1.9000 F1200
; feature solid layer
G1 Z0.900 F1200
G1 X-10.826 Y-16.327 F9000
G1 Z0.400 F1200
G1 E1.9000 F1200
G1 X-10.573 Y-16.580 E0.0119 F4800
G1 X-10.007 Y-16.580 E0.0188
G1 X-10.826 Y-15.762 E0.0385
G1 X-10.826 Y-15.196 E0.0188
G1 X-9.441 Y-16.580 E0.0651
G1 X-8.876 Y-16.580 E0.0188
G1 X-10.826 Y-14.630 E0.0917
G1 X-10.826 Y-14.065 E0.0188
G1 X-8.310 Y-16.580 E0.1183
G1 X-7.744 Y-16.580 E0.0188
G1 X-10.826 Y-13.499 E0.1449
G1 X-10.826 Y-12.933 E0.0188
G1 X-7.179 Y-16.580 E0.1715
G1 X-6.613 Y-16.580 E0.0188
G1 X-10.826 Y-12.367 E0.1981
G1 X-10.826 Y-11.802 E0.0188
G1 X-6.047 Y-16.580 E0.2248
G1 X-5.482 Y-16.580 E0.0188
G1 X-10.826 Y-11.236 E0.2514
G1 X-10.826 Y-10.670 E0.0188
G1 X-4.916 Y-16.580 E0.2780
G1 X-4.350 Y-16.580 E0.0188
G1 X-10.826 Y-10.105 E0.3046
G1 X-10.826 Y-9.539 E0.0188
G1 X-3.785 Y-16.580 E0.3312
G1 X-3.219 Y-16.580 E0.0188
G1 X-10.826 Y-8.973 E0.3578
G1 X-10.826 Y-8.408 E0.0188
G1 X-2.653 Y-16.580 E0.3844
G1 X-2.088 Y-16.580 E0.0188
G1 X-10.826 Y-7.842 E0.4110
G1 X-10.826 Y-7.276 E0.0188
G1 X-1.522 Y-16.580 E0.4376
G1 X-0.956 Y-16.580 E0.0188
G1 X-10.826 Y-6.711 E0.4642
G1 X-10.826 Y-6.145 E0.0188
G1 X-0.391 Y-16.580 E0.4908
G1 X0.175 Y-16.580 E0.0188
G1 X-10.826 Y-5.579 E0.5174
G1 X-10.826 Y-5.014 E0.0188
G1 X0.741 Y-16.580 E0.5441
G1 X1.307 Y-16.580 E0.0188
G1 X-10.826 Y-4.448 E0.5707
G1 X-10.826 Y-3.882 E0.0188
G1 X1.872 Y-16.580 E0.5973
G1 X2.438 Y-16.580 E0.0188
G1 X-10.826 Y-3.316 E0.6239
G1 X-10.826 Y-2.751 E0.0188
G1 X3.004 Y-16.580 E0.6505
G1 X3.569 Y-16.580 E0.0188
G1 X-10.826 Y-2.185 E0.6771
G1 X-10.826 Y-1.619 E0.0188
G1 X4.135 Y-16.580 E0.7037
G1 X4.701 Y-16.580 E0.0188
G1 X-10.826 Y-1.054 E0.7303
G1 X-10.826 Y-0.488 E0.0188
G1 X5.266 Y-16.580 E0.7569
G1 X5.832 Y-16.580 E0.0188
G1 X-10.826 Y0.078 E0.7835
G1 X-10.826 Y0.643 E0.0188
G1 X6.398 Y-16.580 E0.8101
G1 X6.963 Y-16.580 E0.0188
G1 X-10.826 Y1.209 E0.8367
G1 X-10.826 Y1.775 E0.0188
G1 X7.529 Y-16.580 E0.8633
G1 X8.095 Y-16.580 E0.0188
G1 X-10.826 Y2.340 E0.8900
G1 X-10.826 Y2.906 E0.0188
G1 X8.660 Y-16.580 E0.9166
G1 X9.226 Y-16.580 E0.0188
G1 X-10.826 Y3.472 E0.9432
G1 X-10.826 Y4.037 E0.0188
G1 X9.792 Y-16.580 E0.9698
G1 X10.357 Y-16.580 E0.0188
G1 X-10.826 Y4.603 E0.9964
G1 X-10.826 Y5.169 E0.0188
G1 X10.754 Y-16.410 E1.0150
G1 X10.754 Y-15.845 E0.0188
G1 X-10.826 Y5.734 E1.0150
G1 X-10.826 Y6.300 E0.0188
G1 X10.754 Y-15.279 E1.0150
G1 X10.754 Y-14.713 E0.0188
G1 X-10.826 Y6.866 E1.0150
