; G-Code generated by Simplify3D(R) Version 4.1.2
; May 4, 2020 at 11:21:40 AM
; Settings Summary
;   processName,Process1
;   applyToModels,Bob Specials A V2R1,Bob Specials B V2R1,BOB bkt
;   profileName,MakerBot Replicator 2 HBP (modified)
;   profileVersion,2020-04-21 14:45:34
;   baseProfile,MakerBot Replicator 2(2)
;   printMaterial,PLA
;   printQuality,Medium
;   printExtruders,
;   extruderName,Primary Extruder
;   extruderToolheadNumber,0
;   extruderDiameter,0.4
;   extruderAutoWidth,0
;   extruderWidth,0.4
;   extrusionMultiplier,1
;   extruderUseRetract,1
;   extruderRetractionDistance,1.9
;   extruderExtraRestartDistance,0
;   extruderRetractionZLift,0.5
;   extruderRetractionSpeed,1200
;   extruderUseCoasting,0
;   extruderCoastingDistance,0.2
;   extruderUseWipe,0
;   extruderWipeDistance,5
;   primaryExtruder,0
;   layerHeight,0.2
;   topSolidLayers,3
;   bottomSolidLayers,3
;   perimeterOutlines,2
;   printPerimetersInsideOut,1
;   startPointOption,3
;   startPointOriginX,140
;   startPointOriginY,0
;   sequentialIslands,0
;   spiralVaseMode,0
;   firstLayerHeightPercentage,100
;   firstLayerWidthPercentage,100
;   firstLayerUnderspeed,0.5
;   useRaft,0
;   raftExtruder,0
;   raftTopLayers,2
;   raftBaseLayers,1
;   raftOffset,1
;   raftSeparationDistance,0.14
;   raftTopInfill,90
;   aboveRaftSpeedMultiplier,0.3
;   useSkirt,0
;   skirtExtruder,0
;   skirtLayers,1
;   skirtOutlines,5
;   skirtOffset,0
;   usePrimePillar,0
;   primePillarExtruder,999
;   primePillarWidth,12
;   primePillarLocation,7
;   primePillarSpeedMultiplier,1
;   useOozeShield,0
;   oozeShieldExtruder,999
;   oozeShieldOffset,2
;   oozeShieldOutlines,1
;   oozeShieldSidewallShape,1
;   oozeShieldSidewallAngle,30
;   oozeShieldSpeedMultiplier,1
;   infillExtruder,0
;   internalInfillPattern,Rectilinear
;   externalInfillPattern,Rectilinear
;   infillPercentage,15
;   outlineOverlapPercentage,20
;   infillExtrusionWidthPercentage,100
;   minInfillLength,5
;   infillLayerInterval,1
;   internalInfillAngles,45,-45
;   overlapInternalInfillAngles,0
;   externalInfillAngles,45,-45
;   generateSupport,1
;   supportExtruder,0
;   supportInfillPercentage,30
;   supportExtraInflation,0.6
;   supportBaseLayers,0
;   denseSupportExtruder,0
;   denseSupportLayers,2
;   denseSupportInfillPercentage,70
;   supportLayerInterval,1
;   supportHorizontalPartOffset,0.3
;   supportUpperSeparationLayers,1
;   supportLowerSeparationLayers,1
;   supportType,0
;   supportGridSpacing,99
;   maxOverhangAngle,45
;   supportAngles,0
;   temperatureName,Primary Extruder,Heated Build Platform
;   temperatureNumber,0,0
;   temperatureSetpointCount,1,1
;   temperatureSetpointLayers,1,1
;   temperatureSetpointTemperatures,230,65
;   temperatureStabilizeAtStartup,1,1
;   temperatureHeatedBed,0,1
;   fanLayers,1,2
;   fanSpeeds,0,100
;   blipFanToFullPower,1
;   adjustSpeedForCooling,1
;   minSpeedLayerTime,15
;   minCoolingSpeedSlowdown,20
;   increaseFanForCooling,1
;   minFanLayerTime,45
;   maxCoolingFanSpeed,100
;   increaseFanForBridging,1
;   bridgingFanSpeed,100
;   use5D,1
;   relativeEdistances,1
;   allowEaxisZeroing,0
;   independentExtruderAxes,1
;   includeM10123,0
;   stickySupport,1
;   applyToolheadOffsets,0
;   gcodeXoffset,0
;   gcodeYoffset,0
;   gcodeZoffset,0
;   overrideMachineDefinition,1
;   machineTypeOverride,0
;   strokeXoverride,280
;   strokeYoverride,150
;   strokeZoverride,150
;   originOffsetXoverride,140
;   originOffsetYoverride,75
;   originOffsetZoverride,0
;   homeXdirOverride,1
;   homeYdirOverride,1
;   homeZdirOverride,-1
;   flipXoverride,1
;   flipYoverride,-1
;   flipZoverride,1
;   toolheadOffsets,0,0|0,0|0,0|0,0|0,0|0,0
;   overrideFirmwareConfiguration,1
;   firmwareTypeOverride,MakerBot/Sailfish Firmware
;   GPXconfigOverride,r2h
;   baudRateOverride,115200
;   overridePrinterModels,1
;   printerModelsOverride,MakerBot_Replicator2.stl
;   startingGcode,; **** Replicator 2 start.gcode ****,M73 P0 ; enable build progress,G162 X Y F3000 ; home XY maximum,G161 Z F1200 ; home Z minimum,G92 Z-5 ; set Z to -5,G1 Z0 ; move Z to 0,G28 ; better homing homie,M132 X Y Z A B ; recall home offsets,G1 X-145 Y-75 Z30 F9000 ; move to wait position off table,G130 X20 Y20 Z20 A20 B20 ; lower stepper Vrefs while heating,M126 S[fan_speed_pwm],M140 S[bed0_temperature] T0,M134 T0 ; stabilize bed temperature,M104 S[extruder0_temperature] T0,M133 T0 ; stabilize extruder temperature,G130 X127 Y127 Z40 A127 B127 ; default stepper Vrefs,G92 A0 ; zero extruder,G1 Z0.4 ; position nozzle,G1 E25 F300 ; purge nozzle,G1 X-140 Y-70 Z0.15 F1200 ; slow wipe,G1 X-135 Y-65 Z0.5 F1200 ; lift,G92 A0 ; zero extruder,M73 P1 ;@body (notify GPX body has started),; **** end of start.gcode ****
;   layerChangeGcode,
;   retractionGcode,
;   toolChangeGcode,
;   endingGcode,; **** Replicator 2 end.gcode ****,M73 P100 ; end build progress,G1 Z155 F1000 ; send Z axis to bottom of machine,M104 S0 T0 ; cool down extruder,M140 S0 T0 ; cool down HBP,M127 ; stop blower fan,G162 X Y F3000 ; home XY maximum,M18 ; disable stepper,M0 ; stop codes,M72 P1 ; play Ta-Da song,; **** end of end.gcode ****
;   exportFileFormat,gcode
;   celebration,0
;   celebrationSong,Random Song
;   postProcessing,
;   defaultSpeed,4800
;   outlineUnderspeed,0.5
;   solidInfillUnderspeed,1
;   supportUnderspeed,1
;   rapidXYspeed,9000
;   rapidZspeed,1200
;   minBridgingArea,50
;   bridgingExtraInflation,0
;   bridgingExtrusionMultiplier,1
;   bridgingSpeedMultiplier,0.8
;   useFixedBridgingAngle,0
;   fixedBridgingAngle,0
;   applyBridgingToPerimeters,0
;   filamentDiameters,1.75|1.75|1.75|1.75|1.75|1.75
;   filamentPricesPerKg,46|46|46|46|46|46
;   filamentDensities,1.25|1.25|1.25|1.25|1.25|1.25
;   useMinPrintHeight,0
;   minPrintHeight,0
;   useMaxPrintHeight,0
;   maxPrintHeight,4.84
;   useDiaphragm,0
;   diaphragmLayerInterval,20
;   robustSlicing,1
;   mergeAllIntoSolid,0
;   onlyRetractWhenCrossingOutline,0
;   retractBetweenLayers,0
;   useRetractionMinTravel,1
;   retractionMinTravel,7
;   retractWhileWiping,1
;   onlyWipeOutlines,1
;   avoidCrossingOutline,0
;   maxMovementDetourFactor,3
;   toolChangeRetractionDistance,12
;   toolChangeExtraRestartDistance,-0.5
;   toolChangeRetractionSpeed,600
;   externalThinWallType,0
;   internalThinWallType,0
;   thinWallAllowedOverlapPercentage,10
;   singleExtrusionMinLength,1
;   singleExtrusionMinPrintingWidthPercentage,50
;   singleExtrusionMaxPrintingWidthPercentage,200
;   singleExtrusionEndpointExtension,0.2
;   horizontalSizeCompensation,0
G90
M83
; **** Replicator 2 start.gcode ****
M73 P0 ; enable build progress
G162 X Y F3000 ; home XY maximum
G161 Z F1200 ; home Z minimum
G92 Z-5 ; set Z to -5
G1 Z0 ; move Z to 0
G28 ; better homing homie
M132 X Y Z A B ; recall home offsets
G1 X-145 Y-75 Z30 F9000 ; move to wait position off table
G130 X20 Y20 Z20 A20 B20 ; lower stepper Vrefs while heating
M127
M140 S65 T0
M134 T0 ; stabilize bed temperature
M104 S230 T0
M133 T0 ; stabilize extruder temperature
G130 X127 Y127 Z40 A127 B127 ; default stepper Vrefs
G92 A0 ; zero extruder
G1 Z0.4 ; position nozzle
G1 E25 F300 ; purge nozzle
G1 X-140 Y-70 Z0.15 F1200 ; slow wipe
G1 X-135 Y-65 Z0.5 F1200 ; lift
G92 A0 ; zero extruder
M73 P1 ;@body (notify GPX body has started)
; **** end of start.gcode ****
; process Process1
; layer 1, Z = 0.200
M135 T0
G1 E-1.9000 F1200
; feature inner perimeter
; tool H0.200 W0.400
G1 Z0.500 F1200
G1 X44.996 Y-13.631 F9000
G1 Z0.200 F1200
G1 E1.9000 F1200
G1 X31.181 Y-13.631 E0.4595 F1800
G1 X31.181 Y3.869 E0.5821
G1 X17.381 Y3.869 E0.4590
G1 X17.381 Y-13.631 E0.5821
G1 X1.300 Y-13.631 E0.5349
G1 X1.298 Y3.869 E0.5821
G1 X-12.503 Y3.869 E0.4590
G1 X-12.503 Y-44.931 E1.6231
G1 X1.297 Y-44.931 E0.4590
G1 X1.300 Y-27.431 E0.5821
G1 X17.381 Y-27.431 E0.5349
G1 X17.381 Y-44.931 E0.5821
G1 X31.181 Y-44.931 E0.4590
G1 X31.181 Y-27.431 E0.5821
G1 X44.996 Y-27.431 E0.4595
G1 X44.996 Y-13.631 E0.4590
; feature outer perimeter
G1 X45.396 Y-13.231 F9000
G1 X31.581 Y-13.231 E0.4595 F1200
G1 X31.581 Y4.269 E0.5821
G1 X16.981 Y4.269 E0.4856
G1 X16.981 Y-13.231 E0.5821
G1 X1.700 Y-13.231 E0.5083
G1 X1.697 Y4.269 E0.5821
G1 X-12.903 Y4.269 E0.4856
G1 X-12.903 Y-45.331 E1.6497
G1 X1.697 Y-45.331 E0.4856
G1 X1.700 Y-27.831 E0.5821
G1 X16.981 Y-27.831 E0.5083
G1 X16.981 Y-45.331 E0.5821
G1 X31.581 Y-45.331 E0.4856
G1 X31.581 Y-27.831 E0.5821
G1 X45.396 Y-27.831 E0.4595
G1 X45.396 Y-13.231 E0.4856
G1 E-1.9000 F1200
; feature solid layer
G1 Z0.700 F1200
G1 X44.628 Y-27.111 F9000
G1 Z0.200 F1200
G1 E1.9000 F1200
G1 X44.676 Y-27.063 E0.0022 F2400
G1 X44.676 Y-26.497 E0.0188
G1 X44.062 Y-27.111 E0.0288
G1 X43.497 Y-27.111 E0.0188
G1 X44.676 Y-25.932 E0.0555
G1 X44.676 Y-25.366 E0.0188
G1 X42.931 Y-27.111 E0.0821
G1 X42.365 Y-27.111 E0.0188
G1 X44.676 Y-24.800 E0.1087
G1 X44.676 Y-24.235 E0.0188
G1 X41.800 Y-27.111 E0.1353
G1 X41.234 Y-27.111 E0.0188
G1 X44.676 Y-23.669 E0.1619
G1 X44.676 Y-23.103 E0.0188
G1 X40.668 Y-27.111 E0.1885
G1 X40.103 Y-27.111 E0.0188
G1 X44.676 Y-22.537 E0.2151
G1 X44.676 Y-21.972 E0.0188
G1 X39.537 Y-27.111 E0.2417
G1 X38.971 Y-27.111 E0.0188
G1 X44.676 Y-21.406 E0.2683
G1 X44.676 Y-20.840 E0.0188
G1 X38.405 Y-27.111 E0.2949
G1 X37.840 Y-27.111 E0.0188
G1 X44.676 Y-20.275 E0.3215
G1 X44.676 Y-19.709 E0.0188
G1 X37.274 Y-27.111 E0.3481
G1 X36.708 Y-27.111 E0.0188
G1 X44.676 Y-19.143 E0.3748
G1 X44.676 Y-18.578 E0.0188
G1 X36.143 Y-27.111 E0.4014
G1 X35.577 Y-27.111 E0.0188
G1 X44.676 Y-18.012 E0.4280
G1 X44.676 Y-17.446 E0.0188
G1 X35.011 Y-27.111 E0.4546
G1 X34.446 Y-27.111 E0.0188
G1 X44.676 Y-16.881 E0.4812
G1 X44.676 Y-16.315 E0.0188
G1 X33.880 Y-27.111 E0.5078
G1 X33.314 Y-27.111 E0.0188
G1 X44.676 Y-15.749 E0.5344
G1 X44.676 Y-15.184 E0.0188
G1 X32.749 Y-27.111 E0.5610
G1 X32.183 Y-27.111 E0.0188
G1 X44.676 Y-14.618 E0.5876
G1 X44.676 Y-14.052 E0.0188
G1 X31.617 Y-27.111 E0.6142
G1 E-1.9000 F1200
G1 Z0.700 F1200
G1 X30.522 Y-44.611 F9000
G1 Z0.200 F1200
G1 E1.9000 F1200
G1 X30.861 Y-44.271 E0.0160 F2400
G1 X30.861 Y-43.706 E0.0188
G1 X29.956 Y-44.611 E0.0426
G1 X29.391 Y-44.611 E0.0188
G1 X30.861 Y-43.140 E0.0692
G1 X30.861 Y-42.574 E0.0188
G1 X28.825 Y-44.611 E0.0958
G1 X28.259 Y-44.611 E0.0188
G1 X30.861 Y-42.008 E0.1224
G1 X30.861 Y-41.443 E0.0188
G1 X27.694 Y-44.611 E0.1490
G1 X27.128 Y-44.611 E0.0188
G1 X30.861 Y-40.877 E0.1756
G1 X30.861 Y-40.311 E0.0188
G1 X26.562 Y-44.611 E0.2022
G1 X25.997 Y-44.611 E0.0188
G1 X30.861 Y-39.746 E0.2288
G1 X30.861 Y-39.180 E0.0188
G1 X25.431 Y-44.611 E0.2554
G1 X24.865 Y-44.611 E0.0188
G1 X30.861 Y-38.614 E0.2820
G1 X30.861 Y-38.049 E0.0188
G1 X24.300 Y-44.611 E0.3086
G1 X23.734 Y-44.611 E0.0188
G1 X30.861 Y-37.483 E0.3353
G1 X30.861 Y-36.917 E0.0188
G1 X23.168 Y-44.611 E0.3619
G1 X22.603 Y-44.611 E0.0188
G1 X30.861 Y-36.352 E0.3885
G1 X30.861 Y-35.786 E0.0188
G1 X22.037 Y-44.611 E0.4151
G1 X21.471 Y-44.611 E0.0188
G1 X30.861 Y-35.220 E0.4417
G1 X30.861 Y-34.655 E0.0188
G1 X20.906 Y-44.611 E0.4683
G1 X20.340 Y-44.611 E0.0188
G1 X30.861 Y-34.089 E0.4949
G1 X30.861 Y-33.523 E0.0188
G1 X19.774 Y-44.611 E0.5215
G1 X19.208 Y-44.611 E0.0188
G1 X30.861 Y-32.958 E0.5481
G1 X30.861 Y-32.392 E0.0188
G1 X18.643 Y-44.611 E0.5747
G1 X18.077 Y-44.611 E0.0188
G1 X30.861 Y-31.826 E0.6013
G1 X30.861 Y-31.260 E0.0188
G1 X17.701 Y-44.420 E0.6190
G1 X17.701 Y-43.855 E0.0188
G1 X30.861 Y-30.695 E0.6190
G1 X30.861 Y-30.129 E0.0188
G1 X17.701 Y-43.289 E0.6190
G1 X17.701 Y-42.723 E0.0188
G1 X30.861 Y-29.563 E0.6190
G1 X30.861 Y-28.998 E0.0188
G1 X17.701 Y-42.158 E0.6190
G1 X17.701 Y-41.592 E0.0188
G1 X30.861 Y-28.432 E0.6190
G1 X30.861 Y-27.866 E0.0188
G1 X17.701 Y-41.026 E0.6190
G1 X17.701 Y-40.461 E0.0188
G1 X30.861 Y-27.301 E0.6190
G1 X30.861 Y-27.111 E0.0063
G1 X31.052 Y-27.111 E0.0063
G1 X44.212 Y-13.951 E0.6190
G1 X43.646 Y-13.951 E0.0188
G1 X17.701 Y-39.895 E1.2203
G1 X17.701 Y-39.329 E0.0188
G1 X43.080 Y-13.951 E1.1937
G1 X42.515 Y-13.951 E0.0188
G1 X17.701 Y-38.764 E1.1671
G1 X17.701 Y-38.198 E0.0188
G1 X41.949 Y-13.951 E1.1405
G1 X41.383 Y-13.951 E0.0188
G1 X17.701 Y-37.632 E1.1139
G1 X17.701 Y-37.067 E0.0188
G1 X40.817 Y-13.951 E1.0873
G1 X40.252 Y-13.951 E0.0188
G1 X17.701 Y-36.501 E1.0607
G1 X17.701 Y-35.935 E0.0188
G1 X39.686 Y-13.951 E1.0341
G1 X39.120 Y-13.951 E0.0188
G1 X17.701 Y-35.370 E1.0075
G1 X17.701 Y-34.804 E0.0188
G1 X38.555 Y-13.951 E0.9809
G1 X37.989 Y-13.951 E0.0188
G1 X17.701 Y-34.238 E0.9543
G1 X17.701 Y-33.672 E0.0188
G1 X37.423 Y-13.951 E0.9277
G1 X36.858 Y-13.951 E0.0188
G1 X17.701 Y-33.107 E0.9010
G1 X17.701 Y-32.541 E0.0188
G1 X36.292 Y-13.951 E0.8744
G1 X35.726 Y-13.951 E0.0188
G1 X17.701 Y-31.975 E0.8478
G1 X17.701 Y-31.410 E0.0188
G1 X35.161 Y-13.951 E0.8212
G1 X34.595 Y-13.951 E0.0188
G1 X17.701 Y-30.844 E0.7946
G1 X17.701 Y-30.278 E0.0188
G1 X34.029 Y-13.951 E0.7680
G1 X33.464 Y-13.951 E0.0188
G1 X17.701 Y-29.713 E0.7414
G1 X17.701 Y-29.147 E0.0188
G1 X32.898 Y-13.951 E0.7148
G1 X32.332 Y-13.951 E0.0188
G1 X17.701 Y-28.581 E0.6882
G1 X17.701 Y-28.016 E0.0188
G1 X31.766 Y-13.951 E0.6616
G1 X31.201 Y-13.951 E0.0188
G1 X17.701 Y-27.450 E0.6350
G1 X17.701 Y-27.111 E0.0113
G1 X17.475 Y-27.111 E0.0075
G1 X30.861 Y-13.724 E0.6297
G1 X30.861 Y-13.159 E0.0188
G1 X16.909 Y-27.111 E0.6563
G1 X16.344 Y-27.111 E0.0188
G1 X30.861 Y-12.593 E0.6829
G1 X30.861 Y-12.027 E0.0188
G1 X15.778 Y-27.111 E0.7095
G1 X15.212 Y-27.111 E0.0188
G1 X30.861 Y-11.461 E0.7361
G1 X30.861 Y-10.896 E0.0188
G1 X14.647 Y-27.111 E0.7627
G1 X14.081 Y-27.111 E0.0188
G1 X30.861 Y-10.330 E0.7893
G1 X30.861 Y-9.764 E0.0188
G1 X13.515 Y-27.111 E0.8159
G1 X12.950 Y-27.111 E0.0188
G1 X30.861 Y-9.199 E0.8425
G1 X30.861 Y-8.633 E0.0188
G1 X12.384 Y-27.111 E0.8691
G1 X11.818 Y-27.111 E0.0188
G1 X30.861 Y-8.067 E0.8957
G1 X30.861 Y-7.502 E0.0188
G1 X11.253 Y-27.111 E0.9223
G1 X10.687 Y-27.111 E0.0188
G1 X30.861 Y-6.936 E0.9489
G1 X30.861 Y-6.370 E0.0188
G1 X10.121 Y-27.111 E0.9756
G1 X9.556 Y-27.111 E0.0188
G1 X30.861 Y-5.805 E1.0022
G1 X30.861 Y-5.239 E0.0188
G1 X8.990 Y-27.111 E1.0288
G1 X8.424 Y-27.111 E0.0188
G1 X30.861 Y-4.673 E1.0554
G1 X30.861 Y-4.108 E0.0188
G1 X7.858 Y-27.111 E1.0820
G1 X7.293 Y-27.111 E0.0188
G1 X30.861 Y-3.542 E1.1086
G1 X30.861 Y-2.976 E0.0188
G1 X6.727 Y-27.111 E1.1352
G1 X6.161 Y-27.111 E0.0188
G1 X30.861 Y-2.410 E1.1618
G1 X30.861 Y-1.845 E0.0188
G1 X5.596 Y-27.111 E1.1884
G1 X5.030 Y-27.111 E0.0188
G1 X30.861 Y-1.279 E1.2150
G1 X30.861 Y-0.713 E0.0188
G1 X17.701 Y-13.873 E0.6190
G1 X17.701 Y-13.951 E0.0026
G1 X17.624 Y-13.951 E0.0026
G1 X4.464 Y-27.111 E0.6190
G1 X3.899 Y-27.111 E0.0188
G1 X17.059 Y-13.951 E0.6190
G1 X16.493 Y-13.951 E0.0188
G1 X3.333 Y-27.111 E0.6190
G1 X2.767 Y-27.111 E0.0188
G1 X15.927 Y-13.951 E0.6190
G1 X15.362 Y-13.951 E0.0188
G1 X2.202 Y-27.111 E0.6190
G1 X1.636 Y-27.111 E0.0188
G1 X14.796 Y-13.951 E0.6190
G1 X14.230 Y-13.951 E0.0188
G1 X1.070 Y-27.111 E0.6190
G1 X0.980 Y-27.111 E0.0030
G1 X0.980 Y-27.201 E0.0030
G1 X-12.183 Y-40.363 E0.6191
G1 X-12.183 Y-40.929 E0.0188
G1 X0.980 Y-27.767 E0.6191
G1 X0.980 Y-28.332 E0.0188
G1 X-12.183 Y-41.495 E0.6191
G1 X-12.183 Y-42.060 E0.0188
G1 X0.980 Y-28.898 E0.6191
G1 X0.980 Y-29.464 E0.0188
G1 X-12.183 Y-42.626 E0.6191
G1 X-12.183 Y-43.192 E0.0188
G1 X0.980 Y-30.030 E0.6191
G1 X0.980 Y-30.595 E0.0188
G1 X-12.183 Y-43.758 E0.6191
G1 X-12.183 Y-44.323 E0.0188
G1 X0.979 Y-31.161 E0.6191
G1 X0.979 Y-31.727 E0.0188
G1 X-11.904 Y-44.611 E0.6060
G1 X-11.339 Y-44.611 E0.0188
G1 X0.979 Y-32.293 E0.5794
G1 X0.979 Y-32.858 E0.0188
G1 X-10.773 Y-44.611 E0.5528
G1 X-10.207 Y-44.611 E0.0188
G1 X0.979 Y-33.424 E0.5262
G1 X0.979 Y-33.990 E0.0188
G1 X-9.641 Y-44.611 E0.4996
G1 X-9.076 Y-44.611 E0.0188
G1 X0.979 Y-34.556 E0.4729
G1 X0.979 Y-35.122 E0.0188
G1 X-8.510 Y-44.611 E0.4463
G1 X-7.944 Y-44.611 E0.0188
G1 X0.979 Y-35.687 E0.4197
G1 X0.979 Y-36.253 E0.0188
G1 X-7.379 Y-44.611 E0.3931
G1 X-6.813 Y-44.611 E0.0188
G1 X0.979 Y-36.819 E0.3665
G1 X0.979 Y-37.385 E0.0188
G1 X-6.247 Y-44.611 E0.3399
G1 X-5.682 Y-44.611 E0.0188
G1 X0.978 Y-37.950 E0.3133
G1 X0.978 Y-38.516 E0.0188
