; G-Code generated by Simplify3D(R) Version 4.1.2
; Jun 17, 2020 at 4:02:50 PM
; Settings Summary
;   processName,Process1
;   applyToModels,BOB bkt,Bob Specials A V2R1,Bob Specials B V2R1
;   profileName,MakerBot Replicator 2 HBP (modified)
;   profileVersion,2020-04-21 14:45:34
;   baseProfile,MakerBot Replicator 2(2)
;   printMaterial,PLA
;   printQuality,Medium
;   printExtruders,
;   extruderName,Primary Extruder
;   extruderToolheadNumber,0
;   extruderDiameter,0.4
;   extruderAutoWidth,0
;   extruderWidth,0.4
;   extrusionMultiplier,1
;   extruderUseRetract,1
;   extruderRetractionDistance,1.9
;   extruderExtraRestartDistance,0
;   extruderRetractionZLift,0.5
;   extruderRetractionSpeed,1200
;   extruderUseCoasting,0
;   extruderCoastingDistance,0.2
;   extruderUseWipe,0
;   extruderWipeDistance,5
;   primaryExtruder,0
;   layerHeight,0.2
;   topSolidLayers,4
;   bottomSolidLayers,3
;   perimeterOutlines,2
;   printPerimetersInsideOut,1
;   startPointOption,3
;   startPointOriginX,140
;   startPointOriginY,0
;   sequentialIslands,0
;   spiralVaseMode,0
;   firstLayerHeightPercentage,100
;   firstLayerWidthPercentage,100
;   firstLayerUnderspeed,0.5
;   useRaft,0
;   raftExtruder,0
;   raftTopLayers,2
;   raftBaseLayers,1
;   raftOffset,1
;   raftSeparationDistance,0.14
;   raftTopInfill,90
;   aboveRaftSpeedMultiplier,0.3
;   useSkirt,0
;   skirtExtruder,0
;   skirtLayers,1
;   skirtOutlines,5
;   skirtOffset,0
;   usePrimePillar,0
;   primePillarExtruder,999
;   primePillarWidth,12
;   primePillarLocation,7
;   primePillarSpeedMultiplier,1
;   useOozeShield,0
;   oozeShieldExtruder,999
;   oozeShieldOffset,2
;   oozeShieldOutlines,1
;   oozeShieldSidewallShape,1
;   oozeShieldSidewallAngle,30
;   oozeShieldSpeedMultiplier,1
;   infillExtruder,0
;   internalInfillPattern,Rectilinear
;   externalInfillPattern,Rectilinear
;   infillPercentage,30
;   outlineOverlapPercentage,20
;   infillExtrusionWidthPercentage,100
;   minInfillLength,5
;   infillLayerInterval,1
;   internalInfillAngles,45,-45
;   overlapInternalInfillAngles,0
;   externalInfillAngles,45,-45
;   generateSupport,0
;   supportExtruder,0
;   supportInfillPercentage,30
;   supportExtraInflation,0.6
;   supportBaseLayers,0
;   denseSupportExtruder,0
;   denseSupportLayers,2
;   denseSupportInfillPercentage,70
;   supportLayerInterval,1
;   supportHorizontalPartOffset,0.3
;   supportUpperSeparationLayers,1
;   supportLowerSeparationLayers,1
;   supportType,0
;   supportGridSpacing,99
;   maxOverhangAngle,45
;   supportAngles,0
;   temperatureName,Primary Extruder,Heated Build Platform
;   temperatureNumber,0,0
;   temperatureSetpointCount,1,1
;   temperatureSetpointLayers,1,1
;   temperatureSetpointTemperatures,210,65
;   temperatureStabilizeAtStartup,1,1
;   temperatureHeatedBed,0,1
;   fanLayers,1,2
;   fanSpeeds,0,100
;   blipFanToFullPower,1
;   adjustSpeedForCooling,1
;   minSpeedLayerTime,15
;   minCoolingSpeedSlowdown,20
;   increaseFanForCooling,1
;   minFanLayerTime,45
;   maxCoolingFanSpeed,100
;   increaseFanForBridging,1
;   bridgingFanSpeed,100
;   use5D,1
;   relativeEdistances,1
;   allowEaxisZeroing,0
;   independentExtruderAxes,1
;   includeM10123,0
;   stickySupport,1
;   applyToolheadOffsets,0
;   gcodeXoffset,0
;   gcodeYoffset,0
;   gcodeZoffset,0
;   overrideMachineDefinition,1
;   machineTypeOverride,0
;   strokeXoverride,280
;   strokeYoverride,150
;   strokeZoverride,150
;   originOffsetXoverride,140
;   originOffsetYoverride,75
;   originOffsetZoverride,0
;   homeXdirOverride,1
;   homeYdirOverride,1
;   homeZdirOverride,-1
;   flipXoverride,1
;   flipYoverride,-1
;   flipZoverride,1
;   toolheadOffsets,0,0|0,0|0,0|0,0|0,0|0,0
;   overrideFirmwareConfiguration,1
;   firmwareTypeOverride,MakerBot/Sailfish Firmware
;   GPXconfigOverride,r2h
;   baudRateOverride,115200
;   overridePrinterModels,1
;   printerModelsOverride,MakerBot_Replicator2.stl
;   startingGcode,; **** Replicator 2 start.gcode ****,M73 P0 ; enable build progress,G162 X Y F3000 ; home XY maximum,G161 Z F1200 ; home Z minimum,G92 Z-5 ; set Z to -5,G1 Z0 ; move Z to 0,G28 ; better homing homie,M132 X Y Z A B ; recall home offsets,G1 X-145 Y-75 Z30 F9000 ; move to wait position off table,G130 X20 Y20 Z20 A20 B20 ; lower stepper Vrefs while heating,M126 S[fan_speed_pwm],M140 S[bed0_temperature] T0,M134 T0 ; stabilize bed temperature,M104 S[extruder0_temperature] T0,M133 T0 ; stabilize extruder temperature,G130 X127 Y127 Z40 A127 B127 ; default stepper Vrefs,G92 A0 ; zero extruder,G1 Z0.4 ; position nozzle,G1 E25 F300 ; purge nozzle,G1 X-140 Y-70 Z0.15 F1200 ; slow wipe,G1 X-135 Y-65 Z0.5 F1200 ; lift,G92 A0 ; zero extruder,M73 P1 ;@body (notify GPX body has started),; **** end of start.gcode ****
;   layerChangeGcode,
;   retractionGcode,
;   toolChangeGcode,
;   endingGcode,; **** Replicator 2 end.gcode ****,M73 P100 ; end build progress,G1 Z155 F1000 ; send Z axis to bottom of machine,M104 S0 T0 ; cool down extruder,M140 S0 T0 ; cool down HBP,M127 ; stop blower fan,G162 X Y F3000 ; home XY maximum,M18 ; disable stepper,M0 ; stop codes,M72 P1 ; play Ta-Da song,; **** end of end.gcode ****
;   exportFileFormat,gcode
;   celebration,0
;   celebrationSong,Random Song
;   postProcessing,
;   defaultSpeed,4800
;   outlineUnderspeed,0.5
;   solidInfillUnderspeed,1
;   supportUnderspeed,1
;   rapidXYspeed,9000
;   rapidZspeed,1200
;   minBridgingArea,50
;   bridgingExtraInflation,0
;   bridgingExtrusionMultiplier,1
;   bridgingSpeedMultiplier,0.8
;   useFixedBridgingAngle,0
;   fixedBridgingAngle,0
;   applyBridgingToPerimeters,0
;   filamentDiameters,1.75|1.75|1.75|1.75|1.75|1.75
;   filamentPricesPerKg,46|46|46|46|46|46
;   filamentDensities,1.25|1.25|1.25|1.25|1.25|1.25
;   useMinPrintHeight,0
;   minPrintHeight,0
;   useMaxPrintHeight,0
;   maxPrintHeight,4.84
;   useDiaphragm,0
;   diaphragmLayerInterval,20
;   robustSlicing,1
;   mergeAllIntoSolid,0
;   onlyRetractWhenCrossingOutline,0
;   retractBetweenLayers,0
;   useRetractionMinTravel,1
;   retractionMinTravel,7
;   retractWhileWiping,1
;   onlyWipeOutlines,1
;   avoidCrossingOutline,0
;   maxMovementDetourFactor,3
;   toolChangeRetractionDistance,12
;   toolChangeExtraRestartDistance,-0.5
;   toolChangeRetractionSpeed,600
;   externalThinWallType,0
;   internalThinWallType,0
;   thinWallAllowedOverlapPercentage,10
;   singleExtrusionMinLength,1
;   singleExtrusionMinPrintingWidthPercentage,50
;   singleExtrusionMaxPrintingWidthPercentage,200
;   singleExtrusionEndpointExtension,0.2
;   horizontalSizeCompensation,0
G90
M83
; **** Replicator 2 start.gcode ****
M73 P0 ; enable build progress
G162 X Y F3000 ; home XY maximum
G161 Z F1200 ; home Z minimum
G92 Z-5 ; set Z to -5
G1 Z0 ; move Z to 0
G28 ; better homing homie
M132 X Y Z A B ; recall home offsets
G1 X-145 Y-75 Z30 F9000 ; move to wait position off table
G130 X20 Y20 Z20 A20 B20 ; lower stepper Vrefs while heating
M127
M140 S65 T0
M134 T0 ; stabilize bed temperature
M104 S210 T0
M133 T0 ; stabilize extruder temperature
G130 X127 Y127 Z40 A127 B127 ; default stepper Vrefs
G92 A0 ; zero extruder
G1 Z0.4 ; position nozzle
G1 E25 F300 ; purge nozzle
G1 X-140 Y-70 Z0.15 F1200 ; slow wipe
G1 X-135 Y-65 Z0.5 F1200 ; lift
G92 A0 ; zero extruder
M73 P1 ;@body (notify GPX body has started)
; **** end of start.gcode ****
; process Process1
; layer 1, Z = 0.200
M135 T0
G1 E-1.9000 F1200
; feature inner perimeter
; tool H0.200 W0.400
G1 Z0.500 F1200
G1 X44.996 Y-13.631 F9000
G1 Z0.200 F1200
G1 E1.9000 F1200
G1 X31.181 Y-13.631 E0.4595 F1800
G1 X31.181 Y3.869 E0.5821
G1 X17.381 Y3.869 E0.4590
G1 X17.381 Y-13.631 E0.5821
G1 X1.300 Y-13.631 E0.5349
G1 X1.298 Y3.869 E0.5821
G1 X-12.503 Y3.869 E0.4590
G1 X-12.503 Y-44.931 E1.6231
G1 X1.297 Y-44.931 E0.4590
G1 X1.300 Y-27.431 E0.5821
G1 X17.381 Y-27.431 E0.5349
G1 X17.381 Y-44.931 E0.5821
G1 X31.181 Y-44.931 E0.4590
G1 X31.181 Y-27.431 E0.5821
G1 X44.996 Y-27.431 E0.4595
G1 X44.996 Y-13.631 E0.4590
; feature outer perimeter
G1 X45.396 Y-13.231 F9000
G1 X31.581 Y-13.231 E0.4595 F1200
G1 X31.581 Y4.269 E0.5821
G1 X16.981 Y4.269 E0.4856
G1 X16.981 Y-13.231 E0.5821
G1 X1.700 Y-13.231 E0.5083
G1 X1.697 Y4.269 E0.5821
G1 X-12.903 Y4.269 E0.4856
G1 X-12.903 Y-45.331 E1.6497
G1 X1.697 Y-45.331 E0.4856
G1 X1.700 Y-27.831 E0.5821
G1 X16.981 Y-27.831 E0.5083
G1 X16.981 Y-45.331 E0.5821
G1 X31.581 Y-45.331 E0.4856
G1 X31.581 Y-27.831 E0.5821
G1 X45.396 Y-27.831 E0.4595
G1 X45.396 Y-13.231 E0.4856
G1 E-1.9000 F1200
; feature solid layer
G1 Z0.700 F1200
G1 X44.599 Y-27.111 F9000
G1 Z0.200 F1200
G1 E1.9000 F1200
G1 X44.676 Y-27.034 E0.0036 F2400
G1 X44.676 Y-26.468 E0.0188
G1 X44.033 Y-27.111 E0.0302
G1 X43.467 Y-27.111 E0.0188
G1 X44.676 Y-25.902 E0.0568
G1 X44.676 Y-25.337 E0.0188
G1 X42.902 Y-27.111 E0.0834
G1 X42.336 Y-27.111 E0.0188
G1 X44.676 Y-24.771 E0.1101
G1 X44.676 Y-24.205 E0.0188
G1 X41.770 Y-27.111 E0.1367
G1 X41.205 Y-27.111 E0.0188
G1 X44.676 Y-23.639 E0.1633
G1 X44.676 Y-23.074 E0.0188
G1 X40.639 Y-27.111 E0.1899
G1 X40.073 Y-27.111 E0.0188
G1 X44.676 Y-22.508 E0.2165
G1 X44.676 Y-21.942 E0.0188
G1 X39.507 Y-27.111 E0.2431
G1 X38.942 Y-27.111 E0.0188
G1 X44.676 Y-21.377 E0.2697
G1 X44.676 Y-20.811 E0.0188
G1 X38.376 Y-27.111 E0.2963
G1 X37.810 Y-27.111 E0.0188
G1 X44.676 Y-20.245 E0.3229
G1 X44.676 Y-19.680 E0.0188
G1 X37.245 Y-27.111 E0.3495
G1 X36.679 Y-27.111 E0.0188
G1 X44.676 Y-19.114 E0.3761
G1 X44.676 Y-18.548 E0.0188
G1 X36.113 Y-27.111 E0.4027
G1 X35.548 Y-27.111 E0.0188
G1 X44.676 Y-17.983 E0.4294
G1 X44.676 Y-17.417 E0.0188
G1 X34.982 Y-27.111 E0.4560
G1 X34.416 Y-27.111 E0.0188
G1 X44.676 Y-16.851 E0.4826
G1 X44.676 Y-16.286 E0.0188
G1 X33.851 Y-27.111 E0.5092
G1 X33.285 Y-27.111 E0.0188
G1 X44.676 Y-15.720 E0.5358
G1 X44.676 Y-15.154 E0.0188
G1 X32.719 Y-27.111 E0.5624
G1 X32.154 Y-27.111 E0.0188
G1 X44.676 Y-14.589 E0.5890
G1 X44.676 Y-14.023 E0.0188
G1 X31.588 Y-27.111 E0.6156
G1 E-1.9000 F1200
G1 Z0.700 F1200
G1 X30.493 Y-44.611 F9000
G1 Z0.200 F1200
G1 E1.9000 F1200
G1 X30.861 Y-44.242 E0.0173 F2400
G1 X30.861 Y-43.676 E0.0188
G1 X29.927 Y-44.611 E0.0440
G1 X29.361 Y-44.611 E0.0188
G1 X30.861 Y-43.110 E0.0706
G1 X30.861 Y-42.545 E0.0188
G1 X28.796 Y-44.611 E0.0972
G1 X28.230 Y-44.611 E0.0188
G1 X30.861 Y-41.979 E0.1238
G1 X30.861 Y-41.413 E0.0188
G1 X27.664 Y-44.611 E0.1504
G1 X27.099 Y-44.611 E0.0188
G1 X30.861 Y-40.848 E0.1770
G1 X30.861 Y-40.282 E0.0188
G1 X26.533 Y-44.611 E0.2036
G1 X25.967 Y-44.611 E0.0188
G1 X30.861 Y-39.716 E0.2302
G1 X30.861 Y-39.151 E0.0188
G1 X25.402 Y-44.611 E0.2568
G1 X24.836 Y-44.611 E0.0188
G1 X30.861 Y-38.585 E0.2834
G1 X30.861 Y-38.019 E0.0188
G1 X24.270 Y-44.611 E0.3100
G1 X23.705 Y-44.611 E0.0188
G1 X30.861 Y-37.454 E0.3366
G1 X30.861 Y-36.888 E0.0188
G1 X23.139 Y-44.611 E0.3632
G1 X22.573 Y-44.611 E0.0188
G1 X30.861 Y-36.322 E0.3899
G1 X30.861 Y-35.757 E0.0188
G1 X22.007 Y-44.611 E0.4165
G1 X21.442 Y-44.611 E0.0188
G1 X30.861 Y-35.191 E0.4431
G1 X30.861 Y-34.625 E0.0188
G1 X20.876 Y-44.611 E0.4697
G1 X20.310 Y-44.611 E0.0188
G1 X30.861 Y-34.060 E0.4963
G1 X30.861 Y-33.494 E0.0188
G1 X19.745 Y-44.611 E0.5229
G1 X19.179 Y-44.611 E0.0188
G1 X30.861 Y-32.928 E0.5495
G1 X30.861 Y-32.362 E0.0188
G1 X18.613 Y-44.611 E0.5761
G1 X18.048 Y-44.611 E0.0188
G1 X30.861 Y-31.797 E0.6027
G1 X30.861 Y-31.231 E0.0188
G1 X17.701 Y-44.391 E0.6190
G1 X17.701 Y-43.825 E0.0188
G1 X30.861 Y-30.665 E0.6190
G1 X30.861 Y-30.100 E0.0188
G1 X17.701 Y-43.260 E0.6190
G1 X17.701 Y-42.694 E0.0188
G1 X30.861 Y-29.534 E0.6190
G1 X30.861 Y-28.968 E0.0188
G1 X17.701 Y-42.128 E0.6190
G1 X17.701 Y-41.563 E0.0188
G1 X30.861 Y-28.403 E0.6190
G1 X30.861 Y-27.837 E0.0188
G1 X17.701 Y-40.997 E0.6190
G1 X17.701 Y-40.431 E0.0188
G1 X30.861 Y-27.271 E0.6190
G1 X30.861 Y-27.111 E0.0053
G1 X31.022 Y-27.111 E0.0053
G1 X44.182 Y-13.951 E0.6190
G1 X43.616 Y-13.951 E0.0188
G1 X17.701 Y-39.866 E1.2190
G1 X17.701 Y-39.300 E0.0188
G1 X43.051 Y-13.951 E1.1924
G1 X42.485 Y-13.951 E0.0188
G1 X17.701 Y-38.734 E1.1657
G1 X17.701 Y-38.169 E0.0188
G1 X41.919 Y-13.951 E1.1391
G1 X41.354 Y-13.951 E0.0188
G1 X17.701 Y-37.603 E1.1125
G1 X17.701 Y-37.037 E0.0188
G1 X40.788 Y-13.951 E1.0859
G1 X40.222 Y-13.951 E0.0188
G1 X17.701 Y-36.471 E1.0593
G1 X17.701 Y-35.906 E0.0188
G1 X39.657 Y-13.951 E1.0327
G1 X39.091 Y-13.951 E0.0188
G1 X17.701 Y-35.340 E1.0061
G1 X17.701 Y-34.774 E0.0188
G1 X38.525 Y-13.951 E0.9795
G1 X37.960 Y-13.951 E0.0188
G1 X17.701 Y-34.209 E0.9529
G1 X17.701 Y-33.643 E0.0188
G1 X37.394 Y-13.951 E0.9263
G1 X36.828 Y-13.951 E0.0188
G1 X17.701 Y-33.077 E0.8997
G1 X17.701 Y-32.512 E0.0188
G1 X36.263 Y-13.951 E0.8731
G1 X35.697 Y-13.951 E0.0188
G1 X17.701 Y-31.946 E0.8465
G1 X17.701 Y-31.380 E0.0188
G1 X35.131 Y-13.951 E0.8198
G1 X34.566 Y-13.951 E0.0188
G1 X17.701 Y-30.815 E0.7932
G1 X17.701 Y-30.249 E0.0188
G1 X34.000 Y-13.951 E0.7666
G1 X33.434 Y-13.951 E0.0188
G1 X17.701 Y-29.683 E0.7400
G1 X17.701 Y-29.118 E0.0188
G1 X32.868 Y-13.951 E0.7134
G1 X32.303 Y-13.951 E0.0188
G1 X17.701 Y-28.552 E0.6868
G1 X17.701 Y-27.986 E0.0188
G1 X31.737 Y-13.951 E0.6602
G1 X31.171 Y-13.951 E0.0188
G1 X17.701 Y-27.421 E0.6336
G1 X17.701 Y-27.111 E0.0103
G1 X17.446 Y-27.111 E0.0085
G1 X30.861 Y-13.695 E0.6310
G1 X30.861 Y-13.129 E0.0188
G1 X16.880 Y-27.111 E0.6576
G1 X16.314 Y-27.111 E0.0188
G1 X30.861 Y-12.563 E0.6843
G1 X30.861 Y-11.998 E0.0188
G1 X15.749 Y-27.111 E0.7109
G1 X15.183 Y-27.111 E0.0188
G1 X30.861 Y-11.432 E0.7375
G1 X30.861 Y-10.866 E0.0188
G1 X14.617 Y-27.111 E0.7641
G1 X14.052 Y-27.111 E0.0188
G1 X30.861 Y-10.301 E0.7907
G1 X30.861 Y-9.735 E0.0188
G1 X13.486 Y-27.111 E0.8173
G1 X12.920 Y-27.111 E0.0188
G1 X30.861 Y-9.169 E0.8439
G1 X30.861 Y-8.604 E0.0188
G1 X12.355 Y-27.111 E0.8705
G1 X11.789 Y-27.111 E0.0188
G1 X30.861 Y-8.038 E0.8971
G1 X30.861 Y-7.472 E0.0188
G1 X11.223 Y-27.111 E0.9237
G1 X10.658 Y-27.111 E0.0188
G1 X30.861 Y-6.907 E0.9503
G1 X30.861 Y-6.341 E0.0188
G1 X10.092 Y-27.111 E0.9769
G1 X9.526 Y-27.111 E0.0188
G1 X30.861 Y-5.775 E1.0035
G1 X30.861 Y-5.210 E0.0188
G1 X8.960 Y-27.111 E1.0302
G1 X8.395 Y-27.111 E0.0188
G1 X30.861 Y-4.644 E1.0568
G1 X30.861 Y-4.078 E0.0188
G1 X7.829 Y-27.111 E1.0834
G1 X7.263 Y-27.111 E0.0188
G1 X30.861 Y-3.512 E1.1100
G1 X30.861 Y-2.947 E0.0188
G1 X6.698 Y-27.111 E1.1366
G1 X6.132 Y-27.111 E0.0188
G1 X30.861 Y-2.381 E1.1632
G1 X30.861 Y-1.815 E0.0188
G1 X5.566 Y-27.111 E1.1898
G1 X5.001 Y-27.111 E0.0188
G1 X30.861 Y-1.250 E1.2164
G1 X30.861 Y-0.684 E0.0188
G1 X17.701 Y-13.844 E0.6190
G1 X17.701 Y-13.951 E0.0035
G1 X17.595 Y-13.951 E0.0035
G1 X4.435 Y-27.111 E0.6190
G1 X3.869 Y-27.111 E0.0188
G1 X17.029 Y-13.951 E0.6190
G1 X16.464 Y-13.951 E0.0188
G1 X3.304 Y-27.111 E0.6190
G1 X2.738 Y-27.111 E0.0188
G1 X15.898 Y-13.951 E0.6190
G1 X15.332 Y-13.951 E0.0188
G1 X2.172 Y-27.111 E0.6190
G1 X1.607 Y-27.111 E0.0188
G1 X14.767 Y-13.951 E0.6190
G1 X14.201 Y-13.951 E0.0188
G1 X1.041 Y-27.111 E0.6190
G1 X0.980 Y-27.111 E0.0020
G1 X0.980 Y-27.171 E0.0020
G1 X-12.183 Y-40.334 E0.6191
G1 X-12.183 Y-40.900 E0.0188
G1 X0.980 Y-27.737 E0.6191
G1 X0.980 Y-28.303 E0.0188
G1 X-12.183 Y-41.465 E0.6191
G1 X-12.183 Y-42.031 E0.0188
G1 X0.980 Y-28.869 E0.6191
G1 X0.980 Y-29.434 E0.0188
G1 X-12.183 Y-42.597 E0.6191
G1 X-12.183 Y-43.162 E0.0188
G1 X0.980 Y-30.000 E0.6191
G1 X0.980 Y-30.566 E0.0188
G1 X-12.183 Y-43.728 E0.6191
G1 X-12.183 Y-44.294 E0.0188
G1 X0.979 Y-31.132 E0.6191
G1 X0.979 Y-31.698 E0.0188
G1 X-11.934 Y-44.611 E0.6074
G1 X-11.368 Y-44.611 E0.0188
G1 X0.979 Y-32.263 E0.5808
G1 X0.979 Y-32.829 E0.0188
G1 X-10.802 Y-44.611 E0.5542
G1 X-10.237 Y-44.611 E0.0188
G1 X0.979 Y-33.395 E0.5276
G1 X0.979 Y-33.961 E0.0188
G1 X-9.671 Y-44.611 E0.5009
G1 X-9.105 Y-44.611 E0.0188
G1 X0.979 Y-34.526 E0.4743
G1 X0.979 Y-35.092 E0.0188
G1 X-8.540 Y-44.611 E0.4477
G1 X-7.974 Y-44.611 E0.0188
G1 X0.979 Y-35.658 E0.4211
G1 X0.979 Y-36.224 E0.0188
G1 X-7.408 Y-44.611 E0.3945
G1 X-6.842 Y-44.611 E0.0188
G1 X0.979 Y-36.789 E0.3679
G1 X0.979 Y-37.355 E0.0188
G1 X-6.277 Y-44.611 E0.3413
G1 X-5.711 Y-44.611 E0.0188
G1 X0.978 Y-37.921 E0.3147
G1 X0.978 Y-38.487 E0.0188
