; G-Code generated by Simplify3D(R) Version 4.1.2
; May 4, 2020 at 11:13:18 AM
; Settings Summary
;   processName,Process1
;   applyToModels,Bob Specials A V2R1,Bob Specials B V2R1,BOB bkt
;   profileName,MakerBot Replicator 2 HBP (modified)
;   profileVersion,2020-04-21 14:45:34
;   baseProfile,MakerBot Replicator 2(2)
;   printMaterial,PLA
;   printQuality,Medium
;   printExtruders,
;   extruderName,Primary Extruder
;   extruderToolheadNumber,0
;   extruderDiameter,0.4
;   extruderAutoWidth,0
;   extruderWidth,0.4
;   extrusionMultiplier,1
;   extruderUseRetract,1
;   extruderRetractionDistance,1.9
;   extruderExtraRestartDistance,0
;   extruderRetractionZLift,0.5
;   extruderRetractionSpeed,1200
;   extruderUseCoasting,0
;   extruderCoastingDistance,0.2
;   extruderUseWipe,0
;   extruderWipeDistance,5
;   primaryExtruder,0
;   layerHeight,0.2
;   topSolidLayers,3
;   bottomSolidLayers,3
;   perimeterOutlines,2
;   printPerimetersInsideOut,1
;   startPointOption,3
;   startPointOriginX,140
;   startPointOriginY,0
;   sequentialIslands,0
;   spiralVaseMode,0
;   firstLayerHeightPercentage,100
;   firstLayerWidthPercentage,100
;   firstLayerUnderspeed,0.5
;   useRaft,0
;   raftExtruder,0
;   raftTopLayers,2
;   raftBaseLayers,1
;   raftOffset,1
;   raftSeparationDistance,0.14
;   raftTopInfill,90
;   aboveRaftSpeedMultiplier,0.3
;   useSkirt,0
;   skirtExtruder,0
;   skirtLayers,1
;   skirtOutlines,5
;   skirtOffset,0
;   usePrimePillar,0
;   primePillarExtruder,999
;   primePillarWidth,12
;   primePillarLocation,7
;   primePillarSpeedMultiplier,1
;   useOozeShield,0
;   oozeShieldExtruder,999
;   oozeShieldOffset,2
;   oozeShieldOutlines,1
;   oozeShieldSidewallShape,1
;   oozeShieldSidewallAngle,30
;   oozeShieldSpeedMultiplier,1
;   infillExtruder,0
;   internalInfillPattern,Rectilinear
;   externalInfillPattern,Rectilinear
;   infillPercentage,15
;   outlineOverlapPercentage,20
;   infillExtrusionWidthPercentage,100
;   minInfillLength,5
;   infillLayerInterval,1
;   internalInfillAngles,45,-45
;   overlapInternalInfillAngles,0
;   externalInfillAngles,45,-45
;   generateSupport,1
;   supportExtruder,0
;   supportInfillPercentage,30
;   supportExtraInflation,0.6
;   supportBaseLayers,0
;   denseSupportExtruder,0
;   denseSupportLayers,2
;   denseSupportInfillPercentage,70
;   supportLayerInterval,1
;   supportHorizontalPartOffset,0.3
;   supportUpperSeparationLayers,1
;   supportLowerSeparationLayers,1
;   supportType,0
;   supportGridSpacing,99
;   maxOverhangAngle,45
;   supportAngles,0
;   temperatureName,Primary Extruder,Heated Build Platform
;   temperatureNumber,0,0
;   temperatureSetpointCount,1,1
;   temperatureSetpointLayers,1,1
;   temperatureSetpointTemperatures,230,65
;   temperatureStabilizeAtStartup,1,1
;   temperatureHeatedBed,0,1
;   fanLayers,1,2
;   fanSpeeds,0,100
;   blipFanToFullPower,1
;   adjustSpeedForCooling,1
;   minSpeedLayerTime,15
;   minCoolingSpeedSlowdown,20
;   increaseFanForCooling,1
;   minFanLayerTime,45
;   maxCoolingFanSpeed,100
;   increaseFanForBridging,1
;   bridgingFanSpeed,100
;   use5D,1
;   relativeEdistances,1
;   allowEaxisZeroing,0
;   independentExtruderAxes,1
;   includeM10123,0
;   stickySupport,1
;   applyToolheadOffsets,0
;   gcodeXoffset,0
;   gcodeYoffset,0
;   gcodeZoffset,0
;   overrideMachineDefinition,1
;   machineTypeOverride,0
;   strokeXoverride,280
;   strokeYoverride,150
;   strokeZoverride,150
;   originOffsetXoverride,140
;   originOffsetYoverride,75
;   originOffsetZoverride,0
;   homeXdirOverride,1
;   homeYdirOverride,1
;   homeZdirOverride,-1
;   flipXoverride,1
;   flipYoverride,-1
;   flipZoverride,1
;   toolheadOffsets,0,0|0,0|0,0|0,0|0,0|0,0
;   overrideFirmwareConfiguration,1
;   firmwareTypeOverride,MakerBot/Sailfish Firmware
;   GPXconfigOverride,r2h
;   baudRateOverride,115200
;   overridePrinterModels,1
;   printerModelsOverride,MakerBot_Replicator2.stl
;   startingGcode,; **** Replicator 2 start.gcode ****,M73 P0 ; enable build progress,G162 X Y F3000 ; home XY maximum,G161 Z F1200 ; home Z minimum,G92 Z-5 ; set Z to -5,G1 Z0 ; move Z to 0,G28 ; better homing homie,M132 X Y Z A B ; recall home offsets,G1 X-145 Y-75 Z30 F9000 ; move to wait position off table,G130 X20 Y20 Z20 A20 B20 ; lower stepper Vrefs while heating,M126 S[fan_speed_pwm],M140 S[bed0_temperature] T0,M134 T0 ; stabilize bed temperature,M104 S[extruder0_temperature] T0,M133 T0 ; stabilize extruder temperature,G130 X127 Y127 Z40 A127 B127 ; default stepper Vrefs,G92 A0 ; zero extruder,G1 Z0.4 ; position nozzle,G1 E25 F300 ; purge nozzle,G1 X-140 Y-70 Z0.15 F1200 ; slow wipe,G1 X-135 Y-65 Z0.5 F1200 ; lift,G92 A0 ; zero extruder,M73 P1 ;@body (notify GPX body has started),; **** end of start.gcode ****
;   layerChangeGcode,
;   retractionGcode,
;   toolChangeGcode,
;   endingGcode,; **** Replicator 2 end.gcode ****,M73 P100 ; end build progress,G1 Z155 F1000 ; send Z axis to bottom of machine,M104 S0 T0 ; cool down extruder,M140 S0 T0 ; cool down HBP,M127 ; stop blower fan,G162 X Y F3000 ; home XY maximum,M18 ; disable stepper,M0 ; stop codes,M72 P1 ; play Ta-Da song,; **** end of end.gcode ****
;   exportFileFormat,gcode
;   celebration,0
;   celebrationSong,Random Song
;   postProcessing,
;   defaultSpeed,4800
;   outlineUnderspeed,0.5
;   solidInfillUnderspeed,1
;   supportUnderspeed,1
;   rapidXYspeed,9000
;   rapidZspeed,1200
;   minBridgingArea,50
;   bridgingExtraInflation,0
;   bridgingExtrusionMultiplier,1
;   bridgingSpeedMultiplier,0.8
;   useFixedBridgingAngle,0
;   fixedBridgingAngle,0
;   applyBridgingToPerimeters,0
;   filamentDiameters,1.75|1.75|1.75|1.75|1.75|1.75
;   filamentPricesPerKg,46|46|46|46|46|46
;   filamentDensities,1.25|1.25|1.25|1.25|1.25|1.25
;   useMinPrintHeight,0
;   minPrintHeight,0
;   useMaxPrintHeight,0
;   maxPrintHeight,4.84
;   useDiaphragm,0
;   diaphragmLayerInterval,20
;   robustSlicing,1
;   mergeAllIntoSolid,0
;   onlyRetractWhenCrossingOutline,0
;   retractBetweenLayers,0
;   useRetractionMinTravel,1
;   retractionMinTravel,7
;   retractWhileWiping,1
;   onlyWipeOutlines,1
;   avoidCrossingOutline,0
;   maxMovementDetourFactor,3
;   toolChangeRetractionDistance,12
;   toolChangeExtraRestartDistance,-0.5
;   toolChangeRetractionSpeed,600
;   externalThinWallType,0
;   internalThinWallType,0
;   thinWallAllowedOverlapPercentage,10
;   singleExtrusionMinLength,1
;   singleExtrusionMinPrintingWidthPercentage,50
;   singleExtrusionMaxPrintingWidthPercentage,200
;   singleExtrusionEndpointExtension,0.2
;   horizontalSizeCompensation,0
G90
M83
; **** Replicator 2 start.gcode ****
M73 P0 ; enable build progress
G162 X Y F3000 ; home XY maximum
G161 Z F1200 ; home Z minimum
G92 Z-5 ; set Z to -5
G1 Z0 ; move Z to 0
G28 ; better homing homie
M132 X Y Z A B ; recall home offsets
G1 X-145 Y-75 Z30 F9000 ; move to wait position off table
G130 X20 Y20 Z20 A20 B20 ; lower stepper Vrefs while heating
M127
M140 S65 T0
M134 T0 ; stabilize bed temperature
M104 S230 T0
M133 T0 ; stabilize extruder temperature
G130 X127 Y127 Z40 A127 B127 ; default stepper Vrefs
G92 A0 ; zero extruder
G1 Z0.4 ; position nozzle
G1 E25 F300 ; purge nozzle
G1 X-140 Y-70 Z0.15 F1200 ; slow wipe
G1 X-135 Y-65 Z0.5 F1200 ; lift
G92 A0 ; zero extruder
M73 P1 ;@body (notify GPX body has started)
; **** end of start.gcode ****
; process Process1
; layer 1, Z = 0.200
M135 T0
G1 E-1.9000 F1200
; feature inner perimeter
; tool H0.200 W0.400
G1 Z0.500 F1200
G1 X44.996 Y-13.631 F9000
G1 Z0.200 F1200
G1 E1.9000 F1200
G1 X31.181 Y-13.631 E0.4595 F1800
G1 X31.181 Y3.869 E0.5821
G1 X17.381 Y3.869 E0.4590
G1 X17.381 Y-13.631 E0.5821
G1 X1.300 Y-13.631 E0.5349
G1 X1.298 Y3.869 E0.5821
G1 X-12.503 Y3.869 E0.4590
G1 X-12.503 Y-44.931 E1.6231
G1 X1.297 Y-44.931 E0.4590
G1 X1.300 Y-27.431 E0.5821
G1 X17.381 Y-27.431 E0.5349
G1 X17.381 Y-44.931 E0.5821
G1 X31.181 Y-44.931 E0.4590
G1 X31.181 Y-27.431 E0.5821
G1 X44.996 Y-27.431 E0.4595
G1 X44.996 Y-13.631 E0.4590
; feature outer perimeter
G1 X45.396 Y-13.231 F9000
G1 X31.581 Y-13.231 E0.4595 F1200
G1 X31.581 Y4.269 E0.5821
G1 X16.981 Y4.269 E0.4856
G1 X16.981 Y-13.231 E0.5821
G1 X1.700 Y-13.231 E0.5083
G1 X1.697 Y4.269 E0.5821
G1 X-12.903 Y4.269 E0.4856
G1 X-12.903 Y-45.331 E1.6497
G1 X1.697 Y-45.331 E0.4856
G1 X1.700 Y-27.831 E0.5821
G1 X16.981 Y-27.831 E0.5083
G1 X16.981 Y-45.331 E0.5821
G1 X31.581 Y-45.331 E0.4856
G1 X31.581 Y-27.831 E0.5821
G1 X45.396 Y-27.831 E0.4595
G1 X45.396 Y-13.231 E0.4856
; feature solid layer
G1 X44.676 Y-14.156 F9000
G1 X31.721 Y-27.111 E0.6094 F2400
G1 X32.286 Y-27.111 E0.0188
G1 X44.676 Y-14.721 E0.5827
G1 X44.676 Y-15.287 E0.0188
G1 X32.852 Y-27.111 E0.5561
G1 X33.418 Y-27.111 E0.0188
G1 X44.676 Y-15.853 E0.5295
G1 X44.676 Y-16.418 E0.0188
G1 X33.983 Y-27.111 E0.5029
G1 X34.549 Y-27.111 E0.0188
G1 X44.676 Y-16.984 E0.4763
G1 X44.676 Y-17.550 E0.0188
G1 X35.115 Y-27.111 E0.4497
G1 X35.681 Y-27.111 E0.0188
G1 X44.676 Y-18.115 E0.4231
G1 X44.676 Y-18.681 E0.0188
G1 X36.246 Y-27.111 E0.3965
G1 X36.812 Y-27.111 E0.0188
G1 X44.676 Y-19.247 E0.3699
G1 X44.676 Y-19.813 E0.0188
G1 X37.378 Y-27.111 E0.3433
G1 X37.943 Y-27.111 E0.0188
G1 X44.676 Y-20.378 E0.3167
G1 X44.676 Y-20.944 E0.0188
G1 X38.509 Y-27.111 E0.2901
G1 X39.075 Y-27.111 E0.0188
G1 X44.676 Y-21.510 E0.2635
G1 X44.676 Y-22.075 E0.0188
G1 X39.640 Y-27.111 E0.2368
G1 X40.206 Y-27.111 E0.0188
G1 X44.676 Y-22.641 E0.2102
G1 X44.676 Y-23.207 E0.0188
G1 X40.772 Y-27.111 E0.1836
G1 X41.337 Y-27.111 E0.0188
G1 X44.676 Y-23.772 E0.1570
G1 X44.676 Y-24.338 E0.0188
G1 X41.903 Y-27.111 E0.1304
G1 X42.469 Y-27.111 E0.0188
G1 X44.676 Y-24.904 E0.1038
G1 X44.676 Y-25.469 E0.0188
G1 X43.034 Y-27.111 E0.0772
G1 X43.600 Y-27.111 E0.0188
G1 X44.676 Y-26.035 E0.0506
G1 X44.676 Y-26.601 E0.0188
G1 X44.166 Y-27.111 E0.0240
G1 E-1.9000 F1200
G1 Z0.700 F1200
G1 X30.626 Y-44.611 F9000
G1 Z0.200 F1200
G1 E1.9000 F1200
G1 X30.861 Y-44.375 E0.0111 F2400
G1 X30.861 Y-43.809 E0.0188
G1 X30.060 Y-44.611 E0.0377
G1 X29.494 Y-44.611 E0.0188
G1 X30.861 Y-43.243 E0.0643
G1 X30.861 Y-42.678 E0.0188
G1 X28.929 Y-44.611 E0.0909
G1 X28.363 Y-44.611 E0.0188
G1 X30.861 Y-42.112 E0.1175
G1 X30.861 Y-41.546 E0.0188
G1 X27.797 Y-44.611 E0.1441
G1 X27.232 Y-44.611 E0.0188
G1 X30.861 Y-40.981 E0.1707
G1 X30.861 Y-40.415 E0.0188
G1 X26.666 Y-44.611 E0.1973
G1 X26.100 Y-44.611 E0.0188
G1 X30.861 Y-39.849 E0.2240
G1 X30.861 Y-39.284 E0.0188
G1 X25.534 Y-44.611 E0.2506
G1 X24.969 Y-44.611 E0.0188
G1 X30.861 Y-38.718 E0.2772
G1 X30.861 Y-38.152 E0.0188
G1 X24.403 Y-44.611 E0.3038
G1 X23.837 Y-44.611 E0.0188
G1 X30.861 Y-37.586 E0.3304
G1 X30.861 Y-37.021 E0.0188
G1 X23.272 Y-44.611 E0.3570
G1 X22.706 Y-44.611 E0.0188
G1 X30.861 Y-36.455 E0.3836
G1 X30.861 Y-35.889 E0.0188
G1 X22.140 Y-44.611 E0.4102
G1 X21.575 Y-44.611 E0.0188
G1 X30.861 Y-35.324 E0.4368
G1 X30.861 Y-34.758 E0.0188
G1 X21.009 Y-44.611 E0.4634
G1 X20.443 Y-44.611 E0.0188
G1 X30.861 Y-34.192 E0.4900
G1 X30.861 Y-33.627 E0.0188
G1 X19.878 Y-44.611 E0.5166
G1 X19.312 Y-44.611 E0.0188
G1 X30.861 Y-33.061 E0.5433
G1 X30.861 Y-32.495 E0.0188
G1 X18.746 Y-44.611 E0.5699
G1 X18.181 Y-44.611 E0.0188
G1 X30.861 Y-31.930 E0.5965
G1 X30.861 Y-31.364 E0.0188
G1 X17.701 Y-44.524 E0.6190
G1 X17.701 Y-43.958 E0.0188
G1 X30.861 Y-30.798 E0.6190
G1 X30.861 Y-30.233 E0.0188
G1 X17.701 Y-43.393 E0.6190
G1 X17.701 Y-42.827 E0.0188
G1 X30.861 Y-29.667 E0.6190
G1 X30.861 Y-29.101 E0.0188
G1 X17.701 Y-42.261 E0.6190
G1 X17.701 Y-41.696 E0.0188
G1 X30.861 Y-28.536 E0.6190
G1 X30.861 Y-27.970 E0.0188
G1 X17.701 Y-41.130 E0.6190
G1 X17.701 Y-40.564 E0.0188
G1 X30.861 Y-27.404 E0.6190
G1 X30.861 Y-27.111 E0.0098
G1 X31.155 Y-27.111 E0.0098
G1 X44.315 Y-13.951 E0.6190
G1 X43.749 Y-13.951 E0.0188
G1 X17.701 Y-39.998 E1.2252
G1 X17.701 Y-39.433 E0.0188
G1 X43.184 Y-13.951 E1.1986
G1 X42.618 Y-13.951 E0.0188
G1 X17.701 Y-38.867 E1.1720
G1 X17.701 Y-38.301 E0.0188
G1 X42.052 Y-13.951 E1.1454
G1 X41.487 Y-13.951 E0.0188
G1 X17.701 Y-37.736 E1.1188
G1 X17.701 Y-37.170 E0.0188
G1 X40.921 Y-13.951 E1.0922
G1 X40.355 Y-13.951 E0.0188
G1 X17.701 Y-36.604 E1.0656
G1 X17.701 Y-36.039 E0.0188
G1 X39.790 Y-13.951 E1.0390
G1 X39.224 Y-13.951 E0.0188
G1 X17.701 Y-35.473 E1.0123
G1 X17.701 Y-34.907 E0.0188
G1 X38.658 Y-13.951 E0.9857
G1 X38.093 Y-13.951 E0.0188
G1 X17.701 Y-34.342 E0.9591
G1 X17.701 Y-33.776 E0.0188
G1 X37.527 Y-13.951 E0.9325
G1 X36.961 Y-13.951 E0.0188
G1 X17.701 Y-33.210 E0.9059
G1 X17.701 Y-32.645 E0.0188
G1 X36.395 Y-13.951 E0.8793
G1 X35.830 Y-13.951 E0.0188
G1 X17.701 Y-32.079 E0.8527
G1 X17.701 Y-31.513 E0.0188
G1 X35.264 Y-13.951 E0.8261
G1 X34.698 Y-13.951 E0.0188
G1 X17.701 Y-30.948 E0.7995
G1 X17.701 Y-30.382 E0.0188
G1 X34.133 Y-13.951 E0.7729
G1 X33.567 Y-13.951 E0.0188
G1 X17.701 Y-29.816 E0.7463
G1 X17.701 Y-29.250 E0.0188
G1 X33.001 Y-13.951 E0.7197
G1 X32.436 Y-13.951 E0.0188
G1 X17.701 Y-28.685 E0.6931
G1 X17.701 Y-28.119 E0.0188
G1 X31.870 Y-13.951 E0.6664
G1 X31.304 Y-13.951 E0.0188
G1 X17.701 Y-27.553 E0.6398
G1 X17.701 Y-27.111 E0.0147
G1 X17.579 Y-27.111 E0.0041
G1 X30.861 Y-13.828 E0.6248
G1 X30.861 Y-13.262 E0.0188
G1 X17.013 Y-27.111 E0.6514
G1 X16.447 Y-27.111 E0.0188
G1 X30.861 Y-12.696 E0.6780
G1 X30.861 Y-12.131 E0.0188
G1 X15.882 Y-27.111 E0.7046
G1 X15.316 Y-27.111 E0.0188
G1 X30.861 Y-11.565 E0.7312
G1 X30.861 Y-10.999 E0.0188
G1 X14.750 Y-27.111 E0.7578
G1 X14.185 Y-27.111 E0.0188
G1 X30.861 Y-10.434 E0.7844
G1 X30.861 Y-9.868 E0.0188
G1 X13.619 Y-27.111 E0.8110
G1 X13.053 Y-27.111 E0.0188
G1 X30.861 Y-9.302 E0.8376
G1 X30.861 Y-8.737 E0.0188
G1 X12.487 Y-27.111 E0.8643
G1 X11.922 Y-27.111 E0.0188
G1 X30.861 Y-8.171 E0.8909
G1 X30.861 Y-7.605 E0.0188
G1 X11.356 Y-27.111 E0.9175
G1 X10.790 Y-27.111 E0.0188
G1 X30.861 Y-7.039 E0.9441
G1 X30.861 Y-6.474 E0.0188
G1 X10.225 Y-27.111 E0.9707
G1 X9.659 Y-27.111 E0.0188
G1 X30.861 Y-5.908 E0.9973
G1 X30.861 Y-5.342 E0.0188
G1 X9.093 Y-27.111 E1.0239
G1 X8.528 Y-27.111 E0.0188
G1 X30.861 Y-4.777 E1.0505
G1 X30.861 Y-4.211 E0.0188
G1 X7.962 Y-27.111 E1.0771
G1 X7.396 Y-27.111 E0.0188
G1 X30.861 Y-3.645 E1.1037
G1 X30.861 Y-3.080 E0.0188
G1 X6.831 Y-27.111 E1.1303
G1 X6.265 Y-27.111 E0.0188
G1 X30.861 Y-2.514 E1.1569
G1 X30.861 Y-1.948 E0.0188
G1 X5.699 Y-27.111 E1.1836
G1 X5.134 Y-27.111 E0.0188
G1 X30.861 Y-1.383 E1.2102
G1 X30.861 Y-0.817 E0.0188
G1 X4.568 Y-27.111 E1.2368
G1 X4.002 Y-27.111 E0.0188
G1 X17.162 Y-13.951 E0.6190
G1 X16.596 Y-13.951 E0.0188
G1 X3.436 Y-27.111 E0.6190
G1 X2.871 Y-27.111 E0.0188
G1 X16.031 Y-13.951 E0.6190
G1 X15.465 Y-13.951 E0.0188
G1 X2.305 Y-27.111 E0.6190
G1 X1.739 Y-27.111 E0.0188
G1 X14.899 Y-13.951 E0.6190
G1 X14.334 Y-13.951 E0.0188
G1 X1.174 Y-27.111 E0.6190
G1 X0.980 Y-27.111 E0.0064
G1 X0.980 Y-27.304 E0.0064
G1 X-12.183 Y-40.467 E0.6191
G1 X-12.183 Y-41.033 E0.0188
G1 X0.980 Y-27.870 E0.6191
G1 X0.980 Y-28.436 E0.0188
G1 X-12.183 Y-41.598 E0.6191
G1 X-12.183 Y-42.164 E0.0188
G1 X0.980 Y-29.002 E0.6191
G1 X0.980 Y-29.567 E0.0188
G1 X-12.183 Y-42.730 E0.6191
G1 X-12.183 Y-43.295 E0.0188
G1 X0.980 Y-30.133 E0.6191
G1 X0.979 Y-30.699 E0.0188
G1 X-12.183 Y-43.861 E0.6191
G1 X-12.183 Y-44.427 E0.0188
G1 X0.979 Y-31.265 E0.6191
G1 X0.979 Y-31.830 E0.0188
G1 X-11.801 Y-44.611 E0.6011
G1 X-11.235 Y-44.611 E0.0188
G1 X0.979 Y-32.396 E0.5745
G1 X0.979 Y-32.962 E0.0188
G1 X-10.669 Y-44.611 E0.5479
G1 X-10.104 Y-44.611 E0.0188
G1 X0.979 Y-33.528 E0.5213
G1 X0.979 Y-34.093 E0.0188
G1 X-9.538 Y-44.611 E0.4947
G1 X-8.972 Y-44.611 E0.0188
G1 X0.979 Y-34.659 E0.4681
G1 X0.979 Y-35.225 E0.0188
G1 X-8.407 Y-44.611 E0.4415
G1 X-7.841 Y-44.611 E0.0188
G1 X0.979 Y-35.791 E0.4149
G1 X0.979 Y-36.357 E0.0188
G1 X-7.275 Y-44.611 E0.3882
G1 X-6.710 Y-44.611 E0.0188
G1 X0.979 Y-36.922 E0.3616
G1 X0.979 Y-37.488 E0.0188
G1 X-6.144 Y-44.611 E0.3350
G1 X-5.578 Y-44.611 E0.0188
G1 X0.978 Y-38.054 E0.3084
G1 X0.978 Y-38.620 E0.0188
G1 X-5.013 Y-44.611 E0.2818
G1 X-4.447 Y-44.611 E0.0188
G1 X0.978 Y-39.185 E0.2552
G1 X0.978 Y-39.751 E0.0188
G1 X-3.881 Y-44.611 E0.2286
G1 X-3.315 Y-44.611 E0.0188
G1 X0.978 Y-40.317 E0.2020
G1 X0.978 Y-40.883 E0.0188
