; G-Code generated by Simplify3D(R) Version 4.1.2
; May 1, 2020 at 2:12:43 PM
; Settings Summary
;   processName,Process1
;   applyToModels,Top 1 - BLJ,Top 2 - BLJ
;   profileName,MakerBot Replicator 2 HBP (modified)
;   profileVersion,2020-04-21 14:45:34
;   baseProfile,MakerBot Replicator 2(2)
;   printMaterial,PLA
;   printQuality,Medium
;   printExtruders,
;   extruderName,Primary Extruder
;   extruderToolheadNumber,0
;   extruderDiameter,0.4
;   extruderAutoWidth,0
;   extruderWidth,0.4
;   extrusionMultiplier,1
;   extruderUseRetract,1
;   extruderRetractionDistance,1.9
;   extruderExtraRestartDistance,0
;   extruderRetractionZLift,0.5
;   extruderRetractionSpeed,1200
;   extruderUseCoasting,0
;   extruderCoastingDistance,0.2
;   extruderUseWipe,0
;   extruderWipeDistance,5
;   primaryExtruder,0
;   layerHeight,0.2
;   topSolidLayers,3
;   bottomSolidLayers,3
;   perimeterOutlines,2
;   printPerimetersInsideOut,1
;   startPointOption,3
;   startPointOriginX,140
;   startPointOriginY,0
;   sequentialIslands,0
;   spiralVaseMode,0
;   firstLayerHeightPercentage,100
;   firstLayerWidthPercentage,100
;   firstLayerUnderspeed,0.5
;   useRaft,0
;   raftExtruder,0
;   raftTopLayers,2
;   raftBaseLayers,1
;   raftOffset,1
;   raftSeparationDistance,0.14
;   raftTopInfill,90
;   aboveRaftSpeedMultiplier,0.3
;   useSkirt,0
;   skirtExtruder,0
;   skirtLayers,1
;   skirtOutlines,5
;   skirtOffset,0
;   usePrimePillar,0
;   primePillarExtruder,999
;   primePillarWidth,12
;   primePillarLocation,7
;   primePillarSpeedMultiplier,1
;   useOozeShield,0
;   oozeShieldExtruder,999
;   oozeShieldOffset,2
;   oozeShieldOutlines,1
;   oozeShieldSidewallShape,1
;   oozeShieldSidewallAngle,30
;   oozeShieldSpeedMultiplier,1
;   infillExtruder,0
;   internalInfillPattern,Rectilinear
;   externalInfillPattern,Rectilinear
;   infillPercentage,15
;   outlineOverlapPercentage,20
;   infillExtrusionWidthPercentage,100
;   minInfillLength,5
;   infillLayerInterval,1
;   internalInfillAngles,45,-45
;   overlapInternalInfillAngles,0
;   externalInfillAngles,45,-45
;   generateSupport,1
;   supportExtruder,0
;   supportInfillPercentage,30
;   supportExtraInflation,0.6
;   supportBaseLayers,0
;   denseSupportExtruder,0
;   denseSupportLayers,2
;   denseSupportInfillPercentage,70
;   supportLayerInterval,1
;   supportHorizontalPartOffset,0.3
;   supportUpperSeparationLayers,1
;   supportLowerSeparationLayers,1
;   supportType,0
;   supportGridSpacing,99
;   maxOverhangAngle,45
;   supportAngles,0
;   temperatureName,Primary Extruder,Heated Build Platform
;   temperatureNumber,0,0
;   temperatureSetpointCount,1,1
;   temperatureSetpointLayers,1,1
;   temperatureSetpointTemperatures,230,65
;   temperatureStabilizeAtStartup,1,1
;   temperatureHeatedBed,0,1
;   fanLayers,1,2
;   fanSpeeds,0,100
;   blipFanToFullPower,1
;   adjustSpeedForCooling,1
;   minSpeedLayerTime,15
;   minCoolingSpeedSlowdown,20
;   increaseFanForCooling,1
;   minFanLayerTime,45
;   maxCoolingFanSpeed,100
;   increaseFanForBridging,1
;   bridgingFanSpeed,100
;   use5D,1
;   relativeEdistances,1
;   allowEaxisZeroing,0
;   independentExtruderAxes,1
;   includeM10123,0
;   stickySupport,1
;   applyToolheadOffsets,0
;   gcodeXoffset,0
;   gcodeYoffset,0
;   gcodeZoffset,0
;   overrideMachineDefinition,1
;   machineTypeOverride,0
;   strokeXoverride,280
;   strokeYoverride,150
;   strokeZoverride,150
;   originOffsetXoverride,140
;   originOffsetYoverride,75
;   originOffsetZoverride,0
;   homeXdirOverride,1
;   homeYdirOverride,1
;   homeZdirOverride,-1
;   flipXoverride,1
;   flipYoverride,-1
;   flipZoverride,1
;   toolheadOffsets,0,0|0,0|0,0|0,0|0,0|0,0
;   overrideFirmwareConfiguration,1
;   firmwareTypeOverride,MakerBot/Sailfish Firmware
;   GPXconfigOverride,r2h
;   baudRateOverride,115200
;   overridePrinterModels,1
;   printerModelsOverride,MakerBot_Replicator2.stl
;   startingGcode,; **** Replicator 2 start.gcode ****,M73 P0 ; enable build progress,G162 X Y F3000 ; home XY maximum,G161 Z F1200 ; home Z minimum,G92 Z-5 ; set Z to -5,G1 Z0 ; move Z to 0,G28 ; better homing homie,M132 X Y Z A B ; recall home offsets,G1 X-145 Y-75 Z30 F9000 ; move to wait position off table,G130 X20 Y20 Z20 A20 B20 ; lower stepper Vrefs while heating,M126 S[fan_speed_pwm],M140 S[bed0_temperature] T0,M134 T0 ; stabilize bed temperature,M104 S[extruder0_temperature] T0,M133 T0 ; stabilize extruder temperature,G130 X127 Y127 Z40 A127 B127 ; default stepper Vrefs,G92 A0 ; zero extruder,G1 Z0.4 ; position nozzle,G1 E25 F300 ; purge nozzle,G1 X-140 Y-70 Z0.15 F1200 ; slow wipe,G1 X-135 Y-65 Z0.5 F1200 ; lift,G92 A0 ; zero extruder,M73 P1 ;@body (notify GPX body has started),; **** end of start.gcode ****
;   layerChangeGcode,
;   retractionGcode,
;   toolChangeGcode,
;   endingGcode,; **** Replicator 2 end.gcode ****,M73 P100 ; end build progress,G1 Z155 F1000 ; send Z axis to bottom of machine,M104 S0 T0 ; cool down extruder,M140 S0 T0 ; cool down HBP,M127 ; stop blower fan,G162 X Y F3000 ; home XY maximum,M18 ; disable stepper,M0 ; stop codes,M72 P1 ; play Ta-Da song,; **** end of end.gcode ****
;   exportFileFormat,gcode
;   celebration,0
;   celebrationSong,Random Song
;   postProcessing,
;   defaultSpeed,4800
;   outlineUnderspeed,0.5
;   solidInfillUnderspeed,1
;   supportUnderspeed,1
;   rapidXYspeed,9000
;   rapidZspeed,1200
;   minBridgingArea,50
;   bridgingExtraInflation,0
;   bridgingExtrusionMultiplier,1
;   bridgingSpeedMultiplier,0.8
;   useFixedBridgingAngle,0
;   fixedBridgingAngle,0
;   applyBridgingToPerimeters,0
;   filamentDiameters,1.75|1.75|1.75|1.75|1.75|1.75
;   filamentPricesPerKg,46|46|46|46|46|46
;   filamentDensities,1.25|1.25|1.25|1.25|1.25|1.25
;   useMinPrintHeight,0
;   minPrintHeight,0
;   useMaxPrintHeight,0
;   maxPrintHeight,4.84
;   useDiaphragm,0
;   diaphragmLayerInterval,20
;   robustSlicing,1
;   mergeAllIntoSolid,0
;   onlyRetractWhenCrossingOutline,0
;   retractBetweenLayers,0
;   useRetractionMinTravel,1
;   retractionMinTravel,7
;   retractWhileWiping,1
;   onlyWipeOutlines,1
;   avoidCrossingOutline,0
;   maxMovementDetourFactor,3
;   toolChangeRetractionDistance,12
;   toolChangeExtraRestartDistance,-0.5
;   toolChangeRetractionSpeed,600
;   externalThinWallType,0
;   internalThinWallType,0
;   thinWallAllowedOverlapPercentage,10
;   singleExtrusionMinLength,1
;   singleExtrusionMinPrintingWidthPercentage,50
;   singleExtrusionMaxPrintingWidthPercentage,200
;   singleExtrusionEndpointExtension,0.2
;   horizontalSizeCompensation,0
G90
M83
; **** Replicator 2 start.gcode ****
M73 P0 ; enable build progress
G162 X Y F3000 ; home XY maximum
G161 Z F1200 ; home Z minimum
G92 Z-5 ; set Z to -5
G1 Z0 ; move Z to 0
G28 ; better homing homie
M132 X Y Z A B ; recall home offsets
G1 X-145 Y-75 Z30 F9000 ; move to wait position off table
G130 X20 Y20 Z20 A20 B20 ; lower stepper Vrefs while heating
M127
M140 S65 T0
M134 T0 ; stabilize bed temperature
M104 S230 T0
M133 T0 ; stabilize extruder temperature
G130 X127 Y127 Z40 A127 B127 ; default stepper Vrefs
G92 A0 ; zero extruder
G1 Z0.4 ; position nozzle
G1 E25 F300 ; purge nozzle
G1 X-140 Y-70 Z0.15 F1200 ; slow wipe
G1 X-135 Y-65 Z0.5 F1200 ; lift
G92 A0 ; zero extruder
M73 P1 ;@body (notify GPX body has started)
; **** end of start.gcode ****
; process Process1
; layer 1, Z = 0.200
M135 T0
G1 E-1.9000 F1200
; feature inner perimeter
; tool H0.200 W0.400
G1 Z0.500 F1200
G1 X3.505 Y1.712 F9000
G1 Z0.200 F1200
G1 E1.9000 F1200
G1 X3.100 Y5.112 E0.1139 F1800
G1 X2.296 Y8.440 E0.1139
G1 X1.103 Y11.650 E0.1139
G1 X-0.460 Y14.696 E0.1139
G1 X-2.373 Y17.536 E0.1139
G1 X-4.608 Y20.130 E0.1139
G1 X-7.134 Y22.441 E0.1139
G1 X-9.916 Y24.437 E0.1139
G1 X-12.915 Y26.090 E0.1139
G1 X-16.088 Y27.377 E0.1139
G1 X-19.391 Y28.279 E0.1139
G1 X-22.777 Y28.785 E0.1139
G1 X-26.200 Y28.886 E0.1139
G1 X-29.610 Y28.582 E0.1139
G1 X-32.961 Y27.877 E0.1139
G1 X-36.204 Y26.780 E0.1139
G1 X-39.295 Y25.308 E0.1139
G1 X-42.191 Y23.480 E0.1139
G1 X-44.850 Y21.323 E0.1139
G1 X-47.235 Y18.866 E0.1139
G1 X-49.312 Y16.144 E0.1139
G1 X-51.053 Y13.196 E0.1139
G1 X-52.434 Y10.063 E0.1139
G1 X-53.434 Y6.788 E0.1139
G1 X-54.039 Y3.418 E0.1139
G1 X-54.242 Y0.000 E0.1139
G1 X-54.039 Y-3.418 E0.1139
G1 X-53.434 Y-6.788 E0.1139
G1 X-52.434 Y-10.063 E0.1139
G1 X-51.053 Y-13.196 E0.1139
G1 X-49.312 Y-16.144 E0.1139
G1 X-47.235 Y-18.866 E0.1139
G1 X-44.850 Y-21.323 E0.1139
G1 X-42.191 Y-23.480 E0.1139
G1 X-39.295 Y-25.308 E0.1139
G1 X-36.204 Y-26.780 E0.1139
G1 X-32.961 Y-27.877 E0.1139
G1 X-29.610 Y-28.582 E0.1139
G1 X-26.200 Y-28.886 E0.1139
G1 X-22.777 Y-28.785 E0.1139
G1 X-19.391 Y-28.279 E0.1139
G1 X-16.088 Y-27.377 E0.1139
G1 X-12.915 Y-26.090 E0.1139
G1 X-9.916 Y-24.437 E0.1139
G1 X-7.134 Y-22.441 E0.1139
G1 X-4.608 Y-20.130 E0.1139
G1 X-2.373 Y-17.536 E0.1139
G1 X-0.460 Y-14.696 E0.1139
G1 X1.103 Y-11.650 E0.1139
G1 X2.296 Y-8.440 E0.1139
G1 X3.100 Y-5.112 E0.1139
G1 X3.505 Y-1.712 E0.1139
G1 X3.505 Y1.712 E0.1139
; feature outer perimeter
G1 X3.905 Y1.736 F9000
G1 X3.494 Y5.183 E0.1155 F1200
G1 X2.679 Y8.557 E0.1155
G1 X1.470 Y11.811 E0.1155
G1 X-0.115 Y14.900 E0.1155
G1 X-2.054 Y17.779 E0.1155
G1 X-4.321 Y20.409 E0.1155
G1 X-6.882 Y22.752 E0.1155
G1 X-9.702 Y24.776 E0.1155
G1 X-12.743 Y26.452 E0.1155
G1 X-15.959 Y27.756 E0.1155
G1 X-19.308 Y28.671 E0.1155
G1 X-22.742 Y29.184 E0.1155
G1 X-26.212 Y29.287 E0.1155
G1 X-29.669 Y28.979 E0.1155
G1 X-33.066 Y28.263 E0.1155
G1 X-36.355 Y27.152 E0.1155
G1 X-39.489 Y25.659 E0.1155
G1 X-42.424 Y23.806 E0.1155
G1 X-45.120 Y21.618 E0.1155
G1 X-47.538 Y19.127 E0.1155
G1 X-49.645 Y16.368 E0.1155
G1 X-51.410 Y13.379 E0.1155
G1 X-52.809 Y10.202 E0.1155
G1 X-53.823 Y6.882 E0.1155
G1 X-54.437 Y3.465 E0.1155
G1 X-54.643 Y0.000 E0.1155
G1 X-54.437 Y-3.465 E0.1155
G1 X-53.823 Y-6.882 E0.1155
G1 X-52.809 Y-10.202 E0.1155
G1 X-51.410 Y-13.379 E0.1155
G1 X-49.645 Y-16.368 E0.1155
G1 X-47.538 Y-19.127 E0.1155
G1 X-45.120 Y-21.618 E0.1155
G1 X-42.424 Y-23.806 E0.1155
G1 X-39.489 Y-25.659 E0.1155
G1 X-36.355 Y-27.152 E0.1155
G1 X-33.066 Y-28.263 E0.1155
G1 X-29.669 Y-28.979 E0.1155
G1 X-26.212 Y-29.287 E0.1155
G1 X-22.742 Y-29.184 E0.1155
G1 X-19.308 Y-28.671 E0.1155
G1 X-15.959 Y-27.756 E0.1155
G1 X-12.743 Y-26.452 E0.1155
G1 X-9.702 Y-24.776 E0.1155
G1 X-6.882 Y-22.752 E0.1155
G1 X-4.321 Y-20.409 E0.1155
G1 X-2.054 Y-17.779 E0.1155
G1 X-0.115 Y-14.900 E0.1155
G1 X1.470 Y-11.811 E0.1155
G1 X2.679 Y-8.557 E0.1155
G1 X3.494 Y-5.183 E0.1155
G1 X3.905 Y-1.736 E0.1155
G1 X3.905 Y1.736 E0.1155
G1 E-1.9000 F1200
; feature inner perimeter
G1 Z0.700 F1200
G1 X-14.241 Y0.000 F9000
G1 Z0.200 F1200
G1 E1.9000 F1200
G1 X-14.410 Y-1.928 E0.0644 F1800
G1 X-14.911 Y-3.797 E0.0644
G1 X-15.728 Y-5.551 E0.0644
G1 X-16.838 Y-7.136 E0.0644
G1 X-18.207 Y-8.505 E0.0644
G1 X-19.792 Y-9.615 E0.0644
G1 X-21.546 Y-10.433 E0.0644
G1 X-23.415 Y-10.934 E0.0644
G1 X-25.343 Y-11.102 E0.0644
G1 X-27.271 Y-10.934 E0.0644
G1 X-29.140 Y-10.433 E0.0644
G1 X-30.894 Y-9.615 E0.0644
G1 X-32.480 Y-8.505 E0.0644
G1 X-33.848 Y-7.136 E0.0644
G1 X-34.958 Y-5.551 E0.0644
G1 X-35.776 Y-3.797 E0.0644
G1 X-36.277 Y-1.928 E0.0644
G1 X-36.446 Y0.000 E0.0644
G1 X-36.277 Y1.928 E0.0644
G1 X-35.776 Y3.797 E0.0644
G1 X-34.958 Y5.551 E0.0644
G1 X-33.848 Y7.136 E0.0644
G1 X-32.480 Y8.505 E0.0644
G1 X-30.894 Y9.615 E0.0644
G1 X-29.140 Y10.433 E0.0644
G1 X-27.271 Y10.934 E0.0644
G1 X-25.343 Y11.102 E0.0644
G1 X-23.415 Y10.934 E0.0644
G1 X-21.546 Y10.433 E0.0644
G1 X-19.792 Y9.615 E0.0644
G1 X-18.207 Y8.505 E0.0644
G1 X-16.838 Y7.136 E0.0644
G1 X-15.728 Y5.551 E0.0644
G1 X-14.911 Y3.797 E0.0644
G1 X-14.410 Y1.928 E0.0644
G1 X-14.241 Y0.000 E0.0644
; feature outer perimeter
G1 X-14.643 Y0.000 F9000
G1 X-14.805 Y-1.858 E0.0620 F1200
G1 X-15.288 Y-3.660 E0.0620
G1 X-16.076 Y-5.350 E0.0620
G1 X-17.146 Y-6.878 E0.0620
G1 X-18.465 Y-8.197 E0.0620
G1 X-19.993 Y-9.267 E0.0620
G1 X-21.683 Y-10.055 E0.0620
G1 X-23.485 Y-10.538 E0.0620
G1 X-25.343 Y-10.701 E0.0620
G1 X-27.201 Y-10.538 E0.0620
G1 X-29.003 Y-10.055 E0.0620
G1 X-30.694 Y-9.267 E0.0620
G1 X-32.222 Y-8.197 E0.0620
G1 X-33.541 Y-6.878 E0.0620
G1 X-34.610 Y-5.350 E0.0620
G1 X-35.399 Y-3.660 E0.0620
G1 X-35.881 Y-1.858 E0.0620
G1 X-36.044 Y0.000 E0.0620
G1 X-35.881 Y1.858 E0.0620
G1 X-35.399 Y3.660 E0.0620
G1 X-34.610 Y5.350 E0.0620
G1 X-33.541 Y6.878 E0.0620
G1 X-32.222 Y8.197 E0.0620
G1 X-30.694 Y9.267 E0.0620
G1 X-29.003 Y10.055 E0.0620
G1 X-27.201 Y10.538 E0.0620
G1 X-25.343 Y10.701 E0.0620
G1 X-23.485 Y10.538 E0.0620
G1 X-21.683 Y10.055 E0.0620
G1 X-19.993 Y9.267 E0.0620
G1 X-18.465 Y8.197 E0.0620
G1 X-17.146 Y6.878 E0.0620
G1 X-16.076 Y5.350 E0.0620
G1 X-15.288 Y3.660 E0.0620
G1 X-14.805 Y1.858 E0.0620
G1 X-14.643 Y0.000 E0.0620
G1 E-1.9000 F1200
; feature inner perimeter
G1 Z0.700 F1200
G1 X-24.178 Y17.774 F9000
G1 Z0.200 F1200
G1 E1.9000 F1200
G1 X-24.546 Y17.602 E0.0135 F1800
G1 X-24.939 Y17.497 E0.0135
G1 X-25.343 Y17.462 E0.0135
G1 X-25.748 Y17.497 E0.0135
G1 X-26.140 Y17.602 E0.0135
G1 X-26.509 Y17.774 E0.0135
G1 X-26.841 Y18.007 E0.0135
G1 X-27.129 Y18.294 E0.0135
G1 X-27.362 Y18.627 E0.0135
G1 X-27.534 Y18.996 E0.0136
G1 X-27.639 Y19.399 E0.0138
G1 X-27.674 Y19.792 E0.0131
G1 X-27.638 Y20.197 E0.0135
G1 X-27.533 Y20.589 E0.0135
G1 X-27.362 Y20.957 E0.0135
G1 X-27.129 Y21.290 E0.0135
G1 X-26.841 Y21.577 E0.0135
G1 X-26.509 Y21.810 E0.0135
G1 X-26.140 Y21.982 E0.0135
G1 X-25.748 Y22.087 E0.0135
G1 X-25.343 Y22.122 E0.0135
G1 X-24.939 Y22.087 E0.0135
G1 X-24.546 Y21.982 E0.0135
G1 X-24.178 Y21.810 E0.0135
G1 X-23.845 Y21.577 E0.0135
G1 X-23.558 Y21.290 E0.0135
G1 X-23.325 Y20.957 E0.0135
G1 X-23.153 Y20.589 E0.0135
G1 X-23.048 Y20.197 E0.0135
G1 X-23.013 Y19.792 E0.0135
G1 X-23.048 Y19.387 E0.0135
G1 X-23.153 Y18.995 E0.0135
G1 X-23.325 Y18.627 E0.0135
G1 X-23.558 Y18.294 E0.0135
G1 X-23.845 Y18.007 E0.0135
G1 X-24.178 Y17.774 E0.0135
; feature outer perimeter
G1 X-24.379 Y18.121 F9000
G1 X-24.684 Y17.979 E0.0112 F1200
G1 X-25.008 Y17.892 E0.0112
G1 X-25.343 Y17.863 E0.0112
G1 X-25.678 Y17.892 E0.0112
G1 X-26.003 Y17.979 E0.0112
G1 X-26.308 Y18.121 E0.0112
G1 X-26.583 Y18.314 E0.0112
G1 X-26.821 Y18.552 E0.0112
G1 X-27.014 Y18.827 E0.0112
G1 X-27.156 Y19.133 E0.0112
G1 X-27.244 Y19.468 E0.0115
G1 X-27.272 Y19.792 E0.0108
G1 X-27.243 Y20.127 E0.0112
G1 X-27.156 Y20.452 E0.0112
G1 X-27.014 Y20.756 E0.0112
G1 X-26.821 Y21.032 E0.0112
G1 X-26.583 Y21.270 E0.0112
G1 X-26.308 Y21.462 E0.0112
G1 X-26.003 Y21.605 E0.0112
G1 X-25.678 Y21.692 E0.0112
G1 X-25.343 Y21.721 E0.0112
G1 X-25.008 Y21.692 E0.0112
G1 X-24.684 Y21.605 E0.0112
G1 X-24.379 Y21.462 E0.0112
G1 X-24.103 Y21.270 E0.0112
G1 X-23.866 Y21.032 E0.0112
G1 X-23.673 Y20.756 E0.0112
G1 X-23.531 Y20.452 E0.0112
G1 X-23.444 Y20.127 E0.0112
G1 X-23.414 Y19.792 E0.0112
G1 X-23.444 Y19.457 E0.0112
G1 X-23.531 Y19.132 E0.0112
G1 X-23.673 Y18.827 E0.0112
G1 X-23.866 Y18.552 E0.0112
G1 X-24.103 Y18.314 E0.0112
G1 X-24.379 Y18.121 E0.0112
; feature solid layer
G1 X-22.806 Y19.055 F9000
G1 X-15.192 Y26.668 E0.3581 F2400
G1 X-15.595 Y26.831 E0.0144
G1 X-22.697 Y19.729 E0.3341
G1 X-22.692 Y19.792 E0.0021
G1 X-22.732 Y20.252 E0.0154
G1 X-22.734 Y20.259 E0.0002
G1 X-15.997 Y26.995 E0.3168
G1 X-16.191 Y27.073 E0.0069
G1 X-16.422 Y27.136 E0.0080
G1 X-22.854 Y20.704 E0.3026
G1 X-23.034 Y21.090 E0.0142
G1 X-16.866 Y27.258 E0.2901
G1 X-17.310 Y27.379 E0.0153
G1 X-23.263 Y21.426 E0.2800
G1 X-23.312 Y21.496 E0.0028
G1 X-23.535 Y21.720 E0.0105
G1 X-17.754 Y27.500 E0.2719
G1 X-18.199 Y27.622 E0.0153
G1 X-23.850 Y21.971 E0.2658
G1 X-24.017 Y22.088 E0.0068
G1 X-24.209 Y22.178 E0.0070
G1 X-18.643 Y27.743 E0.2618
G1 X-19.087 Y27.865 E0.0153
G1 X-24.619 Y22.333 E0.2602
G1 X-24.883 Y22.403 E0.0091
G1 X-25.096 Y22.422 E0.0071
G1 X-19.540 Y27.978 E0.2613
G1 X-20.032 Y28.051 E0.0166
G1 X-25.668 Y22.415 E0.2651
G1 E-1.9000 F1200
G1 Z0.700 F1200
G1 X-32.212 Y9.083 F9000
G1 Z0.200 F1200
G1 E1.9000 F1200
G1 X-14.790 Y26.505 E0.8195 F2400
G1 X-14.388 Y26.342 E0.0144
G1 X-30.645 Y10.084 E0.7647
G1 X-29.585 Y10.578 E0.0389
G1 X-13.985 Y26.179 E0.7338
G1 X-13.583 Y26.015 E0.0144
