; G-Code generated by Simplify3D(R) Version 4.1.2
; May 1, 2020 at 2:13:10 PM
; Settings Summary
;   processName,Process1
;   applyToModels,Tris - BLJ
;   profileName,MakerBot Replicator 2 HBP (modified)
;   profileVersion,2020-04-21 14:45:34
;   baseProfile,MakerBot Replicator 2(2)
;   printMaterial,PLA
;   printQuality,Medium
;   printExtruders,
;   extruderName,Primary Extruder
;   extruderToolheadNumber,0
;   extruderDiameter,0.4
;   extruderAutoWidth,0
;   extruderWidth,0.4
;   extrusionMultiplier,1
;   extruderUseRetract,1
;   extruderRetractionDistance,1.9
;   extruderExtraRestartDistance,0
;   extruderRetractionZLift,0.5
;   extruderRetractionSpeed,1200
;   extruderUseCoasting,0
;   extruderCoastingDistance,0.2
;   extruderUseWipe,0
;   extruderWipeDistance,5
;   primaryExtruder,0
;   layerHeight,0.2
;   topSolidLayers,3
;   bottomSolidLayers,3
;   perimeterOutlines,2
;   printPerimetersInsideOut,1
;   startPointOption,3
;   startPointOriginX,140
;   startPointOriginY,0
;   sequentialIslands,0
;   spiralVaseMode,0
;   firstLayerHeightPercentage,100
;   firstLayerWidthPercentage,100
;   firstLayerUnderspeed,0.5
;   useRaft,0
;   raftExtruder,0
;   raftTopLayers,2
;   raftBaseLayers,1
;   raftOffset,1
;   raftSeparationDistance,0.14
;   raftTopInfill,90
;   aboveRaftSpeedMultiplier,0.3
;   useSkirt,0
;   skirtExtruder,0
;   skirtLayers,1
;   skirtOutlines,5
;   skirtOffset,0
;   usePrimePillar,0
;   primePillarExtruder,999
;   primePillarWidth,12
;   primePillarLocation,7
;   primePillarSpeedMultiplier,1
;   useOozeShield,0
;   oozeShieldExtruder,999
;   oozeShieldOffset,2
;   oozeShieldOutlines,1
;   oozeShieldSidewallShape,1
;   oozeShieldSidewallAngle,30
;   oozeShieldSpeedMultiplier,1
;   infillExtruder,0
;   internalInfillPattern,Rectilinear
;   externalInfillPattern,Rectilinear
;   infillPercentage,15
;   outlineOverlapPercentage,20
;   infillExtrusionWidthPercentage,100
;   minInfillLength,5
;   infillLayerInterval,1
;   internalInfillAngles,45,-45
;   overlapInternalInfillAngles,0
;   externalInfillAngles,45,-45
;   generateSupport,1
;   supportExtruder,0
;   supportInfillPercentage,30
;   supportExtraInflation,0.6
;   supportBaseLayers,0
;   denseSupportExtruder,0
;   denseSupportLayers,2
;   denseSupportInfillPercentage,70
;   supportLayerInterval,1
;   supportHorizontalPartOffset,0.3
;   supportUpperSeparationLayers,1
;   supportLowerSeparationLayers,1
;   supportType,0
;   supportGridSpacing,99
;   maxOverhangAngle,45
;   supportAngles,0
;   temperatureName,Primary Extruder,Heated Build Platform
;   temperatureNumber,0,0
;   temperatureSetpointCount,1,1
;   temperatureSetpointLayers,1,1
;   temperatureSetpointTemperatures,230,65
;   temperatureStabilizeAtStartup,1,1
;   temperatureHeatedBed,0,1
;   fanLayers,1,2
;   fanSpeeds,0,100
;   blipFanToFullPower,1
;   adjustSpeedForCooling,1
;   minSpeedLayerTime,15
;   minCoolingSpeedSlowdown,20
;   increaseFanForCooling,1
;   minFanLayerTime,45
;   maxCoolingFanSpeed,100
;   increaseFanForBridging,1
;   bridgingFanSpeed,100
;   use5D,1
;   relativeEdistances,1
;   allowEaxisZeroing,0
;   independentExtruderAxes,1
;   includeM10123,0
;   stickySupport,1
;   applyToolheadOffsets,0
;   gcodeXoffset,0
;   gcodeYoffset,0
;   gcodeZoffset,0
;   overrideMachineDefinition,1
;   machineTypeOverride,0
;   strokeXoverride,280
;   strokeYoverride,150
;   strokeZoverride,150
;   originOffsetXoverride,140
;   originOffsetYoverride,75
;   originOffsetZoverride,0
;   homeXdirOverride,1
;   homeYdirOverride,1
;   homeZdirOverride,-1
;   flipXoverride,1
;   flipYoverride,-1
;   flipZoverride,1
;   toolheadOffsets,0,0|0,0|0,0|0,0|0,0|0,0
;   overrideFirmwareConfiguration,1
;   firmwareTypeOverride,MakerBot/Sailfish Firmware
;   GPXconfigOverride,r2h
;   baudRateOverride,115200
;   overridePrinterModels,1
;   printerModelsOverride,MakerBot_Replicator2.stl
;   startingGcode,; **** Replicator 2 start.gcode ****,M73 P0 ; enable build progress,G162 X Y F3000 ; home XY maximum,G161 Z F1200 ; home Z minimum,G92 Z-5 ; set Z to -5,G1 Z0 ; move Z to 0,G28 ; better homing homie,M132 X Y Z A B ; recall home offsets,G1 X-145 Y-75 Z30 F9000 ; move to wait position off table,G130 X20 Y20 Z20 A20 B20 ; lower stepper Vrefs while heating,M126 S[fan_speed_pwm],M140 S[bed0_temperature] T0,M134 T0 ; stabilize bed temperature,M104 S[extruder0_temperature] T0,M133 T0 ; stabilize extruder temperature,G130 X127 Y127 Z40 A127 B127 ; default stepper Vrefs,G92 A0 ; zero extruder,G1 Z0.4 ; position nozzle,G1 E25 F300 ; purge nozzle,G1 X-140 Y-70 Z0.15 F1200 ; slow wipe,G1 X-135 Y-65 Z0.5 F1200 ; lift,G92 A0 ; zero extruder,M73 P1 ;@body (notify GPX body has started),; **** end of start.gcode ****
;   layerChangeGcode,
;   retractionGcode,
;   toolChangeGcode,
;   endingGcode,; **** Replicator 2 end.gcode ****,M73 P100 ; end build progress,G1 Z155 F1000 ; send Z axis to bottom of machine,M104 S0 T0 ; cool down extruder,M140 S0 T0 ; cool down HBP,M127 ; stop blower fan,G162 X Y F3000 ; home XY maximum,M18 ; disable stepper,M0 ; stop codes,M72 P1 ; play Ta-Da song,; **** end of end.gcode ****
;   exportFileFormat,gcode
;   celebration,0
;   celebrationSong,Random Song
;   postProcessing,
;   defaultSpeed,4800
;   outlineUnderspeed,0.5
;   solidInfillUnderspeed,1
;   supportUnderspeed,1
;   rapidXYspeed,9000
;   rapidZspeed,1200
;   minBridgingArea,50
;   bridgingExtraInflation,0
;   bridgingExtrusionMultiplier,1
;   bridgingSpeedMultiplier,0.8
;   useFixedBridgingAngle,0
;   fixedBridgingAngle,0
;   applyBridgingToPerimeters,0
;   filamentDiameters,1.75|1.75|1.75|1.75|1.75|1.75
;   filamentPricesPerKg,46|46|46|46|46|46
;   filamentDensities,1.25|1.25|1.25|1.25|1.25|1.25
;   useMinPrintHeight,0
;   minPrintHeight,0
;   useMaxPrintHeight,0
;   maxPrintHeight,4.84
;   useDiaphragm,0
;   diaphragmLayerInterval,20
;   robustSlicing,1
;   mergeAllIntoSolid,0
;   onlyRetractWhenCrossingOutline,0
;   retractBetweenLayers,0
;   useRetractionMinTravel,1
;   retractionMinTravel,7
;   retractWhileWiping,1
;   onlyWipeOutlines,1
;   avoidCrossingOutline,0
;   maxMovementDetourFactor,3
;   toolChangeRetractionDistance,12
;   toolChangeExtraRestartDistance,-0.5
;   toolChangeRetractionSpeed,600
;   externalThinWallType,0
;   internalThinWallType,0
;   thinWallAllowedOverlapPercentage,10
;   singleExtrusionMinLength,1
;   singleExtrusionMinPrintingWidthPercentage,50
;   singleExtrusionMaxPrintingWidthPercentage,200
;   singleExtrusionEndpointExtension,0.2
;   horizontalSizeCompensation,0
G90
M83
; **** Replicator 2 start.gcode ****
M73 P0 ; enable build progress
G162 X Y F3000 ; home XY maximum
G161 Z F1200 ; home Z minimum
G92 Z-5 ; set Z to -5
G1 Z0 ; move Z to 0
G28 ; better homing homie
M132 X Y Z A B ; recall home offsets
G1 X-145 Y-75 Z30 F9000 ; move to wait position off table
G130 X20 Y20 Z20 A20 B20 ; lower stepper Vrefs while heating
M127
M140 S65 T0
M134 T0 ; stabilize bed temperature
M104 S230 T0
M133 T0 ; stabilize extruder temperature
G130 X127 Y127 Z40 A127 B127 ; default stepper Vrefs
G92 A0 ; zero extruder
G1 Z0.4 ; position nozzle
G1 E25 F300 ; purge nozzle
G1 X-140 Y-70 Z0.15 F1200 ; slow wipe
G1 X-135 Y-65 Z0.5 F1200 ; lift
G92 A0 ; zero extruder
M73 P1 ;@body (notify GPX body has started)
; **** end of start.gcode ****
; process Process1
; layer 1, Z = 0.200
M135 T0
G1 E-1.9000 F1200
; feature inner perimeter
; tool H0.200 W0.400
G1 Z0.500 F1200
G1 X36.180 Y-7.197 F9000
G1 Z0.200 F1200
G1 E1.9000 F1200
G1 X21.484 Y0.000 E0.5442 F1800
G1 X36.180 Y7.197 E0.5442
G1 X19.849 Y8.222 E0.5442
G1 X30.672 Y20.494 E0.5443
G1 X15.192 Y15.192 E0.5443
G1 X20.494 Y30.672 E0.5443
G1 X8.222 Y19.849 E0.5442
G1 X7.197 Y36.180 E0.5442
G1 X0.000 Y21.484 E0.5442
G1 X-7.197 Y36.180 E0.5442
G1 X-8.222 Y19.849 E0.5443
G1 X-20.494 Y30.672 E0.5442
G1 X-15.192 Y15.192 E0.5443
G1 X-30.672 Y20.494 E0.5443
G1 X-19.849 Y8.222 E0.5443
G1 X-36.180 Y7.197 E0.5442
G1 X-21.484 Y0.000 E0.5442
G1 X-36.180 Y-7.197 E0.5442
G1 X-19.849 Y-8.222 E0.5443
G1 X-30.672 Y-20.494 E0.5443
G1 X-15.192 Y-15.192 E0.5443
G1 X-20.494 Y-30.672 E0.5443
G1 X-8.222 Y-19.849 E0.5442
G1 X-7.197 Y-36.180 E0.5442
G1 X0.000 Y-21.484 E0.5442
G1 X7.197 Y-36.180 E0.5442
G1 X8.222 Y-19.849 E0.5442
G1 X20.494 Y-30.672 E0.5442
G1 X15.192 Y-15.192 E0.5443
G1 X30.672 Y-20.494 E0.5443
G1 X19.849 Y-8.222 E0.5443
G1 X36.180 Y-7.197 E0.5443
; feature outer perimeter
G1 X37.712 Y-7.501 F9000
G1 X22.394 Y0.000 E0.5673 F1200
G1 X37.712 Y7.501 E0.5673
G1 X20.689 Y8.570 E0.5673
G1 X31.970 Y21.362 E0.5673
G1 X15.835 Y15.835 E0.5673
G1 X21.362 Y31.970 E0.5673
G1 X8.570 Y20.689 E0.5673
G1 X7.501 Y37.712 E0.5673
G1 X0.000 Y22.394 E0.5673
G1 X-7.501 Y37.712 E0.5673
G1 X-8.570 Y20.689 E0.5673
G1 X-21.362 Y31.970 E0.5673
G1 X-15.835 Y15.835 E0.5673
G1 X-31.970 Y21.362 E0.5673
G1 X-20.689 Y8.570 E0.5673
G1 X-37.712 Y7.501 E0.5673
G1 X-22.394 Y0.000 E0.5673
G1 X-37.712 Y-7.501 E0.5673
G1 X-20.689 Y-8.570 E0.5673
G1 X-31.971 Y-21.362 E0.5673
G1 X-15.835 Y-15.835 E0.5673
G1 X-21.362 Y-31.970 E0.5673
G1 X-8.570 Y-20.689 E0.5673
G1 X-7.501 Y-37.712 E0.5673
G1 X0.000 Y-22.394 E0.5673
G1 X7.501 Y-37.712 E0.5673
G1 X8.570 Y-20.689 E0.5673
G1 X21.362 Y-31.970 E0.5673
G1 X15.835 Y-15.835 E0.5673
G1 X31.971 Y-21.362 E0.5673
G1 X20.689 Y-8.570 E0.5673
G1 X37.712 Y-7.501 E0.5673
G1 E-1.9000 F1200
; feature inner perimeter
G1 Z0.700 F1200
G1 X19.843 Y-4.947 F9000
G1 Z0.200 F1200
G1 E1.9000 F1200
G1 X18.961 Y-7.661 E0.0949 F1800
G1 X17.710 Y-10.225 E0.0949
G1 X16.115 Y-12.590 E0.0949
G1 X14.206 Y-14.710 E0.0949
G1 X12.020 Y-16.545 E0.0949
G1 X9.559 Y-18.075 E0.0964
G1 X6.994 Y-19.217 E0.0934
G1 X4.252 Y-20.003 E0.0949
G1 X1.427 Y-20.400 E0.0949
G1 X-1.427 Y-20.400 E0.0949
G1 X-4.252 Y-20.003 E0.0949
G1 X-6.995 Y-19.216 E0.0949
G1 X-9.639 Y-18.032 E0.0964
G1 X-12.020 Y-16.544 E0.0934
G1 X-14.206 Y-14.710 E0.0949
G1 X-16.115 Y-12.590 E0.0949
G1 X-17.710 Y-10.225 E0.0949
G1 X-18.961 Y-7.661 E0.0949
G1 X-19.843 Y-4.947 E0.0949
G1 X-20.338 Y-2.138 E0.0949
G1 X-20.438 Y0.714 E0.0949
G1 X-20.139 Y3.551 E0.0949
G1 X-19.449 Y6.319 E0.0949
G1 X-18.380 Y8.965 E0.0949
G1 X-16.954 Y11.435 E0.0949
G1 X-15.197 Y13.684 E0.0949
G1 X-13.145 Y15.666 E0.0949
G1 X-10.837 Y17.343 E0.0949
G1 X-8.318 Y18.682 E0.0949
G1 X-5.637 Y19.658 E0.0949
G1 X-2.846 Y20.251 E0.0949
G1 X0.000 Y20.450 E0.0949
G1 X2.846 Y20.251 E0.0949
G1 X5.637 Y19.658 E0.0949
G1 X8.318 Y18.682 E0.0949
G1 X10.837 Y17.343 E0.0949
G1 X13.145 Y15.666 E0.0949
G1 X15.197 Y13.684 E0.0949
G1 X16.954 Y11.435 E0.0949
G1 X18.380 Y8.965 E0.0949
G1 X19.449 Y6.319 E0.0949
G1 X20.139 Y3.551 E0.0949
G1 X20.438 Y0.714 E0.0949
G1 X20.338 Y-2.138 E0.0949
G1 X19.843 Y-4.947 E0.0949
; feature outer perimeter
G1 X19.453 Y-4.850 F9000
G1 X18.589 Y-7.510 E0.0930 F1200
G1 X17.363 Y-10.024 E0.0930
G1 X15.799 Y-12.343 E0.0930
G1 X13.927 Y-14.422 E0.0930
G1 X11.784 Y-16.220 E0.0930
G1 X9.371 Y-17.721 E0.0945
G1 X6.857 Y-18.840 E0.0915
G1 X4.168 Y-19.611 E0.0930
G1 X1.399 Y-20.000 E0.0930
G1 X-1.399 Y-20.000 E0.0930
G1 X-4.168 Y-19.611 E0.0930
G1 X-6.857 Y-18.840 E0.0930
G1 X-9.451 Y-17.678 E0.0945
G1 X-11.784 Y-16.220 E0.0915
G1 X-13.927 Y-14.422 E0.0930
G1 X-15.799 Y-12.343 E0.0930
G1 X-17.363 Y-10.024 E0.0930
G1 X-18.589 Y-7.510 E0.0930
G1 X-19.453 Y-4.850 E0.0930
G1 X-19.939 Y-2.096 E0.0930
G1 X-20.037 Y0.700 E0.0930
G1 X-19.744 Y3.481 E0.0930
G1 X-19.068 Y6.195 E0.0930
G1 X-18.020 Y8.789 E0.0930
G1 X-16.621 Y11.211 E0.0930
G1 X-14.899 Y13.415 E0.0930
G1 X-12.887 Y15.358 E0.0930
G1 X-10.624 Y17.002 E0.0930
G1 X-8.155 Y18.316 E0.0930
G1 X-5.526 Y19.272 E0.0930
G1 X-2.790 Y19.854 E0.0930
G1 X0.000 Y20.049 E0.0930
G1 X2.790 Y19.854 E0.0930
G1 X5.526 Y19.272 E0.0930
G1 X8.155 Y18.316 E0.0930
G1 X10.624 Y17.002 E0.0930
G1 X12.887 Y15.358 E0.0930
G1 X14.899 Y13.415 E0.0930
G1 X16.621 Y11.211 E0.0930
G1 X18.020 Y8.789 E0.0930
G1 X19.068 Y6.195 E0.0930
G1 X19.744 Y3.481 E0.0930
G1 X20.037 Y0.700 E0.0930
G1 X19.939 Y-2.096 E0.0930
G1 X19.453 Y-4.850 E0.0930
; feature solid layer
G1 X19.150 Y-8.003 F9000
G1 X19.192 Y-7.961 E0.0020 F2400
G1 X19.457 Y-8.261 E0.0133
G1 X18.611 Y-9.107 E0.0398
G1 X18.073 Y-10.212 E0.0409
G1 X19.722 Y-8.562 E0.0776
G1 X19.987 Y-8.863 E0.0133
G1 X17.000 Y-11.850 E0.1405
G1 X14.723 Y-14.693 F9000
G1 X20.252 Y-9.163 E0.2601 F2400
G1 X20.518 Y-9.464 E0.0133
G1 X15.144 Y-14.837 E0.2527
G1 X15.566 Y-14.981 E0.0148
G1 X20.783 Y-9.764 E0.2454
G1 X21.048 Y-10.065 E0.0133
G1 X15.987 Y-15.126 E0.2380
G1 X16.408 Y-15.270 E0.0148
G1 X21.313 Y-10.366 E0.2307
G1 X21.578 Y-10.666 E0.0133
G1 X16.830 Y-15.414 E0.2233
G1 X17.251 Y-15.559 E0.0148
G1 X21.843 Y-10.967 E0.2160
G1 X22.108 Y-11.267 E0.0133
G1 X17.672 Y-15.703 E0.2086
G1 X18.094 Y-15.847 E0.0148
G1 X22.373 Y-11.568 E0.2013
G1 X22.638 Y-11.869 E0.0133
G1 X18.515 Y-15.992 E0.1939
G1 X18.936 Y-16.136 E0.0148
G1 X22.903 Y-12.169 E0.1866
G1 X23.168 Y-12.470 E0.0133
G1 X19.358 Y-16.280 E0.1792
G1 X19.779 Y-16.425 E0.0148
G1 X23.434 Y-12.770 E0.1719
G1 X23.699 Y-13.071 E0.0133
G1 X20.200 Y-16.569 E0.1645
G1 X20.622 Y-16.713 E0.0148
G1 X23.964 Y-13.371 E0.1572
G1 X24.229 Y-13.672 E0.0133
G1 X21.043 Y-16.858 E0.1498
G1 X21.464 Y-17.002 E0.0148
G1 X24.494 Y-13.973 E0.1425
G1 X24.759 Y-14.273 E0.0133
G1 X21.886 Y-17.146 E0.1351
G1 X22.307 Y-17.291 E0.0148
G1 X25.024 Y-14.574 E0.1278
G1 X25.289 Y-14.874 E0.0133
G1 X22.729 Y-17.435 E0.1204
G1 X23.150 Y-17.579 E0.0148
G1 X25.554 Y-15.175 E0.1131
G1 X25.819 Y-15.476 E0.0133
G1 X23.571 Y-17.724 E0.1057
G1 X23.993 Y-17.868 E0.0148
G1 X26.084 Y-15.776 E0.0984
G1 X26.350 Y-16.077 E0.0133
G1 X24.414 Y-18.012 E0.0910
G1 X24.835 Y-18.157 E0.0148
G1 X26.615 Y-16.377 E0.0837
G1 X26.880 Y-16.678 E0.0133
G1 X25.257 Y-18.301 E0.0763
G1 X25.678 Y-18.445 E0.0148
G1 X27.145 Y-16.979 E0.0690
G1 X27.410 Y-17.279 E0.0133
G1 X26.099 Y-18.590 E0.0616
G1 X26.521 Y-18.734 E0.0148
G1 X27.675 Y-17.580 E0.0543
G1 X27.940 Y-17.880 E0.0133
G1 X26.942 Y-18.878 E0.0469
G1 X27.363 Y-19.023 E0.0148
G1 X28.205 Y-18.181 E0.0396
G1 X28.470 Y-18.482 E0.0133
G1 X27.785 Y-19.167 E0.0322
G1 X28.206 Y-19.311 E0.0148
G1 X28.735 Y-18.782 E0.0249
G1 X29.000 Y-19.083 E0.0133
G1 X28.627 Y-19.456 E0.0175
G1 X29.049 Y-19.600 E0.0148
G1 X29.266 Y-19.383 E0.0102
G1 X29.531 Y-19.684 E0.0133
G1 X29.470 Y-19.744 E0.0028
G1 E-1.9000 F1200
G1 Z0.700 F1200
G1 X19.684 Y-29.531 F9000
G1 Z0.200 F1200
G1 E1.9000 F1200
G1 X19.744 Y-29.470 E0.0028 F2400
G1 X19.600 Y-29.049 E0.0148
G1 X19.383 Y-29.266 E0.0102
G1 X19.083 Y-29.000 E0.0133
G1 X19.456 Y-28.627 E0.0175
G1 X19.311 Y-28.206 E0.0148
G1 X18.782 Y-28.735 E0.0249
G1 X18.482 Y-28.470 E0.0133
G1 X19.167 Y-27.785 E0.0322
G1 X19.023 Y-27.363 E0.0148
G1 X18.181 Y-28.205 E0.0396
G1 X17.880 Y-27.940 E0.0133
G1 X18.878 Y-26.942 E0.0469
G1 X18.734 Y-26.521 E0.0148
G1 X17.580 Y-27.675 E0.0543
G1 X17.279 Y-27.410 E0.0133
G1 X18.590 Y-26.099 E0.0616
G1 X18.445 Y-25.678 E0.0148
G1 X16.979 Y-27.145 E0.0690
G1 X16.678 Y-26.880 E0.0133
G1 X18.301 Y-25.257 E0.0763
G1 X18.157 Y-24.835 E0.0148
G1 X16.377 Y-26.615 E0.0837
G1 X16.077 Y-26.350 E0.0133
G1 X18.012 Y-24.414 E0.0910
G1 X17.868 Y-23.993 E0.0148
G1 X15.776 Y-26.084 E0.0984
G1 X15.476 Y-25.819 E0.0133
G1 X17.724 Y-23.571 E0.1057
G1 X17.579 Y-23.150 E0.0148
G1 X15.175 Y-25.554 E0.1131
G1 X14.874 Y-25.289 E0.0133
G1 X17.435 Y-22.729 E0.1204
G1 X17.291 Y-22.307 E0.0148
G1 X14.574 Y-25.024 E0.1278
G1 X14.273 Y-24.759 E0.0133
G1 X17.146 Y-21.886 E0.1351
G1 X17.002 Y-21.464 E0.0148
G1 X13.973 Y-24.494 E0.1425
G1 X13.672 Y-24.229 E0.0133
G1 X16.858 Y-21.043 E0.1498
G1 X16.713 Y-20.622 E0.0148
G1 X13.371 Y-23.964 E0.1572
G1 X13.071 Y-23.699 E0.0133
G1 X16.569 Y-20.200 E0.1645
G1 X16.425 Y-19.779 E0.0148
G1 X12.770 Y-23.434 E0.1719
G1 X12.470 Y-23.168 E0.0133
G1 X16.280 Y-19.358 E0.1792
G1 X16.136 Y-18.936 E0.0148
G1 X12.169 Y-22.903 E0.1866
G1 X11.869 Y-22.638 E0.0133
G1 X15.992 Y-18.515 E0.1939
G1 X15.847 Y-18.094 E0.0148
G1 X11.568 Y-22.373 E0.2013
G1 X11.267 Y-22.108 E0.0133
G1 X15.703 Y-17.672 E0.2086
G1 X15.559 Y-17.251 E0.0148
G1 X10.967 Y-21.843 E0.2160
G1 X10.666 Y-21.578 E0.0133
G1 X15.414 Y-16.830 E0.2233
