; G-Code generated by Simplify3D(R) Version 4.1.2
; Jun 26, 2020 at 12:30:02 PM
; Settings Summary
;   processName,Process1
;   applyToModels,mechanic signV2R2
;   profileName,MakerBot Replicator 2 HBP (modified)
;   profileVersion,2020-04-21 14:45:34
;   baseProfile,MakerBot Replicator 2(2)
;   printMaterial,PLA
;   printQuality,Medium
;   printExtruders,
;   extruderName,Primary Extruder
;   extruderToolheadNumber,0
;   extruderDiameter,0.4
;   extruderAutoWidth,0
;   extruderWidth,0.4
;   extrusionMultiplier,1
;   extruderUseRetract,1
;   extruderRetractionDistance,1.9
;   extruderExtraRestartDistance,0
;   extruderRetractionZLift,0.5
;   extruderRetractionSpeed,1200
;   extruderUseCoasting,0
;   extruderCoastingDistance,0.2
;   extruderUseWipe,0
;   extruderWipeDistance,5
;   primaryExtruder,0
;   layerHeight,0.2
;   topSolidLayers,4
;   bottomSolidLayers,3
;   perimeterOutlines,2
;   printPerimetersInsideOut,1
;   startPointOption,3
;   startPointOriginX,140
;   startPointOriginY,0
;   sequentialIslands,0
;   spiralVaseMode,0
;   firstLayerHeightPercentage,100
;   firstLayerWidthPercentage,100
;   firstLayerUnderspeed,0.5
;   useRaft,0
;   raftExtruder,0
;   raftTopLayers,2
;   raftBaseLayers,1
;   raftOffset,1
;   raftSeparationDistance,0.14
;   raftTopInfill,90
;   aboveRaftSpeedMultiplier,0.3
;   useSkirt,0
;   skirtExtruder,0
;   skirtLayers,1
;   skirtOutlines,5
;   skirtOffset,0
;   usePrimePillar,0
;   primePillarExtruder,999
;   primePillarWidth,12
;   primePillarLocation,7
;   primePillarSpeedMultiplier,1
;   useOozeShield,0
;   oozeShieldExtruder,999
;   oozeShieldOffset,2
;   oozeShieldOutlines,1
;   oozeShieldSidewallShape,1
;   oozeShieldSidewallAngle,30
;   oozeShieldSpeedMultiplier,1
;   infillExtruder,0
;   internalInfillPattern,Rectilinear
;   externalInfillPattern,Rectilinear
;   infillPercentage,15
;   outlineOverlapPercentage,20
;   infillExtrusionWidthPercentage,100
;   minInfillLength,5
;   infillLayerInterval,1
;   internalInfillAngles,45,-45
;   overlapInternalInfillAngles,0
;   externalInfillAngles,45,-45
;   generateSupport,1
;   supportExtruder,0
;   supportInfillPercentage,30
;   supportExtraInflation,0.6
;   supportBaseLayers,0
;   denseSupportExtruder,0
;   denseSupportLayers,2
;   denseSupportInfillPercentage,70
;   supportLayerInterval,1
;   supportHorizontalPartOffset,0.3
;   supportUpperSeparationLayers,1
;   supportLowerSeparationLayers,1
;   supportType,0
;   supportGridSpacing,99
;   maxOverhangAngle,45
;   supportAngles,0
;   temperatureName,Primary Extruder,Heated Build Platform
;   temperatureNumber,0,0
;   temperatureSetpointCount,1,1
;   temperatureSetpointLayers,1,1
;   temperatureSetpointTemperatures,210,65
;   temperatureStabilizeAtStartup,1,1
;   temperatureHeatedBed,0,1
;   fanLayers,1,2
;   fanSpeeds,0,100
;   blipFanToFullPower,1
;   adjustSpeedForCooling,1
;   minSpeedLayerTime,15
;   minCoolingSpeedSlowdown,20
;   increaseFanForCooling,1
;   minFanLayerTime,45
;   maxCoolingFanSpeed,100
;   increaseFanForBridging,1
;   bridgingFanSpeed,100
;   use5D,1
;   relativeEdistances,1
;   allowEaxisZeroing,0
;   independentExtruderAxes,1
;   includeM10123,0
;   stickySupport,1
;   applyToolheadOffsets,0
;   gcodeXoffset,0
;   gcodeYoffset,0
;   gcodeZoffset,0
;   overrideMachineDefinition,1
;   machineTypeOverride,0
;   strokeXoverride,280
;   strokeYoverride,150
;   strokeZoverride,150
;   originOffsetXoverride,140
;   originOffsetYoverride,75
;   originOffsetZoverride,0
;   homeXdirOverride,1
;   homeYdirOverride,1
;   homeZdirOverride,-1
;   flipXoverride,1
;   flipYoverride,-1
;   flipZoverride,1
;   toolheadOffsets,0,0|0,0|0,0|0,0|0,0|0,0
;   overrideFirmwareConfiguration,1
;   firmwareTypeOverride,MakerBot/Sailfish Firmware
;   GPXconfigOverride,r2h
;   baudRateOverride,115200
;   overridePrinterModels,1
;   printerModelsOverride,MakerBot_Replicator2.stl
;   startingGcode,; **** Replicator 2 start.gcode ****,M73 P0 ; enable build progress,G162 X Y F3000 ; home XY maximum,G161 Z F1200 ; home Z minimum,G92 Z-5 ; set Z to -5,G1 Z0 ; move Z to 0,G28 ; better homing homie,M132 X Y Z A B ; recall home offsets,G1 X-145 Y-75 Z30 F9000 ; move to wait position off table,G130 X20 Y20 Z20 A20 B20 ; lower stepper Vrefs while heating,M126 S[fan_speed_pwm],M140 S[bed0_temperature] T0,M134 T0 ; stabilize bed temperature,M104 S[extruder0_temperature] T0,M133 T0 ; stabilize extruder temperature,G130 X127 Y127 Z40 A127 B127 ; default stepper Vrefs,G92 A0 ; zero extruder,G1 Z0.4 ; position nozzle,G1 E25 F300 ; purge nozzle,G1 X-140 Y-70 Z0.15 F1200 ; slow wipe,G1 X-135 Y-65 Z0.5 F1200 ; lift,G92 A0 ; zero extruder,M73 P1 ;@body (notify GPX body has started),; **** end of start.gcode ****
;   layerChangeGcode,
;   retractionGcode,
;   toolChangeGcode,
;   endingGcode,; **** Replicator 2 end.gcode ****,M73 P100 ; end build progress,G1 Z155 F1000 ; send Z axis to bottom of machine,M104 S0 T0 ; cool down extruder,M140 S0 T0 ; cool down HBP,M127 ; stop blower fan,G162 X Y F3000 ; home XY maximum,M18 ; disable stepper,M0 ; stop codes,M72 P1 ; play Ta-Da song,; **** end of end.gcode ****
;   exportFileFormat,gcode
;   celebration,0
;   celebrationSong,Random Song
;   postProcessing,
;   defaultSpeed,4800
;   outlineUnderspeed,0.5
;   solidInfillUnderspeed,1
;   supportUnderspeed,1
;   rapidXYspeed,9000
;   rapidZspeed,1200
;   minBridgingArea,50
;   bridgingExtraInflation,0
;   bridgingExtrusionMultiplier,1
;   bridgingSpeedMultiplier,0.8
;   useFixedBridgingAngle,0
;   fixedBridgingAngle,0
;   applyBridgingToPerimeters,0
;   filamentDiameters,1.75|1.75|1.75|1.75|1.75|1.75
;   filamentPricesPerKg,46|46|46|46|46|46
;   filamentDensities,1.25|1.25|1.25|1.25|1.25|1.25
;   useMinPrintHeight,0
;   minPrintHeight,0
;   useMaxPrintHeight,0
;   maxPrintHeight,4.84
;   useDiaphragm,0
;   diaphragmLayerInterval,20
;   robustSlicing,1
;   mergeAllIntoSolid,0
;   onlyRetractWhenCrossingOutline,0
;   retractBetweenLayers,0
;   useRetractionMinTravel,1
;   retractionMinTravel,7
;   retractWhileWiping,1
;   onlyWipeOutlines,1
;   avoidCrossingOutline,0
;   maxMovementDetourFactor,3
;   toolChangeRetractionDistance,12
;   toolChangeExtraRestartDistance,-0.5
;   toolChangeRetractionSpeed,600
;   externalThinWallType,0
;   internalThinWallType,0
;   thinWallAllowedOverlapPercentage,10
;   singleExtrusionMinLength,1
;   singleExtrusionMinPrintingWidthPercentage,50
;   singleExtrusionMaxPrintingWidthPercentage,200
;   singleExtrusionEndpointExtension,0.2
;   horizontalSizeCompensation,0
G90
M83
; **** Replicator 2 start.gcode ****
M73 P0 ; enable build progress
G162 X Y F3000 ; home XY maximum
G161 Z F1200 ; home Z minimum
G92 Z-5 ; set Z to -5
G1 Z0 ; move Z to 0
G28 ; better homing homie
M132 X Y Z A B ; recall home offsets
G1 X-145 Y-75 Z30 F9000 ; move to wait position off table
G130 X20 Y20 Z20 A20 B20 ; lower stepper Vrefs while heating
M127
M140 S65 T0
M134 T0 ; stabilize bed temperature
M104 S210 T0
M133 T0 ; stabilize extruder temperature
G130 X127 Y127 Z40 A127 B127 ; default stepper Vrefs
G92 A0 ; zero extruder
G1 Z0.4 ; position nozzle
G1 E25 F300 ; purge nozzle
G1 X-140 Y-70 Z0.15 F1200 ; slow wipe
G1 X-135 Y-65 Z0.5 F1200 ; lift
G92 A0 ; zero extruder
M73 P1 ;@body (notify GPX body has started)
; **** end of start.gcode ****
; process Process1
; layer 1, Z = 0.200
M135 T0
G1 E-1.9000 F1200
; feature inner perimeter
; tool H0.200 W0.400
G1 Z0.500 F1200
G1 X15.378 Y-6.401 F9000
G1 Z0.200 F1200
G1 E1.9000 F1200
G1 X15.378 Y6.401 E0.4258 F1800
G1 X4.422 Y6.401 E0.3644
G1 X4.422 Y12.400 E0.1995
G1 X-15.378 Y12.400 E0.6586
G1 X-15.378 Y-12.400 E0.8249
G1 X4.422 Y-12.400 E0.6586
G1 X4.422 Y-6.401 E0.1995
G1 X15.378 Y-6.401 E0.3644
; feature outer perimeter
G1 X15.778 Y-6.801 F9000
G1 X15.778 Y6.801 E0.4524 F1200
G1 X4.822 Y6.801 E0.3644
G1 X4.822 Y12.800 E0.1995
G1 X-15.778 Y12.800 E0.6852
G1 X-15.778 Y-12.800 E0.8515
G1 X4.822 Y-12.800 E0.6852
G1 X4.822 Y-6.801 E0.1995
G1 X15.778 Y-6.801 E0.3644
; feature solid layer
G1 X14.850 Y-6.081 F9000
G1 X15.058 Y-5.872 E0.0098 F2400
G1 X15.058 Y-5.307 E0.0188
G1 X14.284 Y-6.081 E0.0364
G1 X13.718 Y-6.081 E0.0188
G1 X15.058 Y-4.741 E0.0630
G1 X15.058 Y-4.175 E0.0188
G1 X13.153 Y-6.081 E0.0896
G1 X12.587 Y-6.081 E0.0188
G1 X15.058 Y-3.610 E0.1162
G1 X15.058 Y-3.044 E0.0188
G1 X12.021 Y-6.081 E0.1428
G1 X11.456 Y-6.081 E0.0188
G1 X15.058 Y-2.478 E0.1695
G1 X15.058 Y-1.912 E0.0188
G1 X10.890 Y-6.081 E0.1961
G1 X10.324 Y-6.081 E0.0188
G1 X15.058 Y-1.347 E0.2227
G1 X15.058 Y-0.781 E0.0188
G1 X9.759 Y-6.081 E0.2493
G1 X9.193 Y-6.081 E0.0188
G1 X15.058 Y-0.215 E0.2759
G1 X15.058 Y0.350 E0.0188
G1 X8.627 Y-6.081 E0.3025
G1 X8.062 Y-6.081 E0.0188
G1 X15.058 Y0.916 E0.3291
G1 X15.058 Y1.482 E0.0188
G1 X7.496 Y-6.081 E0.3557
G1 X6.930 Y-6.081 E0.0188
G1 X15.058 Y2.047 E0.3823
G1 X15.058 Y2.613 E0.0188
G1 X6.364 Y-6.081 E0.4089
G1 X5.799 Y-6.081 E0.0188
G1 X15.058 Y3.179 E0.4355
G1 X15.058 Y3.744 E0.0188
G1 X5.233 Y-6.081 E0.4621
G1 X4.667 Y-6.081 E0.0188
G1 X15.058 Y4.310 E0.4887
G1 X15.058 Y4.876 E0.0188
G1 X-1.898 Y-12.080 E0.7975
G1 X-1.332 Y-12.080 E0.0188
G1 X4.102 Y-6.646 E0.2556
G1 X4.102 Y-7.212 E0.0188
G1 X-0.766 Y-12.080 E0.2290
G1 X-0.201 Y-12.080 E0.0188
G1 X4.102 Y-7.778 E0.2024
G1 X4.102 Y-8.343 E0.0188
G1 X0.365 Y-12.080 E0.1758
G1 X0.931 Y-12.080 E0.0188
G1 X4.102 Y-8.909 E0.1492
G1 X4.102 Y-9.475 E0.0188
G1 X1.496 Y-12.080 E0.1225
G1 X2.062 Y-12.080 E0.0188
G1 X4.102 Y-10.040 E0.0959
G1 X4.102 Y-10.606 E0.0188
G1 X2.628 Y-12.080 E0.0693
G1 X3.194 Y-12.080 E0.0188
G1 X4.102 Y-11.172 E0.0427
G1 X4.102 Y-11.737 E0.0188
G1 X3.759 Y-12.080 E0.0161
G1 X-2.463 Y-12.080 F9000
G1 X15.058 Y5.441 E0.8242 F2400
G1 X15.058 Y6.007 E0.0188
G1 X-3.029 Y-12.080 E0.8508
G1 X-3.595 Y-12.080 E0.0188
G1 X14.566 Y6.081 E0.8542
G1 X14.000 Y6.081 E0.0188
G1 X-4.160 Y-12.080 E0.8542
G1 X-4.726 Y-12.080 E0.0188
G1 X13.435 Y6.081 E0.8542
G1 X12.869 Y6.081 E0.0188
G1 X-5.292 Y-12.080 E0.8542
G1 X-5.857 Y-12.080 E0.0188
G1 X12.303 Y6.081 E0.8542
G1 X11.737 Y6.081 E0.0188
G1 X-6.423 Y-12.080 E0.8542
G1 X-6.989 Y-12.080 E0.0188
G1 X11.172 Y6.081 E0.8542
G1 X10.606 Y6.081 E0.0188
G1 X-7.555 Y-12.080 E0.8542
G1 X-8.120 Y-12.080 E0.0188
G1 X10.040 Y6.081 E0.8542
G1 X9.475 Y6.081 E0.0188
G1 X-8.686 Y-12.080 E0.8542
G1 X-9.252 Y-12.080 E0.0188
G1 X8.909 Y6.081 E0.8542
G1 X8.343 Y6.081 E0.0188
G1 X-9.817 Y-12.080 E0.8542
G1 X-10.383 Y-12.080 E0.0188
G1 X7.778 Y6.081 E0.8542
G1 X7.212 Y6.081 E0.0188
G1 X-10.949 Y-12.080 E0.8542
G1 X-11.514 Y-12.080 E0.0188
G1 X6.646 Y6.081 E0.8542
G1 X6.081 Y6.081 E0.0188
G1 X-12.080 Y-12.080 E0.8542
G1 X-12.646 Y-12.080 E0.0188
G1 X5.515 Y6.081 E0.8542
G1 X4.949 Y6.081 E0.0188
G1 X-13.211 Y-12.080 E0.8542
G1 X-13.777 Y-12.080 E0.0188
G1 X4.384 Y6.081 E0.8542
G1 X4.102 Y6.081 E0.0094
G1 X4.102 Y6.365 E0.0094
G1 X-14.343 Y-12.080 E0.8676
G1 X-14.908 Y-12.080 E0.0188
G1 X4.102 Y6.930 E0.8942
G1 X4.102 Y7.496 E0.0188
G1 X-15.058 Y-11.664 E0.9012
G1 X-15.058 Y-11.098 E0.0188
G1 X4.102 Y8.062 E0.9012
G1 X4.102 Y8.627 E0.0188
G1 X-15.058 Y-10.533 E0.9012
G1 X-15.058 Y-9.967 E0.0188
G1 X4.102 Y9.193 E0.9012
G1 X4.102 Y9.759 E0.0188
G1 X-15.058 Y-9.401 E0.9012
G1 X-15.058 Y-8.836 E0.0188
G1 X4.102 Y10.324 E0.9012
G1 X4.102 Y10.890 E0.0188
G1 X-15.058 Y-8.270 E0.9012
G1 X-15.058 Y-7.704 E0.0188
G1 X4.102 Y11.456 E0.9012
G1 X4.102 Y12.021 E0.0188
G1 X-15.058 Y-7.139 E0.9012
G1 X-15.058 Y-6.573 E0.0188
G1 X3.595 Y12.080 E0.8774
G1 X3.029 Y12.080 E0.0188
G1 X-15.058 Y-6.007 E0.8508
G1 X-15.058 Y-5.441 E0.0188
G1 X2.463 Y12.080 E0.8242
G1 X1.898 Y12.080 E0.0188
G1 X-15.058 Y-4.876 E0.7975
G1 X-15.058 Y-4.310 E0.0188
G1 X1.332 Y12.080 E0.7709
G1 X0.766 Y12.080 E0.0188
G1 X-15.058 Y-3.744 E0.7443
G1 X-15.058 Y-3.179 E0.0188
G1 X0.201 Y12.080 E0.7177
G1 X-0.365 Y12.080 E0.0188
G1 X-15.058 Y-2.613 E0.6911
G1 X-15.058 Y-2.047 E0.0188
G1 X-0.931 Y12.080 E0.6645
G1 X-1.496 Y12.080 E0.0188
G1 X-15.058 Y-1.482 E0.6379
G1 X-15.058 Y-0.916 E0.0188
G1 X-2.062 Y12.080 E0.6113
G1 X-2.628 Y12.080 E0.0188
G1 X-15.058 Y-0.350 E0.5847
G1 X-15.058 Y0.215 E0.0188
G1 X-3.193 Y12.080 E0.5581
G1 X-3.759 Y12.080 E0.0188
G1 X-15.058 Y0.781 E0.5315
G1 X-15.058 Y1.347 E0.0188
G1 X-4.325 Y12.080 E0.5049
G1 X-4.891 Y12.080 E0.0188
G1 X-15.058 Y1.912 E0.4783
G1 X-15.058 Y2.478 E0.0188
G1 X-5.456 Y12.080 E0.4516
G1 X-6.022 Y12.080 E0.0188
G1 X-15.058 Y3.044 E0.4250
G1 X-15.058 Y3.609 E0.0188
G1 X-6.588 Y12.080 E0.3984
G1 X-7.153 Y12.080 E0.0188
G1 X-15.058 Y4.175 E0.3718
G1 X-15.058 Y4.741 E0.0188
G1 X-7.719 Y12.080 E0.3452
G1 X-8.285 Y12.080 E0.0188
G1 X-15.058 Y5.307 E0.3186
G1 X-15.058 Y5.872 E0.0188
G1 X-8.850 Y12.080 E0.2920
G1 X-9.416 Y12.080 E0.0188
G1 X-15.058 Y6.438 E0.2654
G1 X-15.058 Y7.004 E0.0188
G1 X-9.982 Y12.080 E0.2388
G1 X-10.547 Y12.080 E0.0188
G1 X-15.058 Y7.569 E0.2122
G1 X-15.058 Y8.135 E0.0188
G1 X-11.113 Y12.080 E0.1856
G1 X-11.679 Y12.080 E0.0188
G1 X-15.058 Y8.701 E0.1590
G1 X-15.058 Y9.266 E0.0188
G1 X-12.244 Y12.080 E0.1323
G1 X-12.810 Y12.080 E0.0188
G1 X-15.058 Y9.832 E0.1057
G1 X-15.058 Y10.398 E0.0188
G1 X-13.376 Y12.080 E0.0791
G1 X-13.942 Y12.080 E0.0188
G1 X-15.058 Y10.963 E0.0525
G1 X-15.058 Y11.529 E0.0188
G1 X-14.507 Y12.080 E0.0259
G1 E-1.9000 F1200
; layer 2, Z = 0.400
M126 S255
; feature inner perimeter
G1 Z0.700 F1200
G1 X15.378 Y-6.401 F9000
G1 Z0.400 F1200
G1 E1.9000 F1200
G1 X15.378 Y6.401 E0.4258 F3600
G1 X4.422 Y6.401 E0.3644
G1 X4.422 Y12.400 E0.1995
G1 X-15.378 Y12.400 E0.6586
G1 X-15.378 Y-12.400 E0.8249
G1 X4.422 Y-12.400 E0.6586
G1 X4.422 Y-6.401 E0.1995
G1 X15.378 Y-6.401 E0.3644
; feature outer perimeter
G1 X15.778 Y-6.801 F9000
G1 X15.778 Y6.801 E0.4524 F2400
G1 X4.822 Y6.801 E0.3644
G1 X4.822 Y12.800 E0.1995
G1 X-15.778 Y12.800 E0.6852
G1 X-15.778 Y-12.800 E0.8515
G1 X4.822 Y-12.800 E0.6852
G1 X4.822 Y-6.801 E0.1995
G1 X15.778 Y-6.801 E0.3644
G1 E-1.9000 F1200
; feature solid layer
G1 Z0.900 F1200
G1 X15.058 Y5.872 F9000
G1 Z0.400 F1200
G1 E1.9000 F1200
G1 X14.850 Y6.081 E0.0098 F4800
G1 X14.284 Y6.081 E0.0188
G1 X15.058 Y5.307 E0.0364
G1 X15.058 Y4.741 E0.0188
G1 X13.718 Y6.081 E0.0630
G1 X13.153 Y6.081 E0.0188
G1 X15.058 Y4.175 E0.0896
G1 X15.058 Y3.610 E0.0188
G1 X12.587 Y6.081 E0.1162
G1 X12.021 Y6.081 E0.0188
G1 X15.058 Y3.044 E0.1428
G1 X15.058 Y2.478 E0.0188
G1 X11.456 Y6.081 E0.1694
G1 X10.890 Y6.081 E0.0188
G1 X15.058 Y1.912 E0.1961
G1 X15.058 Y1.347 E0.0188
G1 X10.324 Y6.081 E0.2227
G1 X9.759 Y6.081 E0.0188
G1 X15.058 Y0.781 E0.2493
G1 X15.058 Y0.215 E0.0188
G1 X9.193 Y6.081 E0.2759
G1 X8.627 Y6.081 E0.0188
G1 X15.058 Y-0.350 E0.3025
G1 X15.058 Y-0.916 E0.0188
G1 X8.062 Y6.081 E0.3291
G1 X7.496 Y6.081 E0.0188
G1 X15.058 Y-1.482 E0.3557
G1 X15.058 Y-2.047 E0.0188
G1 X6.930 Y6.081 E0.3823
G1 X6.364 Y6.081 E0.0188
G1 X15.058 Y-2.613 E0.4089
G1 X15.058 Y-3.179 E0.0188
G1 X5.799 Y6.081 E0.4355
G1 X5.233 Y6.081 E0.0188
G1 X15.058 Y-3.744 E0.4621
G1 X15.058 Y-4.310 E0.0188
G1 X4.667 Y6.081 E0.4887
G1 X3.759 Y12.080 F9000
G1 X4.102 Y11.737 E0.0161 F4800
G1 X4.102 Y11.172 E0.0188
G1 X3.194 Y12.080 E0.0427
G1 X2.628 Y12.080 E0.0188
G1 X4.102 Y10.606 E0.0693
G1 X4.102 Y10.040 E0.0188
G1 X2.062 Y12.080 E0.0959
G1 X1.496 Y12.080 E0.0188
G1 X4.102 Y9.475 E0.1225
G1 X4.102 Y8.909 E0.0188
G1 X0.931 Y12.080 E0.1492
G1 X0.365 Y12.080 E0.0188
G1 X4.102 Y8.343 E0.1758
G1 X4.102 Y7.778 E0.0188
G1 X-0.201 Y12.080 E0.2024
G1 X-0.766 Y12.080 E0.0188
G1 X4.102 Y7.212 E0.2290
G1 X4.102 Y6.646 E0.0188
G1 X-1.332 Y12.080 E0.2556
G1 X-1.898 Y12.080 E0.0188
G1 X15.058 Y-4.876 E0.7975
G1 X15.058 Y-5.441 E0.0188
G1 X-2.463 Y12.080 E0.8242
G1 X-3.029 Y12.080 E0.0188
G1 X15.058 Y-6.007 E0.8508
G1 X15.058 Y-6.081 E0.0024
G1 X14.566 Y-6.081 E0.0164
G1 X-3.595 Y12.080 E0.8542
G1 X-4.160 Y12.080 E0.0188
G1 X14.000 Y-6.081 E0.8542
G1 X13.435 Y-6.081 E0.0188
G1 X-4.726 Y12.080 E0.8542
G1 X-5.292 Y12.080 E0.0188
G1 X12.869 Y-6.081 E0.8542
G1 X12.303 Y-6.081 E0.0188
G1 X-5.857 Y12.080 E0.8542
G1 X-6.423 Y12.080 E0.0188
G1 X11.738 Y-6.081 E0.8542
G1 X11.172 Y-6.081 E0.0188
G1 X-6.989 Y12.080 E0.8542
G1 X-7.554 Y12.080 E0.0188
G1 X10.606 Y-6.081 E0.8542
