; G-Code generated by Simplify3D(R) Version 4.1.2
; Apr 22, 2020 at 11:17:07 AM
; Settings Summary
;   processName,Process1
;   applyToModels,Prison TowerJV,Tower bracket
;   profileName,MakerBot Replicator 2 HBP
;   profileVersion,2020-04-21 14:45:34
;   baseProfile,MakerBot Replicator 2(2)
;   printMaterial,PLA
;   printQuality,Medium
;   printExtruders,
;   extruderName,Primary Extruder
;   extruderToolheadNumber,0
;   extruderDiameter,0.4
;   extruderAutoWidth,0
;   extruderWidth,0.4
;   extrusionMultiplier,1
;   extruderUseRetract,1
;   extruderRetractionDistance,1.9
;   extruderExtraRestartDistance,0
;   extruderRetractionZLift,0.5
;   extruderRetractionSpeed,1200
;   extruderUseCoasting,0
;   extruderCoastingDistance,0.2
;   extruderUseWipe,0
;   extruderWipeDistance,5
;   primaryExtruder,0
;   layerHeight,0.2
;   topSolidLayers,3
;   bottomSolidLayers,3
;   perimeterOutlines,2
;   printPerimetersInsideOut,1
;   startPointOption,3
;   startPointOriginX,140
;   startPointOriginY,0
;   sequentialIslands,0
;   spiralVaseMode,0
;   firstLayerHeightPercentage,100
;   firstLayerWidthPercentage,100
;   firstLayerUnderspeed,0.5
;   useRaft,0
;   raftExtruder,0
;   raftTopLayers,2
;   raftBaseLayers,1
;   raftOffset,1
;   raftSeparationDistance,0.14
;   raftTopInfill,90
;   aboveRaftSpeedMultiplier,0.3
;   useSkirt,0
;   skirtExtruder,0
;   skirtLayers,1
;   skirtOutlines,5
;   skirtOffset,0
;   usePrimePillar,0
;   primePillarExtruder,999
;   primePillarWidth,12
;   primePillarLocation,7
;   primePillarSpeedMultiplier,1
;   useOozeShield,0
;   oozeShieldExtruder,999
;   oozeShieldOffset,2
;   oozeShieldOutlines,1
;   oozeShieldSidewallShape,1
;   oozeShieldSidewallAngle,30
;   oozeShieldSpeedMultiplier,1
;   infillExtruder,0
;   internalInfillPattern,Rectilinear
;   externalInfillPattern,Rectilinear
;   infillPercentage,15
;   outlineOverlapPercentage,20
;   infillExtrusionWidthPercentage,100
;   minInfillLength,5
;   infillLayerInterval,1
;   internalInfillAngles,45,-45
;   overlapInternalInfillAngles,0
;   externalInfillAngles,45,-45
;   generateSupport,1
;   supportExtruder,0
;   supportInfillPercentage,20
;   supportExtraInflation,0.5
;   supportBaseLayers,0
;   denseSupportExtruder,0
;   denseSupportLayers,2
;   denseSupportInfillPercentage,70
;   supportLayerInterval,1
;   supportHorizontalPartOffset,0.3
;   supportUpperSeparationLayers,1
;   supportLowerSeparationLayers,1
;   supportType,0
;   supportGridSpacing,2
;   maxOverhangAngle,45
;   supportAngles,0
;   temperatureName,Primary Extruder,Heated Build Platform
;   temperatureNumber,0,0
;   temperatureSetpointCount,1,1
;   temperatureSetpointLayers,1,1
;   temperatureSetpointTemperatures,230,60
;   temperatureStabilizeAtStartup,1,1
;   temperatureHeatedBed,0,1
;   fanLayers,1,2
;   fanSpeeds,0,100
;   blipFanToFullPower,1
;   adjustSpeedForCooling,1
;   minSpeedLayerTime,15
;   minCoolingSpeedSlowdown,20
;   increaseFanForCooling,1
;   minFanLayerTime,45
;   maxCoolingFanSpeed,100
;   increaseFanForBridging,1
;   bridgingFanSpeed,100
;   use5D,1
;   relativeEdistances,1
;   allowEaxisZeroing,0
;   independentExtruderAxes,1
;   includeM10123,0
;   stickySupport,1
;   applyToolheadOffsets,0
;   gcodeXoffset,0
;   gcodeYoffset,0
;   gcodeZoffset,0
;   overrideMachineDefinition,1
;   machineTypeOverride,0
;   strokeXoverride,280
;   strokeYoverride,150
;   strokeZoverride,150
;   originOffsetXoverride,140
;   originOffsetYoverride,75
;   originOffsetZoverride,0
;   homeXdirOverride,1
;   homeYdirOverride,1
;   homeZdirOverride,-1
;   flipXoverride,1
;   flipYoverride,-1
;   flipZoverride,1
;   toolheadOffsets,0,0|0,0|0,0|0,0|0,0|0,0
;   overrideFirmwareConfiguration,1
;   firmwareTypeOverride,MakerBot/Sailfish Firmware
;   GPXconfigOverride,r2h
;   baudRateOverride,115200
;   overridePrinterModels,1
;   printerModelsOverride,MakerBot_Replicator2.stl
;   startingGcode,; **** Replicator 2 start.gcode ****,M73 P0 ; enable build progress,G162 X Y F3000 ; home XY maximum,G161 Z F1200 ; home Z minimum,G92 Z-5 ; set Z to -5,G1 Z0 ; move Z to 0,G161 Z F100 ; home Z slowly,M132 X Y Z A B ; recall home offsets,G1 X-145 Y-75 Z30 F9000 ; move to wait position off table,G130 X20 Y20 Z20 A20 B20 ; lower stepper Vrefs while heating,M126 S[fan_speed_pwm],M140 S[bed0_temperature] T0,M134 T0 ; stabilize bed temperature,M104 S[extruder0_temperature] T0,M133 T0 ; stabilize extruder temperature,G130 X127 Y127 Z40 A127 B127 ; default stepper Vrefs,G92 A0 ; zero extruder,G1 Z0.4 ; position nozzle,G1 E25 F300 ; purge nozzle,G1 X-140 Y-70 Z0.15 F1200 ; slow wipe,G1 X-135 Y-65 Z0.5 F1200 ; lift,G92 A0 ; zero extruder,M73 P1 ;@body (notify GPX body has started),; **** end of start.gcode ****
;   layerChangeGcode,
;   retractionGcode,
;   toolChangeGcode,
;   endingGcode,; **** Replicator 2 end.gcode ****,M73 P100 ; end build progress,G1 Z155 F1000 ; send Z axis to bottom of machine,M104 S0 T0 ; cool down extruder,M140 S0 T0 ; cool down HBP,M127 ; stop blower fan,G162 X Y F3000 ; home XY maximum,M18 ; disable stepper,M0 ; stop codes,M72 P1 ; play Ta-Da song,; **** end of end.gcode ****
;   exportFileFormat,gcode
;   celebration,0
;   celebrationSong,Random Song
;   postProcessing,
;   defaultSpeed,4800
;   outlineUnderspeed,0.5
;   solidInfillUnderspeed,1
;   supportUnderspeed,1
;   rapidXYspeed,9000
;   rapidZspeed,1200
;   minBridgingArea,50
;   bridgingExtraInflation,0
;   bridgingExtrusionMultiplier,1
;   bridgingSpeedMultiplier,0.8
;   useFixedBridgingAngle,0
;   fixedBridgingAngle,0
;   applyBridgingToPerimeters,0
;   filamentDiameters,1.75|1.75|1.75|1.75|1.75|1.75
;   filamentPricesPerKg,46|46|46|46|46|46
;   filamentDensities,1.25|1.25|1.25|1.25|1.25|1.25
;   useMinPrintHeight,0
;   minPrintHeight,0
;   useMaxPrintHeight,0
;   maxPrintHeight,4.84
;   useDiaphragm,0
;   diaphragmLayerInterval,20
;   robustSlicing,1
;   mergeAllIntoSolid,0
;   onlyRetractWhenCrossingOutline,0
;   retractBetweenLayers,0
;   useRetractionMinTravel,1
;   retractionMinTravel,7
;   retractWhileWiping,1
;   onlyWipeOutlines,1
;   avoidCrossingOutline,0
;   maxMovementDetourFactor,3
;   toolChangeRetractionDistance,12
;   toolChangeExtraRestartDistance,-0.5
;   toolChangeRetractionSpeed,600
;   externalThinWallType,0
;   internalThinWallType,0
;   thinWallAllowedOverlapPercentage,10
;   singleExtrusionMinLength,1
;   singleExtrusionMinPrintingWidthPercentage,50
;   singleExtrusionMaxPrintingWidthPercentage,200
;   singleExtrusionEndpointExtension,0.2
;   horizontalSizeCompensation,0
G90
M83
; **** Replicator 2 start.gcode ****
M73 P0 ; enable build progress
G162 X Y F3000 ; home XY maximum
G161 Z F1200 ; home Z minimum
G92 Z-5 ; set Z to -5
G1 Z0 ; move Z to 0
G161 Z F100 ; home Z slowly
M132 X Y Z A B ; recall home offsets
G1 X-145 Y-75 Z30 F9000 ; move to wait position off table
G130 X20 Y20 Z20 A20 B20 ; lower stepper Vrefs while heating
M127
M140 S60 T0
M134 T0 ; stabilize bed temperature
M104 S230 T0
M133 T0 ; stabilize extruder temperature
G130 X127 Y127 Z40 A127 B127 ; default stepper Vrefs
G92 A0 ; zero extruder
G1 Z0.4 ; position nozzle
G1 E25 F300 ; purge nozzle
G1 X-140 Y-70 Z0.15 F1200 ; slow wipe
G1 X-135 Y-65 Z0.5 F1200 ; lift
G92 A0 ; zero extruder
M73 P1 ;@body (notify GPX body has started)
; **** end of start.gcode ****
; process Process1
; layer 1, Z = 0.200
M135 T0
G1 E-1.9000 F1200
; feature inner perimeter
; tool H0.200 W0.400
G1 Z0.500 F1200
G1 X22.830 Y15.002 F9000
G1 Z0.200 F1200
G1 E1.9000 F1200
G1 X21.441 Y16.387 E0.0652 F1800
G1 X-22.838 Y16.387 E1.4728
G1 X-24.227 Y15.002 E0.0652
G1 X22.830 Y15.002 E1.5651
G1 X22.904 Y15.001 F9000
G1 X44.447 Y14.587 E0.7167 F1800
G1 X68.341 Y14.587 E0.7947
G1 X68.341 Y-27.612 E1.4035
G1 X44.447 Y-27.612 E0.7947
G1 X22.903 Y-28.027 E0.7167
G1 X24.294 Y-29.413 E0.0653
G1 X68.574 Y-29.413 E1.4728
G1 X69.400 Y-28.589 E0.0388
G1 X69.400 Y15.563 E1.4685
G1 X68.574 Y16.387 E0.0388
G1 X24.294 Y16.387 E1.4728
G1 X22.904 Y15.001 E0.0653
G1 E-1.9000 F1200
G1 Z0.700 F1200
G1 X22.831 Y-28.028 F9000
G1 Z0.200 F1200
G1 E1.9000 F1200
G1 X-24.228 Y-28.028 E1.5652 F1800
G1 X-22.838 Y-29.413 E0.0653
G1 X21.441 Y-29.413 E1.4728
G1 X22.831 Y-28.028 E0.0653
G1 E-1.9000 F1200
G1 Z0.700 F1200
G1 X-24.301 Y-28.028 F9000
G1 Z0.200 F1200
G1 E1.9000 F1200
G1 X-69.400 Y-28.028 E1.5000 F1800
G1 X-69.400 Y-28.660 E0.0210
G1 X-57.907 Y-28.660 E0.3823
G1 X-57.908 Y-29.413 E0.0250
G1 X-25.691 Y-29.413 E1.0715
G1 X-24.301 Y-28.028 E0.0653
G1 E-1.9000 F1200
G1 Z0.700 F1200
G1 X-24.302 Y15.002 F9000
G1 Z0.200 F1200
G1 E1.9000 F1200
G1 X-25.691 Y16.387 E0.0653 F1800
G1 X-69.400 Y16.387 E1.4538
G1 X-69.400 Y15.002 E0.0461
G1 X-24.302 Y15.002 E1.5000
; feature outer perimeter
G1 X-24.264 Y15.529 F9000
G1 X-25.526 Y16.787 E0.0592 F1200
G1 X-69.800 Y16.787 E1.4726
G1 X-69.800 Y14.602 E0.0727
G1 X22.869 Y14.602 E3.0822
G1 X44.443 Y14.187 E0.7177
G1 X67.941 Y14.187 E0.7815
G1 X67.941 Y-27.212 E1.3769
G1 X44.443 Y-27.212 E0.7815
G1 X22.869 Y-27.628 E0.7177
G1 X-69.800 Y-27.628 E3.0822
G1 X-69.800 Y-29.060 E0.0476
G1 X-58.307 Y-29.060 E0.3823
G1 X-58.308 Y-29.813 E0.0250
G1 X-25.526 Y-29.813 E1.0903
G1 X-24.264 Y-28.556 E0.0592
G1 X-23.004 Y-29.813 E0.0592
G1 X21.607 Y-29.813 E1.4838
G1 X22.867 Y-28.556 E0.0592
G1 X24.129 Y-29.813 E0.0592
G1 X68.740 Y-29.813 E1.4838
G1 X69.800 Y-28.755 E0.0498
G1 X69.800 Y15.729 E1.4795
G1 X68.740 Y16.787 E0.0498
G1 X24.129 Y16.787 E1.4838
G1 X22.867 Y15.529 E0.0592
G1 X21.607 Y16.787 E0.0592
G1 X-23.004 Y16.787 E1.4838
G1 X-24.264 Y15.529 E0.0592
; feature solid layer
G1 X-25.580 Y15.322 F9000
G1 X-25.328 Y15.573 E0.0118 F2400
G1 X-25.612 Y15.855 E0.0133
G1 X-26.146 Y15.322 E0.0251
G1 X-26.711 Y15.322 E0.0188
G1 X-25.966 Y16.067 E0.0350
G1 X-26.532 Y16.067 E0.0188
G1 X-27.277 Y15.322 E0.0350
G1 X-27.843 Y15.322 E0.0188
G1 X-27.098 Y16.067 E0.0350
G1 X-27.663 Y16.067 E0.0188
G1 X-28.408 Y15.322 E0.0350
G1 X-28.974 Y15.322 E0.0188
G1 X-28.229 Y16.067 E0.0350
G1 X-28.795 Y16.067 E0.0188
G1 X-29.540 Y15.322 E0.0350
G1 X-30.105 Y15.322 E0.0188
G1 X-29.360 Y16.067 E0.0350
G1 X-29.926 Y16.067 E0.0188
G1 X-30.671 Y15.322 E0.0350
G1 X-31.237 Y15.322 E0.0188
G1 X-30.492 Y16.067 E0.0350
G1 X-31.057 Y16.067 E0.0188
G1 X-31.803 Y15.322 E0.0350
G1 X-32.368 Y15.322 E0.0188
G1 X-31.623 Y16.067 E0.0350
G1 X-32.189 Y16.067 E0.0188
G1 X-32.934 Y15.322 E0.0350
G1 X-33.500 Y15.322 E0.0188
G1 X-32.755 Y16.067 E0.0350
G1 X-33.320 Y16.067 E0.0188
G1 X-34.065 Y15.322 E0.0350
G1 X-34.631 Y15.322 E0.0188
G1 X-33.886 Y16.067 E0.0350
G1 X-34.452 Y16.067 E0.0188
G1 X-35.197 Y15.322 E0.0350
G1 X-35.762 Y15.322 E0.0188
G1 X-35.017 Y16.067 E0.0350
G1 X-35.583 Y16.067 E0.0188
G1 X-36.328 Y15.322 E0.0350
G1 X-36.894 Y15.322 E0.0188
G1 X-36.149 Y16.067 E0.0350
G1 X-36.714 Y16.067 E0.0188
G1 X-37.459 Y15.322 E0.0350
G1 X-38.025 Y15.322 E0.0188
G1 X-37.280 Y16.067 E0.0350
G1 X-37.846 Y16.067 E0.0188
G1 X-38.591 Y15.322 E0.0350
G1 X-39.156 Y15.322 E0.0188
G1 X-38.411 Y16.067 E0.0350
G1 X-38.977 Y16.067 E0.0188
G1 X-39.722 Y15.322 E0.0350
G1 X-40.288 Y15.322 E0.0188
G1 X-39.543 Y16.067 E0.0350
G1 X-40.108 Y16.067 E0.0188
G1 X-40.853 Y15.322 E0.0350
G1 X-41.419 Y15.322 E0.0188
G1 X-40.674 Y16.067 E0.0350
G1 X-41.240 Y16.067 E0.0188
G1 X-41.985 Y15.322 E0.0350
G1 X-42.551 Y15.322 E0.0188
G1 X-41.805 Y16.067 E0.0350
G1 X-42.371 Y16.067 E0.0188
G1 X-43.116 Y15.322 E0.0350
G1 X-43.682 Y15.322 E0.0188
G1 X-42.937 Y16.067 E0.0350
G1 X-43.503 Y16.067 E0.0188
G1 X-44.248 Y15.322 E0.0350
G1 X-44.813 Y15.322 E0.0188
G1 X-44.068 Y16.067 E0.0350
G1 X-44.634 Y16.067 E0.0188
G1 X-45.379 Y15.322 E0.0350
G1 X-45.945 Y15.322 E0.0188
G1 X-45.200 Y16.067 E0.0350
G1 X-45.765 Y16.067 E0.0188
G1 X-46.510 Y15.322 E0.0350
G1 X-47.076 Y15.322 E0.0188
G1 X-46.331 Y16.067 E0.0350
G1 X-46.897 Y16.067 E0.0188
G1 X-47.642 Y15.322 E0.0350
G1 X-48.207 Y15.322 E0.0188
G1 X-47.462 Y16.067 E0.0350
G1 X-48.028 Y16.067 E0.0188
G1 X-48.773 Y15.322 E0.0350
G1 X-49.339 Y15.322 E0.0188
G1 X-48.594 Y16.067 E0.0350
G1 X-49.159 Y16.067 E0.0188
G1 X-49.904 Y15.322 E0.0350
G1 X-50.470 Y15.322 E0.0188
G1 X-49.725 Y16.067 E0.0350
G1 X-50.291 Y16.067 E0.0188
G1 X-51.036 Y15.322 E0.0350
G1 X-51.602 Y15.322 E0.0188
G1 X-50.856 Y16.067 E0.0350
G1 X-51.422 Y16.067 E0.0188
G1 X-52.167 Y15.322 E0.0350
G1 X-52.733 Y15.322 E0.0188
G1 X-51.988 Y16.067 E0.0350
G1 X-52.554 Y16.067 E0.0188
G1 X-53.299 Y15.322 E0.0350
G1 X-53.864 Y15.322 E0.0188
G1 X-53.119 Y16.067 E0.0350
G1 X-53.685 Y16.067 E0.0188
G1 X-54.430 Y15.322 E0.0350
G1 X-54.996 Y15.322 E0.0188
G1 X-54.251 Y16.067 E0.0350
G1 X-54.816 Y16.067 E0.0188
G1 X-55.561 Y15.322 E0.0350
G1 X-56.127 Y15.322 E0.0188
G1 X-55.382 Y16.067 E0.0350
G1 X-55.948 Y16.067 E0.0188
G1 X-56.693 Y15.322 E0.0350
G1 X-57.258 Y15.322 E0.0188
G1 X-56.513 Y16.067 E0.0350
G1 X-57.079 Y16.067 E0.0188
G1 X-57.824 Y15.322 E0.0350
G1 X-58.390 Y15.322 E0.0188
G1 X-57.645 Y16.067 E0.0350
G1 X-58.210 Y16.067 E0.0188
G1 X-58.955 Y15.322 E0.0350
G1 X-59.521 Y15.322 E0.0188
G1 X-58.776 Y16.067 E0.0350
G1 X-59.342 Y16.067 E0.0188
G1 X-60.087 Y15.322 E0.0350
G1 X-60.652 Y15.322 E0.0188
G1 X-59.907 Y16.067 E0.0350
G1 X-60.473 Y16.067 E0.0188
G1 X-61.218 Y15.322 E0.0350
G1 X-61.784 Y15.322 E0.0188
G1 X-61.039 Y16.067 E0.0350
G1 X-61.604 Y16.067 E0.0188
G1 X-62.350 Y15.322 E0.0350
G1 X-62.915 Y15.322 E0.0188
G1 X-62.170 Y16.067 E0.0350
G1 X-62.736 Y16.067 E0.0188
G1 X-63.481 Y15.322 E0.0350
G1 X-64.047 Y15.322 E0.0188
G1 X-63.302 Y16.067 E0.0350
G1 X-63.867 Y16.067 E0.0188
G1 X-64.612 Y15.322 E0.0350
G1 X-65.178 Y15.322 E0.0188
G1 X-64.433 Y16.067 E0.0350
G1 X-64.999 Y16.067 E0.0188
G1 X-65.744 Y15.322 E0.0350
G1 X-66.309 Y15.322 E0.0188
G1 X-65.564 Y16.067 E0.0350
G1 X-66.130 Y16.067 E0.0188
G1 X-66.875 Y15.322 E0.0350
G1 X-67.441 Y15.322 E0.0188
G1 X-66.696 Y16.067 E0.0350
G1 X-67.261 Y16.067 E0.0188
G1 X-68.006 Y15.322 E0.0350
G1 X-68.572 Y15.322 E0.0188
G1 X-67.827 Y16.067 E0.0350
G1 X-68.393 Y16.067 E0.0188
G1 X-69.081 Y15.379 E0.0324
G1 X-69.081 Y15.945 E0.0188
G1 X-68.958 Y16.067 E0.0057
G1 E-1.9000 F1200
G1 Z0.700 F1200
G1 X-57.587 Y-28.564 F9000
G1 Z0.200 F1200
G1 E1.9000 F1200
G1 X-57.370 Y-28.348 E0.0102 F2400
G1 X-56.804 Y-28.348 E0.0188
G1 X-57.550 Y-29.093 E0.0351
G1 X-56.984 Y-29.093 E0.0188
G1 X-56.239 Y-28.348 E0.0351
G1 X-55.673 Y-28.348 E0.0188
G1 X-56.418 Y-29.093 E0.0351
G1 X-55.853 Y-29.093 E0.0188
G1 X-55.107 Y-28.348 E0.0351
G1 X-54.542 Y-28.348 E0.0188
G1 X-55.287 Y-29.093 E0.0351
G1 X-54.721 Y-29.093 E0.0188
G1 X-53.976 Y-28.348 E0.0351
G1 X-53.410 Y-28.348 E0.0188
G1 X-54.156 Y-29.093 E0.0351
G1 X-53.590 Y-29.093 E0.0188
G1 X-52.845 Y-28.348 E0.0351
G1 X-52.279 Y-28.348 E0.0188
G1 X-53.024 Y-29.093 E0.0351
G1 X-52.458 Y-29.093 E0.0188
G1 X-51.713 Y-28.348 E0.0351
G1 X-51.147 Y-28.348 E0.0188
G1 X-51.893 Y-29.093 E0.0351
G1 X-51.327 Y-29.093 E0.0188
G1 X-50.582 Y-28.348 E0.0351
G1 X-50.016 Y-28.348 E0.0188
G1 X-50.761 Y-29.093 E0.0351
G1 X-50.196 Y-29.093 E0.0188
G1 X-49.450 Y-28.348 E0.0351
G1 X-48.885 Y-28.348 E0.0188
G1 X-49.630 Y-29.093 E0.0351
G1 X-49.064 Y-29.093 E0.0188
G1 X-48.319 Y-28.348 E0.0351
G1 X-47.753 Y-28.348 E0.0188
G1 X-48.499 Y-29.093 E0.0351
G1 X-47.933 Y-29.093 E0.0188
G1 X-47.188 Y-28.348 E0.0351
G1 X-46.622 Y-28.348 E0.0188
G1 X-47.367 Y-29.093 E0.0351
G1 X-46.802 Y-29.093 E0.0188
G1 X-46.056 Y-28.348 E0.0351
G1 X-45.491 Y-28.348 E0.0188
G1 X-46.236 Y-29.093 E0.0351
G1 X-45.670 Y-29.093 E0.0188
G1 X-44.925 Y-28.348 E0.0351
G1 X-44.359 Y-28.348 E0.0188
G1 X-45.105 Y-29.093 E0.0351
G1 X-44.539 Y-29.093 E0.0188
G1 X-43.794 Y-28.348 E0.0351
G1 X-43.228 Y-28.348 E0.0188
G1 X-43.973 Y-29.093 E0.0351
G1 X-43.407 Y-29.093 E0.0188
G1 X-42.662 Y-28.348 E0.0351
G1 X-42.096 Y-28.348 E0.0188
G1 X-42.842 Y-29.093 E0.0351
G1 X-42.276 Y-29.093 E0.0188
G1 X-41.531 Y-28.348 E0.0351
G1 X-40.965 Y-28.348 E0.0188
G1 X-41.710 Y-29.093 E0.0351
G1 X-41.145 Y-29.093 E0.0188
G1 X-40.399 Y-28.348 E0.0351
G1 X-39.834 Y-28.348 E0.0188
G1 X-40.579 Y-29.093 E0.0351
G1 X-40.013 Y-29.093 E0.0188
G1 X-39.268 Y-28.348 E0.0351
G1 X-38.702 Y-28.348 E0.0188
G1 X-39.448 Y-29.093 E0.0351
