; G-Code generated by Simplify3D(R) Version 4.1.2
; May 21, 2020 at 10:09:33 AM
; Settings Summary
;   processName,Process1
;   applyToModels,pipeGoopV1R4
;   profileName,MakerBot Replicator 2 HBP (modified)
;   profileVersion,2020-04-21 14:45:34
;   baseProfile,MakerBot Replicator 2(2)
;   printMaterial,PLA
;   printQuality,Medium
;   printExtruders,
;   extruderName,Primary Extruder
;   extruderToolheadNumber,0
;   extruderDiameter,0.4
;   extruderAutoWidth,0
;   extruderWidth,0.4
;   extrusionMultiplier,1
;   extruderUseRetract,1
;   extruderRetractionDistance,1.9
;   extruderExtraRestartDistance,0
;   extruderRetractionZLift,0.5
;   extruderRetractionSpeed,1200
;   extruderUseCoasting,0
;   extruderCoastingDistance,0.2
;   extruderUseWipe,0
;   extruderWipeDistance,5
;   primaryExtruder,0
;   layerHeight,0.2
;   topSolidLayers,3
;   bottomSolidLayers,3
;   perimeterOutlines,2
;   printPerimetersInsideOut,1
;   startPointOption,3
;   startPointOriginX,140
;   startPointOriginY,0
;   sequentialIslands,0
;   spiralVaseMode,0
;   firstLayerHeightPercentage,100
;   firstLayerWidthPercentage,100
;   firstLayerUnderspeed,0.5
;   useRaft,0
;   raftExtruder,0
;   raftTopLayers,2
;   raftBaseLayers,1
;   raftOffset,1
;   raftSeparationDistance,0.14
;   raftTopInfill,90
;   aboveRaftSpeedMultiplier,0.3
;   useSkirt,0
;   skirtExtruder,0
;   skirtLayers,1
;   skirtOutlines,5
;   skirtOffset,0
;   usePrimePillar,0
;   primePillarExtruder,999
;   primePillarWidth,12
;   primePillarLocation,7
;   primePillarSpeedMultiplier,1
;   useOozeShield,0
;   oozeShieldExtruder,999
;   oozeShieldOffset,2
;   oozeShieldOutlines,1
;   oozeShieldSidewallShape,1
;   oozeShieldSidewallAngle,30
;   oozeShieldSpeedMultiplier,1
;   infillExtruder,0
;   internalInfillPattern,Rectilinear
;   externalInfillPattern,Rectilinear
;   infillPercentage,15
;   outlineOverlapPercentage,20
;   infillExtrusionWidthPercentage,100
;   minInfillLength,5
;   infillLayerInterval,1
;   internalInfillAngles,45,-45
;   overlapInternalInfillAngles,0
;   externalInfillAngles,45,-45
;   generateSupport,1
;   supportExtruder,0
;   supportInfillPercentage,30
;   supportExtraInflation,0.6
;   supportBaseLayers,0
;   denseSupportExtruder,0
;   denseSupportLayers,2
;   denseSupportInfillPercentage,70
;   supportLayerInterval,1
;   supportHorizontalPartOffset,0.3
;   supportUpperSeparationLayers,1
;   supportLowerSeparationLayers,1
;   supportType,0
;   supportGridSpacing,99
;   maxOverhangAngle,45
;   supportAngles,0
;   temperatureName,Primary Extruder,Heated Build Platform
;   temperatureNumber,0,0
;   temperatureSetpointCount,1,1
;   temperatureSetpointLayers,1,1
;   temperatureSetpointTemperatures,230,65
;   temperatureStabilizeAtStartup,1,1
;   temperatureHeatedBed,0,1
;   fanLayers,1,2
;   fanSpeeds,0,100
;   blipFanToFullPower,1
;   adjustSpeedForCooling,1
;   minSpeedLayerTime,15
;   minCoolingSpeedSlowdown,20
;   increaseFanForCooling,1
;   minFanLayerTime,45
;   maxCoolingFanSpeed,100
;   increaseFanForBridging,1
;   bridgingFanSpeed,100
;   use5D,1
;   relativeEdistances,1
;   allowEaxisZeroing,0
;   independentExtruderAxes,1
;   includeM10123,0
;   stickySupport,1
;   applyToolheadOffsets,0
;   gcodeXoffset,0
;   gcodeYoffset,0
;   gcodeZoffset,0
;   overrideMachineDefinition,1
;   machineTypeOverride,0
;   strokeXoverride,280
;   strokeYoverride,150
;   strokeZoverride,150
;   originOffsetXoverride,140
;   originOffsetYoverride,75
;   originOffsetZoverride,0
;   homeXdirOverride,1
;   homeYdirOverride,1
;   homeZdirOverride,-1
;   flipXoverride,1
;   flipYoverride,-1
;   flipZoverride,1
;   toolheadOffsets,0,0|0,0|0,0|0,0|0,0|0,0
;   overrideFirmwareConfiguration,1
;   firmwareTypeOverride,MakerBot/Sailfish Firmware
;   GPXconfigOverride,r2h
;   baudRateOverride,115200
;   overridePrinterModels,1
;   printerModelsOverride,MakerBot_Replicator2.stl
;   startingGcode,; **** Replicator 2 start.gcode ****,M73 P0 ; enable build progress,G162 X Y F3000 ; home XY maximum,G161 Z F1200 ; home Z minimum,G92 Z-5 ; set Z to -5,G1 Z0 ; move Z to 0,G28 ; better homing homie,M132 X Y Z A B ; recall home offsets,G1 X-145 Y-75 Z30 F9000 ; move to wait position off table,G130 X20 Y20 Z20 A20 B20 ; lower stepper Vrefs while heating,M126 S[fan_speed_pwm],M140 S[bed0_temperature] T0,M134 T0 ; stabilize bed temperature,M104 S[extruder0_temperature] T0,M133 T0 ; stabilize extruder temperature,G130 X127 Y127 Z40 A127 B127 ; default stepper Vrefs,G92 A0 ; zero extruder,G1 Z0.4 ; position nozzle,G1 E25 F300 ; purge nozzle,G1 X-140 Y-70 Z0.15 F1200 ; slow wipe,G1 X-135 Y-65 Z0.5 F1200 ; lift,G92 A0 ; zero extruder,M73 P1 ;@body (notify GPX body has started),; **** end of start.gcode ****
;   layerChangeGcode,
;   retractionGcode,
;   toolChangeGcode,
;   endingGcode,; **** Replicator 2 end.gcode ****,M73 P100 ; end build progress,G1 Z155 F1000 ; send Z axis to bottom of machine,M104 S0 T0 ; cool down extruder,M140 S0 T0 ; cool down HBP,M127 ; stop blower fan,G162 X Y F3000 ; home XY maximum,M18 ; disable stepper,M0 ; stop codes,M72 P1 ; play Ta-Da song,; **** end of end.gcode ****
;   exportFileFormat,gcode
;   celebration,0
;   celebrationSong,Random Song
;   postProcessing,
;   defaultSpeed,4800
;   outlineUnderspeed,0.5
;   solidInfillUnderspeed,1
;   supportUnderspeed,1
;   rapidXYspeed,9000
;   rapidZspeed,1200
;   minBridgingArea,50
;   bridgingExtraInflation,0
;   bridgingExtrusionMultiplier,1
;   bridgingSpeedMultiplier,0.8
;   useFixedBridgingAngle,0
;   fixedBridgingAngle,0
;   applyBridgingToPerimeters,0
;   filamentDiameters,1.75|1.75|1.75|1.75|1.75|1.75
;   filamentPricesPerKg,46|46|46|46|46|46
;   filamentDensities,1.25|1.25|1.25|1.25|1.25|1.25
;   useMinPrintHeight,0
;   minPrintHeight,0
;   useMaxPrintHeight,0
;   maxPrintHeight,4.84
;   useDiaphragm,0
;   diaphragmLayerInterval,20
;   robustSlicing,1
;   mergeAllIntoSolid,0
;   onlyRetractWhenCrossingOutline,0
;   retractBetweenLayers,0
;   useRetractionMinTravel,1
;   retractionMinTravel,7
;   retractWhileWiping,1
;   onlyWipeOutlines,1
;   avoidCrossingOutline,0
;   maxMovementDetourFactor,3
;   toolChangeRetractionDistance,12
;   toolChangeExtraRestartDistance,-0.5
;   toolChangeRetractionSpeed,600
;   externalThinWallType,0
;   internalThinWallType,0
;   thinWallAllowedOverlapPercentage,10
;   singleExtrusionMinLength,1
;   singleExtrusionMinPrintingWidthPercentage,50
;   singleExtrusionMaxPrintingWidthPercentage,200
;   singleExtrusionEndpointExtension,0.2
;   horizontalSizeCompensation,0
G90
M83
; **** Replicator 2 start.gcode ****
M73 P0 ; enable build progress
G162 X Y F3000 ; home XY maximum
G161 Z F1200 ; home Z minimum
G92 Z-5 ; set Z to -5
G1 Z0 ; move Z to 0
G28 ; better homing homie
M132 X Y Z A B ; recall home offsets
G1 X-145 Y-75 Z30 F9000 ; move to wait position off table
G130 X20 Y20 Z20 A20 B20 ; lower stepper Vrefs while heating
M126 S40
M140 S65 T0
M134 T0 ; stabilize bed temperature
M104 S230 T0
M133 T0 ; stabilize extruder temperature
G130 X127 Y127 Z40 A127 B127 ; default stepper Vrefs
G92 A0 ; zero extruder
G1 Z0.4 ; position nozzle
G1 E25 F300 ; purge nozzle
G1 X-140 Y-70 Z0.15 F1200 ; slow wipe
G1 X-135 Y-65 Z0.5 F1200 ; lift
G92 A0 ; zero extruder
M73 P1 ;@body (notify GPX body has started)
; **** end of start.gcode ****
; process Process1
; layer 1, Z = 0.200
M135 T0
G1 E-1.9000 F1200
; feature outer perimeter
; tool H0.200 W0.400
G1 Z0.500 F1200
G1 X5.552 Y-18.626 F9000
G1 Z0.200 F1200
G1 E1.9000 F1200
G1 X-5.209 Y-18.626 E0.3579 F1200
G1 X-5.160 Y-18.647 E0.0017
G1 X-4.965 Y-18.698 E0.0067
G1 X-4.484 Y-18.763 E0.0161
G1 X-3.377 Y-18.858 E0.0370
G1 X-2.622 Y-18.997 E0.0255
G1 X-2.444 Y-19.009 E0.0059
G1 X-2.157 Y-18.981 E0.0096
G1 X-1.323 Y-18.834 E0.0282
G1 X-0.787 Y-18.792 E0.0179
G1 X3.774 Y-18.787 E0.1517
G1 X4.596 Y-18.767 E0.0273
G1 X4.896 Y-18.746 E0.0100
G1 X5.278 Y-18.697 E0.0128
G1 X5.502 Y-18.645 E0.0077
G1 X5.552 Y-18.626 E0.0018
; feature support
G1 X8.845 Y-18.667 F9000
G1 X21.344 Y-18.667 E0.4157 F2400
G1 X21.344 Y-20.000 E0.0443
G1 X6.673 Y-20.000 E0.4880
G1 X2.108 Y-20.000 F9000
G1 X2.610 Y-20.000 E0.0167 F2400
G1 X2.610 Y-21.333 E0.0443
G1 X-2.610 Y-21.333 E0.1736
G1 E-1.9000 F1200
G1 Z0.700 F1200
G1 X-19.642 Y-20.000 F9000
G1 Z0.200 F1200
G1 E1.9000 F1200
G1 X-5.850 Y-20.000 E0.4587 F2400
G1 X-5.850 Y-19.974 E0.0009
G1 X-6.914 Y-19.750 E0.0362
G1 X-7.438 Y-19.582 E0.0183
G1 X-7.806 Y-19.382 E0.0139
G1 X-8.055 Y-19.144 E0.0115
G1 X-8.187 Y-18.900 E0.0092
G1 X-8.241 Y-18.667 E0.0080
G1 X-19.642 Y-18.667 E0.3792
G1 X-19.642 Y-18.610 E0.0019
G1 X-22.610 Y-18.610 E0.0987
G1 X-22.610 Y-17.333 E0.0425
G1 X22.610 Y-17.333 E1.5040
G1 X22.610 Y-16.000 E0.0443
G1 X-22.610 Y-16.000 E1.5040
G1 X-22.610 Y-14.667 E0.0443
G1 X22.610 Y-14.667 E1.5040
G1 X22.610 Y-13.333 E0.0443
G1 X-22.610 Y-13.333 E1.5040
G1 X-22.610 Y-12.000 E0.0443
G1 X22.610 Y-12.000 E1.5040
G1 X22.610 Y-10.667 E0.0443
G1 X-22.610 Y-10.667 E1.5040
G1 X-22.610 Y-9.333 E0.0443
G1 X22.610 Y-9.333 E1.5040
G1 X22.610 Y-8.000 E0.0443
G1 X-22.610 Y-8.000 E1.5040
G1 X-22.610 Y-6.667 E0.0443
G1 X22.610 Y-6.667 E1.5040
G1 X22.610 Y-5.333 E0.0443
G1 X-22.610 Y-5.333 E1.5040
G1 X-22.610 Y-4.000 E0.0443
G1 X22.610 Y-4.000 E1.5040
G1 X22.610 Y-2.667 E0.0443
G1 X-22.610 Y-2.667 E1.5040
G1 X-22.610 Y-1.333 E0.0443
G1 X22.610 Y-1.333 E1.5040
G1 X22.610 Y0.000 E0.0443
G1 X-22.610 Y0.000 E1.5040
G1 X-22.610 Y1.333 E0.0443
G1 X22.610 Y1.333 E1.5040
G1 X22.610 Y2.667 E0.0443
G1 X-22.610 Y2.667 E1.5040
G1 X-22.610 Y4.000 E0.0443
G1 X22.610 Y4.000 E1.5040
G1 X22.610 Y5.333 E0.0443
G1 X-22.610 Y5.333 E1.5040
G1 X-22.610 Y6.667 E0.0443
G1 X22.610 Y6.667 E1.5040
G1 X22.610 Y8.000 E0.0443
G1 X-22.610 Y8.000 E1.5040
G1 X-22.610 Y9.333 E0.0443
G1 X22.610 Y9.333 E1.5040
G1 X22.610 Y10.667 E0.0443
G1 X-22.610 Y10.667 E1.5040
G1 X-22.610 Y12.000 E0.0443
G1 X22.610 Y12.000 E1.5040
G1 X22.610 Y13.333 E0.0443
G1 X-22.610 Y13.333 E1.5040
G1 X-22.610 Y14.667 E0.0443
G1 X22.610 Y14.667 E1.5040
G1 X22.610 Y16.000 E0.0443
G1 X-22.610 Y16.000 E1.5040
G1 X-22.610 Y17.333 E0.0443
G1 X22.610 Y17.333 E1.5040
G1 X22.610 Y18.667 E0.0443
G1 X-22.610 Y18.667 E1.5040
G1 X-22.610 Y20.000 E0.0443
G1 X22.610 Y20.000 E1.5040
G1 X22.610 Y21.333 E0.0443
G1 X-22.610 Y21.333 E1.5040
G1 E-1.9000 F1200
; feature dense support
G1 Z0.700 F1200
G1 X-7.429 Y-18.326 F9000
G1 Z0.200 F1200
G1 E1.9000 F1200
G1 X-7.429 Y-19.131 E0.0268 F2400
G1 X-7.280 Y-19.212 E0.0056
G1 X-6.857 Y-19.348 E0.0148
G1 X-6.857 Y-19.113 E0.0078
G1 X-6.761 Y-19.212 E0.0046
G1 X-6.614 Y-19.323 E0.0061
G1 X-6.338 Y-19.456 E0.0102
G1 X-6.286 Y-19.473 E0.0019
G1 X-5.143 Y-19.683 F9000
G1 X-5.143 Y-20.873 E0.0396 F2400
G1 X-5.018 Y-20.873 E0.0041
G1 X-5.018 Y-20.812 E0.0020
G1 X-4.571 Y-20.812 E0.0149
G1 X-4.571 Y-19.759 E0.0350
G1 X-4.402 Y-19.782 E0.0057
G1 X-4.000 Y-19.857 E0.0136
G1 X-4.000 Y-20.812 E0.0318
G1 E-1.9000 F1200
G1 Z0.700 F1200
G1 X5.714 Y-20.493 F9000
G1 Z0.200 F1200
G1 E1.9000 F1200
G1 X5.714 Y-19.646 E0.0282 F2400
G1 X6.857 Y-19.429 F9000
G1 X7.212 Y-19.379 E0.0120 F2400
G1 X7.429 Y-19.330 E0.0074
G1 X7.429 Y-19.011 E0.0106
G1 X7.450 Y-18.987 E0.0011
G1 X7.556 Y-18.711 E0.0098
G1 X7.580 Y-18.326 E0.0128
G1 X8.000 Y-18.326 E0.0140
G1 X8.000 Y-19.147 E0.0273
; layer 2, Z = 0.400
M126 S255
; feature outer perimeter
G1 Z0.400 F1200
G1 X6.832 Y-18.626 F9000
G1 X-6.339 Y-18.626 E0.4381 F2400
G1 X-6.321 Y-18.660 E0.0013
G1 X-6.296 Y-18.687 E0.0012
G1 X-6.248 Y-18.723 E0.0020
G1 X-6.093 Y-18.797 E0.0057
G1 X-5.709 Y-18.901 E0.0132
G1 X-4.291 Y-19.091 E0.0476
G1 X-3.139 Y-19.305 E0.0390
G1 X-2.753 Y-19.339 E0.0129
G1 X-2.368 Y-19.312 E0.0128
G1 X-1.120 Y-19.070 E0.0423
G1 X-0.684 Y-19.029 E0.0146
G1 X1.188 Y-19.046 E0.0623
G1 X2.325 Y-19.024 E0.0378
G1 X4.291 Y-19.019 E0.0654
G1 X5.214 Y-18.990 E0.0307
G1 X6.027 Y-18.914 E0.0272
G1 X6.318 Y-18.860 E0.0098
G1 X6.629 Y-18.766 E0.0108
G1 X6.785 Y-18.679 E0.0060
G1 X6.832 Y-18.626 E0.0023
; feature support
G1 X9.334 Y-18.667 F9000
G1 X21.344 Y-18.667 E0.3994 F4800
G1 X21.344 Y-20.000 E0.0443
G1 X8.012 Y-20.000 E0.4434
G1 X2.435 Y-20.000 F9000
G1 X2.610 Y-20.000 E0.0058 F4800
G1 X2.610 Y-21.333 E0.0443
G1 X-2.610 Y-21.333 E0.1736
G1 E-1.9000 F1200
G1 Z0.900 F1200
G1 X-19.642 Y-20.000 F9000
G1 Z0.400 F1200
G1 E1.9000 F1200
G1 X-7.300 Y-20.000 E0.4105 F4800
G1 X-7.300 Y-19.810 E0.0063
G1 X-7.556 Y-19.740 E0.0088
G1 X-7.839 Y-19.642 E0.0100
G1 X-8.154 Y-19.500 E0.0115
G1 X-8.475 Y-19.269 E0.0132
G1 X-8.600 Y-19.123 E0.0064
G1 X-8.721 Y-18.902 E0.0084
G1 X-8.776 Y-18.673 E0.0078
G1 X-8.777 Y-18.667 E0.0002
G1 X-12.859 Y-18.667 E0.1358
G1 X-12.911 Y-18.829 E0.0057
G1 X-13.054 Y-19.032 E0.0082
G1 X-13.275 Y-19.184 E0.0089
G1 X-13.469 Y-19.264 E0.0070
G1 X-13.763 Y-19.326 E0.0100
G1 X-14.166 Y-19.342 E0.0134
G1 X-14.590 Y-19.272 E0.0143
G1 X-14.867 Y-19.146 E0.0101
G1 X-15.050 Y-18.987 E0.0081
G1 X-15.179 Y-18.771 E0.0084
G1 X-15.192 Y-18.667 E0.0035
G1 X-19.642 Y-18.667 E0.1480
G1 X-19.642 Y-18.610 E0.0019
G1 X-22.610 Y-18.610 E0.0987
G1 X-22.610 Y-17.333 E0.0425
G1 X22.610 Y-17.333 E1.5040
G1 X22.610 Y-16.000 E0.0443
G1 X-22.610 Y-16.000 E1.5040
G1 X-22.610 Y-14.667 E0.0443
G1 X22.610 Y-14.667 E1.5040
G1 X22.610 Y-13.333 E0.0443
G1 X-22.610 Y-13.333 E1.5040
G1 X-22.610 Y-12.000 E0.0443
G1 X22.610 Y-12.000 E1.5040
G1 X22.610 Y-10.667 E0.0443
G1 X-22.610 Y-10.667 E1.5040
G1 X-22.610 Y-9.333 E0.0443
G1 X22.610 Y-9.333 E1.5040
G1 X22.610 Y-8.000 E0.0443
G1 X-22.610 Y-8.000 E1.5040
G1 X-22.610 Y-6.667 E0.0443
G1 X22.610 Y-6.667 E1.5040
G1 X22.610 Y-5.333 E0.0443
G1 X-22.610 Y-5.333 E1.5040
G1 X-22.610 Y-4.000 E0.0443
G1 X22.610 Y-4.000 E1.5040
G1 X22.610 Y-2.667 E0.0443
G1 X-22.610 Y-2.667 E1.5040
G1 X-22.610 Y-1.333 E0.0443
G1 X22.610 Y-1.333 E1.5040
G1 X22.610 Y0.000 E0.0443
G1 X-22.610 Y0.000 E1.5040
G1 X-22.610 Y1.333 E0.0443
G1 X22.610 Y1.333 E1.5040
G1 X22.610 Y2.667 E0.0443
G1 X-22.610 Y2.667 E1.5040
G1 X-22.610 Y4.000 E0.0443
G1 X22.610 Y4.000 E1.5040
G1 X22.610 Y5.333 E0.0443
G1 X-22.610 Y5.333 E1.5040
G1 X-22.610 Y6.667 E0.0443
G1 X22.610 Y6.667 E1.5040
G1 X22.610 Y8.000 E0.0443
G1 X-22.610 Y8.000 E1.5040
G1 X-22.610 Y9.333 E0.0443
G1 X22.610 Y9.333 E1.5040
G1 X22.610 Y10.667 E0.0443
G1 X-22.610 Y10.667 E1.5040
G1 X-22.610 Y12.000 E0.0443
G1 X22.610 Y12.000 E1.5040
G1 X22.610 Y13.333 E0.0443
G1 X-22.610 Y13.333 E1.5040
G1 X-22.610 Y14.667 E0.0443
G1 X22.610 Y14.667 E1.5040
G1 X22.610 Y16.000 E0.0443
G1 X-22.610 Y16.000 E1.5040
G1 X-22.610 Y17.333 E0.0443
G1 X22.610 Y17.333 E1.5040
G1 X22.610 Y18.667 E0.0443
G1 X-22.610 Y18.667 E1.5040
G1 X-22.610 Y20.000 E0.0443
G1 X22.610 Y20.000 E1.5040
G1 X22.610 Y21.333 E0.0443
G1 X-22.610 Y21.333 E1.5040
G1 E-1.9000 F1200
; feature dense support
G1 Z0.900 F1200
G1 X-14.286 Y-18.917 F9000
G1 Z0.400 F1200
G1 E1.9000 F1200
G1 X-14.286 Y-18.326 E0.0196 F4800
G1 X-13.714 Y-18.326 E0.0190
G1 X-13.714 Y-18.907 E0.0193
G1 X-8.000 Y-19.117 F9000
G1 X-8.000 Y-18.326 E0.0263 F4800
G1 X-7.715 Y-18.326 E0.0095
G1 X-7.677 Y-18.799 E0.0158
G1 X-7.505 Y-19.142 E0.0127
G1 X-7.429 Y-19.213 E0.0035
G1 X-7.429 Y-19.360 E0.0049
G1 X-6.857 Y-20.873 F9000
G1 X-6.857 Y-19.556 E0.0438 F4800
G1 X-6.729 Y-19.607 E0.0046
G1 X-6.286 Y-19.713 E0.0152
G1 X-6.286 Y-20.873 E0.0386
G1 X-5.714 Y-20.873 E0.0190
G1 X-5.714 Y-19.808 E0.0354
G1 X-5.143 Y-19.899 E0.0192
G1 X-5.143 Y-20.873 E0.0324
G1 X1.143 Y-19.936 F9000
G1 X1.143 Y-19.926 E0.0003 F4800
G1 X1.005 Y-19.932 E0.0046
G1 X0.571 Y-19.914 E0.0144
G1 X0.571 Y-19.970 E0.0019
G1 X0.374 Y-19.963 E0.0066
G1 X0.000 Y-19.907 E0.0126
G1 X0.000 Y-19.890 E0.0006
G1 E-1.9000 F1200
G1 Z0.900 F1200
G1 X7.429 Y-20.483 F9000
G1 Z0.400 F1200
G1 E1.9000 F1200
G1 X7.429 Y-19.544 E0.0312 F4800
G1 X7.001 Y-19.662 E0.0148
G1 X6.857 Y-19.687 E0.0048
G1 X6.857 Y-20.483 E0.0265
G1 X8.000 Y-19.353 F9000
G1 X8.000 Y-19.206 E0.0049 F4800
G1 X8.079 Y-19.139 E0.0034
G1 X8.255 Y-18.807 E0.0125
G1 X8.297 Y-18.326 E0.0160
G1 X8.571 Y-18.326 E0.0091
G1 X8.571 Y-19.134 E0.0268
G1 E-1.9000 F1200
; layer 3, Z = 0.600
; feature inner perimeter
G1 Z0.900 F1200
G1 X-2.223 Y-19.026 F9000
G1 Z0.600 F1200
