; G-Code generated by Simplify3D(R) Version 4.1.2
; Jun 26, 2020 at 11:23:45 AM
; Settings Summary
;   processName,Process1
;   applyToModels,firehouseFancy,firehouseFront,firehouseRoof,firehouseFancy(2),firehouseFancy(3),firehouseFront(2),firehouseRoof(2),firehouseFancy(2)(2)
;   profileName,MakerBot Replicator 2 HBP (modified)
;   profileVersion,2020-04-21 14:45:34
;   baseProfile,MakerBot Replicator 2(2)
;   printMaterial,PLA
;   printQuality,Medium
;   printExtruders,
;   extruderName,Primary Extruder
;   extruderToolheadNumber,0
;   extruderDiameter,0.4
;   extruderAutoWidth,0
;   extruderWidth,0.4
;   extrusionMultiplier,1
;   extruderUseRetract,1
;   extruderRetractionDistance,1.9
;   extruderExtraRestartDistance,0
;   extruderRetractionZLift,0.5
;   extruderRetractionSpeed,1200
;   extruderUseCoasting,0
;   extruderCoastingDistance,0.2
;   extruderUseWipe,0
;   extruderWipeDistance,5
;   primaryExtruder,0
;   layerHeight,0.2
;   topSolidLayers,4
;   bottomSolidLayers,3
;   perimeterOutlines,2
;   printPerimetersInsideOut,1
;   startPointOption,3
;   startPointOriginX,140
;   startPointOriginY,0
;   sequentialIslands,0
;   spiralVaseMode,0
;   firstLayerHeightPercentage,100
;   firstLayerWidthPercentage,100
;   firstLayerUnderspeed,0.5
;   useRaft,0
;   raftExtruder,0
;   raftTopLayers,2
;   raftBaseLayers,1
;   raftOffset,1
;   raftSeparationDistance,0.14
;   raftTopInfill,90
;   aboveRaftSpeedMultiplier,0.3
;   useSkirt,0
;   skirtExtruder,0
;   skirtLayers,1
;   skirtOutlines,5
;   skirtOffset,0
;   usePrimePillar,0
;   primePillarExtruder,999
;   primePillarWidth,12
;   primePillarLocation,7
;   primePillarSpeedMultiplier,1
;   useOozeShield,0
;   oozeShieldExtruder,999
;   oozeShieldOffset,2
;   oozeShieldOutlines,1
;   oozeShieldSidewallShape,1
;   oozeShieldSidewallAngle,30
;   oozeShieldSpeedMultiplier,1
;   infillExtruder,0
;   internalInfillPattern,Rectilinear
;   externalInfillPattern,Rectilinear
;   infillPercentage,15
;   outlineOverlapPercentage,20
;   infillExtrusionWidthPercentage,100
;   minInfillLength,5
;   infillLayerInterval,1
;   internalInfillAngles,45,-45
;   overlapInternalInfillAngles,0
;   externalInfillAngles,45,-45
;   generateSupport,1
;   supportExtruder,0
;   supportInfillPercentage,30
;   supportExtraInflation,0.6
;   supportBaseLayers,0
;   denseSupportExtruder,0
;   denseSupportLayers,2
;   denseSupportInfillPercentage,70
;   supportLayerInterval,1
;   supportHorizontalPartOffset,0.3
;   supportUpperSeparationLayers,1
;   supportLowerSeparationLayers,1
;   supportType,0
;   supportGridSpacing,99
;   maxOverhangAngle,45
;   supportAngles,0
;   temperatureName,Primary Extruder,Heated Build Platform
;   temperatureNumber,0,0
;   temperatureSetpointCount,1,1
;   temperatureSetpointLayers,1,1
;   temperatureSetpointTemperatures,210,65
;   temperatureStabilizeAtStartup,1,1
;   temperatureHeatedBed,0,1
;   fanLayers,1,2
;   fanSpeeds,0,100
;   blipFanToFullPower,1
;   adjustSpeedForCooling,1
;   minSpeedLayerTime,15
;   minCoolingSpeedSlowdown,20
;   increaseFanForCooling,1
;   minFanLayerTime,45
;   maxCoolingFanSpeed,100
;   increaseFanForBridging,1
;   bridgingFanSpeed,100
;   use5D,1
;   relativeEdistances,1
;   allowEaxisZeroing,0
;   independentExtruderAxes,1
;   includeM10123,0
;   stickySupport,1
;   applyToolheadOffsets,0
;   gcodeXoffset,0
;   gcodeYoffset,0
;   gcodeZoffset,0
;   overrideMachineDefinition,1
;   machineTypeOverride,0
;   strokeXoverride,280
;   strokeYoverride,150
;   strokeZoverride,150
;   originOffsetXoverride,140
;   originOffsetYoverride,75
;   originOffsetZoverride,0
;   homeXdirOverride,1
;   homeYdirOverride,1
;   homeZdirOverride,-1
;   flipXoverride,1
;   flipYoverride,-1
;   flipZoverride,1
;   toolheadOffsets,0,0|0,0|0,0|0,0|0,0|0,0
;   overrideFirmwareConfiguration,1
;   firmwareTypeOverride,MakerBot/Sailfish Firmware
;   GPXconfigOverride,r2h
;   baudRateOverride,115200
;   overridePrinterModels,1
;   printerModelsOverride,MakerBot_Replicator2.stl
;   startingGcode,; **** Replicator 2 start.gcode ****,M73 P0 ; enable build progress,G162 X Y F3000 ; home XY maximum,G161 Z F1200 ; home Z minimum,G92 Z-5 ; set Z to -5,G1 Z0 ; move Z to 0,G28 ; better homing homie,M132 X Y Z A B ; recall home offsets,G1 X-145 Y-75 Z30 F9000 ; move to wait position off table,G130 X20 Y20 Z20 A20 B20 ; lower stepper Vrefs while heating,M126 S[fan_speed_pwm],M140 S[bed0_temperature] T0,M134 T0 ; stabilize bed temperature,M104 S[extruder0_temperature] T0,M133 T0 ; stabilize extruder temperature,G130 X127 Y127 Z40 A127 B127 ; default stepper Vrefs,G92 A0 ; zero extruder,G1 Z0.4 ; position nozzle,G1 E25 F300 ; purge nozzle,G1 X-140 Y-70 Z0.15 F1200 ; slow wipe,G1 X-135 Y-65 Z0.5 F1200 ; lift,G92 A0 ; zero extruder,M73 P1 ;@body (notify GPX body has started),; **** end of start.gcode ****
;   layerChangeGcode,
;   retractionGcode,
;   toolChangeGcode,
;   endingGcode,; **** Replicator 2 end.gcode ****,M73 P100 ; end build progress,G1 Z155 F1000 ; send Z axis to bottom of machine,M104 S0 T0 ; cool down extruder,M140 S0 T0 ; cool down HBP,M127 ; stop blower fan,G162 X Y F3000 ; home XY maximum,M18 ; disable stepper,M0 ; stop codes,M72 P1 ; play Ta-Da song,; **** end of end.gcode ****
;   exportFileFormat,gcode
;   celebration,0
;   celebrationSong,Random Song
;   postProcessing,
;   defaultSpeed,4800
;   outlineUnderspeed,0.5
;   solidInfillUnderspeed,1
;   supportUnderspeed,1
;   rapidXYspeed,9000
;   rapidZspeed,1200
;   minBridgingArea,50
;   bridgingExtraInflation,0
;   bridgingExtrusionMultiplier,1
;   bridgingSpeedMultiplier,0.8
;   useFixedBridgingAngle,0
;   fixedBridgingAngle,0
;   applyBridgingToPerimeters,0
;   filamentDiameters,1.75|1.75|1.75|1.75|1.75|1.75
;   filamentPricesPerKg,46|46|46|46|46|46
;   filamentDensities,1.25|1.25|1.25|1.25|1.25|1.25
;   useMinPrintHeight,0
;   minPrintHeight,0
;   useMaxPrintHeight,0
;   maxPrintHeight,4.84
;   useDiaphragm,0
;   diaphragmLayerInterval,20
;   robustSlicing,1
;   mergeAllIntoSolid,0
;   onlyRetractWhenCrossingOutline,0
;   retractBetweenLayers,0
;   useRetractionMinTravel,1
;   retractionMinTravel,7
;   retractWhileWiping,1
;   onlyWipeOutlines,1
;   avoidCrossingOutline,0
;   maxMovementDetourFactor,3
;   toolChangeRetractionDistance,12
;   toolChangeExtraRestartDistance,-0.5
;   toolChangeRetractionSpeed,600
;   externalThinWallType,0
;   internalThinWallType,0
;   thinWallAllowedOverlapPercentage,10
;   singleExtrusionMinLength,1
;   singleExtrusionMinPrintingWidthPercentage,50
;   singleExtrusionMaxPrintingWidthPercentage,200
;   singleExtrusionEndpointExtension,0.2
;   horizontalSizeCompensation,0
G90
M83
; **** Replicator 2 start.gcode ****
M73 P0 ; enable build progress
G162 X Y F3000 ; home XY maximum
G161 Z F1200 ; home Z minimum
G92 Z-5 ; set Z to -5
G1 Z0 ; move Z to 0
G28 ; better homing homie
M132 X Y Z A B ; recall home offsets
G1 X-145 Y-75 Z30 F9000 ; move to wait position off table
G130 X20 Y20 Z20 A20 B20 ; lower stepper Vrefs while heating
M127
M140 S65 T0
M134 T0 ; stabilize bed temperature
M104 S210 T0
M133 T0 ; stabilize extruder temperature
G130 X127 Y127 Z40 A127 B127 ; default stepper Vrefs
G92 A0 ; zero extruder
G1 Z0.4 ; position nozzle
G1 E25 F300 ; purge nozzle
G1 X-140 Y-70 Z0.15 F1200 ; slow wipe
G1 X-135 Y-65 Z0.5 F1200 ; lift
G92 A0 ; zero extruder
M73 P1 ;@body (notify GPX body has started)
; **** end of start.gcode ****
; process Process1
; layer 1, Z = 0.200
M135 T0
G1 E-1.9000 F1200
; feature inner perimeter
; tool H0.200 W0.400
G1 Z0.500 F1200
G1 X51.221 Y-34.744 F9000
G1 Z0.200 F1200
G1 E1.9000 F1200
G1 X51.221 Y69.834 E3.4783 F1800
G1 X45.028 Y69.834 E0.2060
G1 X2.084 Y61.452 E1.4553
G1 X2.084 Y-34.744 E3.1995
G1 X51.221 Y-34.744 E1.6343
; feature outer perimeter
G1 X51.621 Y-35.144 F9000
G1 X51.621 Y70.234 E3.5049 F1200
G1 X44.990 Y70.234 E0.2206
G1 X1.684 Y61.781 E1.4675
G1 X1.684 Y-35.144 E3.2238
G1 X51.621 Y-35.144 E1.6609
G1 E-1.9000 F1200
; feature inner perimeter
G1 Z0.700 F1200
G1 X29.794 Y7.666 F9000
G1 Z0.200 F1200
G1 E1.9000 F1200
G1 X27.050 Y6.199 E0.1035 F1800
G1 X24.072 Y5.296 E0.1035
G1 X20.976 Y4.991 E0.1035
G1 X17.879 Y5.296 E0.1035
G1 X14.902 Y6.199 E0.1035
G1 X12.157 Y7.666 E0.1035
G1 X9.752 Y9.640 E0.1035
G1 X7.778 Y12.046 E0.1035
G1 X6.311 Y14.790 E0.1035
G1 X5.408 Y17.767 E0.1035
G1 X5.103 Y20.864 E0.1035
G1 X5.408 Y23.961 E0.1035
G1 X6.311 Y26.938 E0.1035
G1 X7.778 Y29.682 E0.1035
G1 X9.752 Y32.088 E0.1035
G1 X12.157 Y34.062 E0.1035
G1 X14.901 Y35.528 E0.1035
G1 X17.879 Y36.432 E0.1035
G1 X20.976 Y36.737 E0.1035
G1 X24.072 Y36.432 E0.1035
G1 X27.050 Y35.529 E0.1035
G1 X29.794 Y34.062 E0.1035
G1 X32.200 Y32.088 E0.1035
G1 X34.174 Y29.683 E0.1035
G1 X35.641 Y26.938 E0.1035
G1 X36.544 Y23.961 E0.1035
G1 X36.849 Y20.864 E0.1035
G1 X36.544 Y17.767 E0.1035
G1 X35.641 Y14.790 E0.1035
G1 X34.174 Y12.045 E0.1035
G1 X32.200 Y9.640 E0.1035
G1 X29.794 Y7.666 E0.1035
; feature outer perimeter
G1 X29.571 Y8.000 F9000
G1 X26.896 Y6.571 E0.1009 F1200
G1 X23.994 Y5.690 E0.1009
G1 X20.976 Y5.393 E0.1009
G1 X17.958 Y5.690 E0.1009
G1 X15.055 Y6.571 E0.1009
G1 X12.381 Y8.001 E0.1009
G1 X10.036 Y9.925 E0.1009
G1 X8.112 Y12.269 E0.1009
G1 X6.683 Y14.944 E0.1009
G1 X5.802 Y17.846 E0.1009
G1 X5.505 Y20.864 E0.1009
G1 X5.802 Y23.882 E0.1009
G1 X6.683 Y26.784 E0.1009
G1 X8.112 Y29.459 E0.1009
G1 X10.036 Y31.803 E0.1009
G1 X12.381 Y33.727 E0.1009
G1 X15.055 Y35.157 E0.1009
G1 X17.958 Y36.038 E0.1009
G1 X20.976 Y36.335 E0.1009
G1 X23.994 Y36.038 E0.1009
G1 X26.896 Y35.157 E0.1009
G1 X29.571 Y33.728 E0.1009
G1 X31.916 Y31.804 E0.1009
G1 X33.840 Y29.459 E0.1009
G1 X35.269 Y26.785 E0.1009
G1 X36.150 Y23.882 E0.1009
G1 X36.447 Y20.864 E0.1009
G1 X36.150 Y17.846 E0.1009
G1 X35.269 Y14.943 E0.1009
G1 X33.840 Y12.269 E0.1009
G1 X31.916 Y9.924 E0.1009
G1 X29.571 Y8.000 E0.1009
; feature solid layer
G1 X33.763 Y11.040 F9000
G1 X50.901 Y28.178 E0.8061 F2400
G1 X50.901 Y28.744 E0.0188
G1 X34.921 Y12.764 E0.7517
G1 X35.570 Y13.979 E0.0458
G1 X50.901 Y29.310 E0.7211
G1 X50.901 Y29.875 E0.0188
G1 X36.045 Y15.019 E0.6988
G1 X36.291 Y15.831 E0.0282
G1 X50.901 Y30.441 E0.6872
G1 X50.901 Y31.007 E0.0188
G1 X36.537 Y16.643 E0.6756
G1 X36.784 Y17.455 E0.0282
G1 X50.901 Y31.572 E0.6640
G1 X50.901 Y32.138 E0.0188
G1 X36.902 Y18.139 E0.6585
G1 X36.964 Y18.767 E0.0210
G1 X50.901 Y32.704 E0.6555
G1 X50.901 Y33.269 E0.0188
G1 X37.026 Y19.394 E0.6526
G1 X37.088 Y20.022 E0.0210
G1 X50.901 Y33.835 E0.6497
G1 X50.901 Y34.401 E0.0188
G1 X37.149 Y20.649 E0.6468
G1 X37.171 Y20.864 E0.0072
G1 X37.137 Y21.203 E0.0113
G1 X50.901 Y34.966 E0.6474
G1 X50.901 Y35.532 E0.0188
G1 X37.086 Y21.718 E0.6498
G1 X37.036 Y22.233 E0.0172
G1 X50.901 Y36.098 E0.6522
G1 X50.901 Y36.663 E0.0188
G1 X36.985 Y22.748 E0.6546
G1 X36.934 Y23.263 E0.0172
G1 X50.901 Y37.229 E0.6569
G1 X50.901 Y37.795 E0.0188
G1 X36.884 Y23.777 E0.6593
G1 X36.859 Y24.023 E0.0082
G1 X36.791 Y24.250 E0.0079
G1 X50.901 Y38.360 E0.6637
G1 X50.901 Y38.926 E0.0188
G1 X36.659 Y24.684 E0.6699
G1 X36.527 Y25.118 E0.0151
G1 X50.901 Y39.492 E0.6761
G1 X50.901 Y40.058 E0.0188
G1 X36.396 Y25.552 E0.6823
G1 X36.264 Y25.986 E0.0151
G1 X50.901 Y40.623 E0.6885
G1 X50.901 Y41.189 E0.0188
G1 X36.132 Y26.420 E0.6947
G1 X36.001 Y26.854 E0.0151
G1 X50.901 Y41.755 E0.7009
G1 X50.901 Y42.320 E0.0188
G1 X35.835 Y27.254 E0.7087
G1 X35.638 Y27.623 E0.0139
G1 X50.901 Y42.886 E0.7179
G1 X50.901 Y43.452 E0.0188
G1 X35.441 Y27.991 E0.7272
G1 X35.244 Y28.360 E0.0139
G1 X50.901 Y44.017 E0.7365
G1 X50.901 Y44.583 E0.0188
G1 X35.047 Y28.729 E0.7457
G1 X34.850 Y29.097 E0.0139
G1 X50.901 Y45.149 E0.7550
G1 X50.901 Y45.714 E0.0188
G1 X34.652 Y29.466 E0.7643
G1 X34.455 Y29.835 E0.0139
G1 X50.901 Y46.280 E0.7735
G1 X50.901 Y46.846 E0.0188
G1 X34.205 Y30.150 E0.7853
G1 X33.950 Y30.460 E0.0134
G1 X50.901 Y47.411 E0.7973
G1 X50.901 Y47.977 E0.0188
G1 X33.695 Y30.771 E0.8093
G1 X33.440 Y31.082 E0.0134
G1 X50.901 Y48.543 E0.8213
G1 X50.901 Y49.108 E0.0188
G1 X33.185 Y31.392 E0.8333
G1 X32.930 Y31.703 E0.0134
G1 X50.901 Y49.674 E0.8453
G1 X50.901 Y50.240 E0.0188
G1 X32.675 Y32.014 E0.8573
G1 X32.427 Y32.315 E0.0130
G1 X32.418 Y32.323 E0.0004
G1 X50.901 Y50.806 E0.8694
G1 X50.901 Y51.371 E0.0188
G1 X32.107 Y32.578 E0.8840
G1 X31.797 Y32.833 E0.0134
G1 X50.901 Y51.937 E0.8986
G1 X50.901 Y52.503 E0.0188
G1 X31.486 Y33.088 E0.9132
G1 X31.175 Y33.343 E0.0134
G1 X50.901 Y53.068 E0.9278
G1 X50.901 Y53.634 E0.0188
G1 X30.865 Y33.598 E0.9424
G1 X30.554 Y33.853 E0.0134
G1 X50.901 Y54.200 E0.9571
G1 X50.901 Y54.765 E0.0188
G1 X30.243 Y34.108 E0.9717
G1 X29.973 Y34.329 E0.0116
G1 X29.925 Y34.355 E0.0018
G1 X50.901 Y55.331 E0.9866
G1 X50.901 Y55.897 E0.0188
G1 X29.556 Y34.552 E1.0040
G1 X29.188 Y34.749 E0.0139
G1 X50.901 Y56.462 E1.0213
G1 X50.901 Y57.028 E0.0188
G1 X28.819 Y34.946 E1.0387
G1 X28.450 Y35.143 E0.0139
G1 X50.901 Y57.594 E1.0560
G1 X50.901 Y58.159 E0.0188
G1 X28.082 Y35.340 E1.0733
G1 X27.713 Y35.537 E0.0139
G1 X50.901 Y58.725 E1.0907
G1 X50.901 Y59.291 E0.0188
G1 X27.344 Y35.734 E1.1080
G1 X27.173 Y35.826 E0.0065
G1 X26.941 Y35.896 E0.0081
G1 X50.901 Y59.857 E1.1270
G1 X50.901 Y60.422 E0.0188
G1 X26.507 Y36.028 E1.1474
G1 X26.073 Y36.160 E0.0151
G1 X50.901 Y60.988 E1.1678
G1 X50.901 Y61.554 E0.0188
G1 X25.639 Y36.291 E1.1883
G1 X25.205 Y36.423 E0.0151
G1 X50.901 Y62.119 E1.2087
G1 X50.901 Y62.685 E0.0188
G1 X24.770 Y36.555 E1.2291
G1 X24.336 Y36.686 E0.0151
G1 X50.901 Y63.251 E1.2495
G1 X50.901 Y63.816 E0.0188
G1 X23.859 Y36.774 E1.2720
G1 X23.344 Y36.825 E0.0172
G1 X50.901 Y64.382 E1.2962
G1 X50.901 Y64.948 E0.0188
G1 X22.829 Y36.876 E1.3204
G1 X22.314 Y36.927 E0.0172
G1 X50.901 Y65.513 E1.3446
G1 X50.901 Y66.079 E0.0188
G1 X21.799 Y36.977 E1.3689
G1 X21.284 Y37.028 E0.0172
G1 X50.901 Y66.645 E1.3931
G1 X50.901 Y67.210 E0.0188
G1 X20.724 Y37.034 E1.4194
G1 X20.097 Y36.972 E0.0210
G1 X50.901 Y67.776 E1.4489
G1 X50.901 Y68.342 E0.0188
G1 X19.469 Y36.910 E1.4785
G1 X18.842 Y36.848 E0.0210
G1 X50.901 Y68.907 E1.5080
G1 X50.901 Y69.473 E0.0188
G1 X18.214 Y36.786 E1.5375
G1 X17.816 Y36.747 E0.0133
G1 X17.519 Y36.657 E0.0103
G1 X50.376 Y69.514 E1.5455
G1 X49.810 Y69.514 E0.0188
G1 X16.707 Y36.411 E1.5571
G1 X15.895 Y36.164 E0.0282
G1 X49.245 Y69.514 E1.5687
G1 X48.679 Y69.514 E0.0188
G1 X15.083 Y35.918 E1.5803
G1 X14.778 Y35.826 E0.0106
G1 X14.019 Y35.419 E0.0287
G1 X48.113 Y69.514 E1.6037
G1 X47.548 Y69.514 E0.0188
G1 X12.803 Y34.770 E1.6343
G1 E-1.9000 F1200
G1 Z0.700 F1200
G1 X2.464 Y61.200 F9000
G1 Z0.200 F1200
G1 E1.9000 F1200
G1 X2.404 Y61.140 E0.0028 F2400
G1 X2.404 Y60.574 E0.0188
G1 X3.167 Y61.337 E0.0359
G1 X3.870 Y61.474 E0.0238
G1 X2.404 Y60.009 E0.0689
G1 X2.404 Y59.443 E0.0188
G1 X4.573 Y61.612 E0.1020
G1 X5.276 Y61.749 E0.0238
G1 X2.404 Y58.877 E0.1351
G1 X2.404 Y58.312 E0.0188
G1 X5.978 Y61.886 E0.1681
G1 X6.681 Y62.023 E0.0238
G1 X2.404 Y57.746 E0.2012
G1 X2.404 Y57.180 E0.0188
G1 X7.384 Y62.160 E0.2343
G1 X8.087 Y62.298 E0.0238
G1 X2.404 Y56.614 E0.2673
G1 X2.404 Y56.049 E0.0188
G1 X8.790 Y62.435 E0.3004
G1 X9.493 Y62.572 E0.0238
G1 X2.404 Y55.483 E0.3334
G1 X2.404 Y54.917 E0.0188
G1 X10.196 Y62.709 E0.3665
G1 X10.899 Y62.846 E0.0238
G1 X2.404 Y54.352 E0.3996
G1 X2.404 Y53.786 E0.0188
G1 X11.602 Y62.984 E0.4326
G1 X12.304 Y63.121 E0.0238
G1 X2.404 Y53.220 E0.4657
G1 X2.404 Y52.655 E0.0188
G1 X13.007 Y63.258 E0.4987
G1 X13.710 Y63.395 E0.0238
G1 X2.404 Y52.089 E0.5318
G1 X2.404 Y51.523 E0.0188
G1 X14.413 Y63.532 E0.5649
G1 X15.116 Y63.670 E0.0238
G1 X2.404 Y50.958 E0.5979
G1 X2.404 Y50.392 E0.0188
G1 X15.819 Y63.807 E0.6310
G1 X16.522 Y63.944 E0.0238
G1 X2.404 Y49.826 E0.6641
G1 X2.404 Y49.261 E0.0188
G1 X17.225 Y64.081 E0.6971
G1 X17.927 Y64.218 E0.0238
G1 X2.404 Y48.695 E0.7302
G1 X2.404 Y48.129 E0.0188
G1 X18.630 Y64.356 E0.7632
G1 X19.333 Y64.493 E0.0238
G1 X2.404 Y47.564 E0.7963
G1 X2.404 Y46.998 E0.0188
G1 X20.036 Y64.630 E0.8294
G1 X20.739 Y64.767 E0.0238
G1 X2.404 Y46.432 E0.8624
G1 X2.404 Y45.866 E0.0188
G1 X21.442 Y64.904 E0.8955
G1 X22.145 Y65.041 E0.0238
G1 X2.404 Y45.301 E0.9285
G1 X2.404 Y44.735 E0.0188
G1 X22.848 Y65.179 E0.9616
