; G-Code generated by Simplify3D(R) Version 4.1.2
; Jun 8, 2020 at 1:24:02 PM
; Settings Summary
;   processName,Process1
;   applyToModels,Final PKE insert bracket,Final PKE insert bracket(2)
;   profileName,MakerBot Replicator 2 HBP (modified)
;   profileVersion,2020-04-21 14:45:34
;   baseProfile,MakerBot Replicator 2(2)
;   printMaterial,PLA
;   printQuality,Medium
;   printExtruders,
;   extruderName,Primary Extruder
;   extruderToolheadNumber,0
;   extruderDiameter,0.4
;   extruderAutoWidth,0
;   extruderWidth,0.4
;   extrusionMultiplier,1
;   extruderUseRetract,1
;   extruderRetractionDistance,1.9
;   extruderExtraRestartDistance,0
;   extruderRetractionZLift,0.5
;   extruderRetractionSpeed,1200
;   extruderUseCoasting,0
;   extruderCoastingDistance,0.2
;   extruderUseWipe,0
;   extruderWipeDistance,5
;   primaryExtruder,0
;   layerHeight,0.2
;   topSolidLayers,4
;   bottomSolidLayers,3
;   perimeterOutlines,2
;   printPerimetersInsideOut,1
;   startPointOption,3
;   startPointOriginX,140
;   startPointOriginY,0
;   sequentialIslands,0
;   spiralVaseMode,0
;   firstLayerHeightPercentage,100
;   firstLayerWidthPercentage,100
;   firstLayerUnderspeed,0.5
;   useRaft,0
;   raftExtruder,0
;   raftTopLayers,2
;   raftBaseLayers,1
;   raftOffset,1
;   raftSeparationDistance,0.14
;   raftTopInfill,90
;   aboveRaftSpeedMultiplier,0.3
;   useSkirt,1
;   skirtExtruder,0
;   skirtLayers,1
;   skirtOutlines,5
;   skirtOffset,0
;   usePrimePillar,0
;   primePillarExtruder,999
;   primePillarWidth,12
;   primePillarLocation,7
;   primePillarSpeedMultiplier,1
;   useOozeShield,0
;   oozeShieldExtruder,999
;   oozeShieldOffset,2
;   oozeShieldOutlines,1
;   oozeShieldSidewallShape,1
;   oozeShieldSidewallAngle,30
;   oozeShieldSpeedMultiplier,1
;   infillExtruder,0
;   internalInfillPattern,Rectilinear
;   externalInfillPattern,Rectilinear
;   infillPercentage,15
;   outlineOverlapPercentage,20
;   infillExtrusionWidthPercentage,100
;   minInfillLength,5
;   infillLayerInterval,1
;   internalInfillAngles,45,-45
;   overlapInternalInfillAngles,0
;   externalInfillAngles,45,-45
;   generateSupport,1
;   supportExtruder,0
;   supportInfillPercentage,30
;   supportExtraInflation,0.6
;   supportBaseLayers,0
;   denseSupportExtruder,0
;   denseSupportLayers,2
;   denseSupportInfillPercentage,70
;   supportLayerInterval,1
;   supportHorizontalPartOffset,0.3
;   supportUpperSeparationLayers,1
;   supportLowerSeparationLayers,1
;   supportType,0
;   supportGridSpacing,99
;   maxOverhangAngle,45
;   supportAngles,0
;   temperatureName,Primary Extruder,Heated Build Platform
;   temperatureNumber,0,0
;   temperatureSetpointCount,1,1
;   temperatureSetpointLayers,1,1
;   temperatureSetpointTemperatures,230,65
;   temperatureStabilizeAtStartup,1,1
;   temperatureHeatedBed,0,1
;   fanLayers,1,2
;   fanSpeeds,0,100
;   blipFanToFullPower,1
;   adjustSpeedForCooling,1
;   minSpeedLayerTime,15
;   minCoolingSpeedSlowdown,20
;   increaseFanForCooling,1
;   minFanLayerTime,45
;   maxCoolingFanSpeed,100
;   increaseFanForBridging,1
;   bridgingFanSpeed,100
;   use5D,1
;   relativeEdistances,1
;   allowEaxisZeroing,0
;   independentExtruderAxes,1
;   includeM10123,0
;   stickySupport,1
;   applyToolheadOffsets,0
;   gcodeXoffset,0
;   gcodeYoffset,0
;   gcodeZoffset,0
;   overrideMachineDefinition,1
;   machineTypeOverride,0
;   strokeXoverride,280
;   strokeYoverride,150
;   strokeZoverride,150
;   originOffsetXoverride,140
;   originOffsetYoverride,75
;   originOffsetZoverride,0
;   homeXdirOverride,1
;   homeYdirOverride,1
;   homeZdirOverride,-1
;   flipXoverride,1
;   flipYoverride,-1
;   flipZoverride,1
;   toolheadOffsets,0,0|0,0|0,0|0,0|0,0|0,0
;   overrideFirmwareConfiguration,1
;   firmwareTypeOverride,MakerBot/Sailfish Firmware
;   GPXconfigOverride,r2h
;   baudRateOverride,115200
;   overridePrinterModels,1
;   printerModelsOverride,MakerBot_Replicator2.stl
;   startingGcode,; **** Replicator 2 start.gcode ****,M73 P0 ; enable build progress,G162 X Y F3000 ; home XY maximum,G161 Z F1200 ; home Z minimum,G92 Z-5 ; set Z to -5,G1 Z0 ; move Z to 0,G28 ; better homing homie,M132 X Y Z A B ; recall home offsets,G1 X-145 Y-75 Z30 F9000 ; move to wait position off table,G130 X20 Y20 Z20 A20 B20 ; lower stepper Vrefs while heating,M126 S[fan_speed_pwm],M140 S[bed0_temperature] T0,M134 T0 ; stabilize bed temperature,M104 S[extruder0_temperature] T0,M133 T0 ; stabilize extruder temperature,G130 X127 Y127 Z40 A127 B127 ; default stepper Vrefs,G92 A0 ; zero extruder,G1 Z0.4 ; position nozzle,G1 E25 F300 ; purge nozzle,G1 X-140 Y-70 Z0.15 F1200 ; slow wipe,G1 X-135 Y-65 Z0.5 F1200 ; lift,G92 A0 ; zero extruder,M73 P1 ;@body (notify GPX body has started),; **** end of start.gcode ****
;   layerChangeGcode,
;   retractionGcode,
;   toolChangeGcode,
;   endingGcode,; **** Replicator 2 end.gcode ****,M73 P100 ; end build progress,G1 Z155 F1000 ; send Z axis to bottom of machine,M104 S0 T0 ; cool down extruder,M140 S0 T0 ; cool down HBP,M127 ; stop blower fan,G162 X Y F3000 ; home XY maximum,M18 ; disable stepper,M0 ; stop codes,M72 P1 ; play Ta-Da song,; **** end of end.gcode ****
;   exportFileFormat,gcode
;   celebration,0
;   celebrationSong,Random Song
;   postProcessing,
;   defaultSpeed,4800
;   outlineUnderspeed,0.5
;   solidInfillUnderspeed,1
;   supportUnderspeed,1
;   rapidXYspeed,9000
;   rapidZspeed,1200
;   minBridgingArea,50
;   bridgingExtraInflation,0
;   bridgingExtrusionMultiplier,1
;   bridgingSpeedMultiplier,0.8
;   useFixedBridgingAngle,0
;   fixedBridgingAngle,0
;   applyBridgingToPerimeters,0
;   filamentDiameters,1.75|1.75|1.75|1.75|1.75|1.75
;   filamentPricesPerKg,46|46|46|46|46|46
;   filamentDensities,1.25|1.25|1.25|1.25|1.25|1.25
;   useMinPrintHeight,0
;   minPrintHeight,0
;   useMaxPrintHeight,0
;   maxPrintHeight,4.84
;   useDiaphragm,0
;   diaphragmLayerInterval,20
;   robustSlicing,1
;   mergeAllIntoSolid,0
;   onlyRetractWhenCrossingOutline,0
;   retractBetweenLayers,0
;   useRetractionMinTravel,1
;   retractionMinTravel,7
;   retractWhileWiping,1
;   onlyWipeOutlines,1
;   avoidCrossingOutline,0
;   maxMovementDetourFactor,3
;   toolChangeRetractionDistance,12
;   toolChangeExtraRestartDistance,-0.5
;   toolChangeRetractionSpeed,600
;   externalThinWallType,0
;   internalThinWallType,0
;   thinWallAllowedOverlapPercentage,10
;   singleExtrusionMinLength,1
;   singleExtrusionMinPrintingWidthPercentage,50
;   singleExtrusionMaxPrintingWidthPercentage,200
;   singleExtrusionEndpointExtension,0.2
;   horizontalSizeCompensation,0
G90
M83
; **** Replicator 2 start.gcode ****
M73 P0 ; enable build progress
G162 X Y F3000 ; home XY maximum
G161 Z F1200 ; home Z minimum
G92 Z-5 ; set Z to -5
G1 Z0 ; move Z to 0
G28 ; better homing homie
M132 X Y Z A B ; recall home offsets
G1 X-145 Y-75 Z30 F9000 ; move to wait position off table
G130 X20 Y20 Z20 A20 B20 ; lower stepper Vrefs while heating
M126 S121
M140 S65 T0
M134 T0 ; stabilize bed temperature
M104 S230 T0
M133 T0 ; stabilize extruder temperature
G130 X127 Y127 Z40 A127 B127 ; default stepper Vrefs
G92 A0 ; zero extruder
G1 Z0.4 ; position nozzle
G1 E25 F300 ; purge nozzle
G1 X-140 Y-70 Z0.15 F1200 ; slow wipe
G1 X-135 Y-65 Z0.5 F1200 ; lift
G92 A0 ; zero extruder
M73 P1 ;@body (notify GPX body has started)
; **** end of start.gcode ****
; process Process1
; layer 1, Z = 0.200
M135 T0
G1 E-1.9000 F1200
; feature skirt
; tool H0.200 W0.400
G1 Z0.500 F1200
G1 X-0.712 Y-0.299 F9000
G1 Z0.200 F1200
G1 E1.9000 F1200
G1 X-0.720 Y0.673 E0.0323 F2400
G1 X-5.565 Y8.824 E0.3154
G1 X-5.565 Y11.077 E0.0749
G1 X-6.620 Y12.132 E0.0496
G1 X-17.521 Y12.132 E0.3626
G1 X-18.506 Y11.345 E0.0419
G1 X-20.516 Y2.489 E0.3020
G1 X-20.539 Y2.287 E0.0068
G1 X-20.529 Y-1.947 E0.1408
G1 X-20.508 Y-2.136 E0.0063
G1 X-18.515 Y-11.334 E0.3130
G1 X-17.526 Y-12.132 E0.0423
G1 X-6.620 Y-12.132 E0.3627
G1 X-5.565 Y-11.077 E0.0496
G1 X-5.565 Y-8.807 E0.0755
G1 X-0.712 Y-0.299 E0.3258
G1 X-1.113 Y-0.195 F9000
G1 X-1.119 Y0.561 E0.0251 F2400
G1 X-5.965 Y8.715 E0.3155
G1 X-5.965 Y10.912 E0.0731
G1 X-6.786 Y11.732 E0.0386
G1 X-17.381 Y11.732 E0.3524
G1 X-18.147 Y11.120 E0.0326
G1 X-20.121 Y2.423 E0.2966
G1 X-20.139 Y2.266 E0.0053
G1 X-20.129 Y-1.925 E0.1394
G1 X-20.113 Y-2.072 E0.0049
G1 X-18.154 Y-11.111 E0.3076
G1 X-17.385 Y-11.732 E0.0329
G1 X-6.786 Y-11.732 E0.3525
G1 X-5.965 Y-10.912 E0.0386
G1 X-5.965 Y-8.701 E0.0735
G1 X-1.113 Y-0.195 E0.3257
G1 X-1.513 Y-0.090 F9000
G1 X-1.518 Y0.450 E0.0180 F2400
G1 X-6.365 Y8.605 E0.3155
G1 X-6.365 Y10.746 E0.0712
G1 X-6.951 Y11.332 E0.0276
G1 X-17.241 Y11.332 E0.3422
G1 X-17.788 Y10.895 E0.0233
G1 X-19.726 Y2.356 E0.2912
G1 X-19.739 Y2.244 E0.0038
G1 X-19.729 Y-1.903 E0.1380
G1 X-19.718 Y-2.008 E0.0035
G1 X-17.793 Y-10.889 E0.3022
G1 X-17.244 Y-11.332 E0.0235
G1 X-6.951 Y-11.332 E0.3423
G1 X-6.365 Y-10.746 E0.0276
G1 X-6.365 Y-8.595 E0.0715
G1 X-1.513 Y-0.090 E0.3257
G1 X-1.914 Y0.014 F9000
G1 X-1.917 Y0.338 E0.0108 F2400
G1 X-6.765 Y8.495 E0.3156
G1 X-6.765 Y10.580 E0.0694
G1 X-7.117 Y10.932 E0.0165
G1 X-17.101 Y10.932 E0.3321
G1 X-17.429 Y10.670 E0.0140
G1 X-19.331 Y2.290 E0.2858
G1 X-19.339 Y2.223 E0.0023
G1 X-19.329 Y-1.881 E0.1365
G1 X-19.322 Y-1.944 E0.0021
G1 X-17.432 Y-10.666 E0.2968
G1 X-17.102 Y-10.932 E0.0141
G1 X-7.117 Y-10.932 E0.3321
G1 X-6.765 Y-10.580 E0.0165
G1 X-6.765 Y-8.489 E0.0696
G1 X-1.914 Y0.014 E0.3256
G1 X-2.315 Y0.119 F9000
G1 X-2.316 Y0.227 E0.0036 F2400
G1 X-7.165 Y8.385 E0.3157
G1 X-7.165 Y10.415 E0.0675
G1 X-7.283 Y10.532 E0.0055
G1 X-16.961 Y10.532 E0.3219
G1 X-17.070 Y10.444 E0.0047
G1 X-18.936 Y2.224 E0.2804
G1 X-18.938 Y2.201 E0.0008
G1 X-18.929 Y-1.859 E0.1351
G1 X-18.927 Y-1.880 E0.0007
G1 X-17.071 Y-10.443 E0.2914
G1 X-16.961 Y-10.532 E0.0047
G1 X-7.283 Y-10.532 E0.3219
G1 X-7.165 Y-10.415 E0.0055
G1 X-7.165 Y-8.383 E0.0676
G1 X-2.315 Y0.119 E0.3255
G1 E-1.9000 F1200
G1 Z0.700 F1200
G1 X20.527 Y-0.299 F9000
G1 Z0.200 F1200
G1 E1.9000 F1200
G1 X20.518 Y0.673 E0.0323 F2400
G1 X15.673 Y8.824 E0.3154
G1 X15.673 Y11.077 E0.0749
G1 X14.619 Y12.132 E0.0496
G1 X3.718 Y12.132 E0.3626
G1 X2.732 Y11.345 E0.0419
G1 X0.722 Y2.490 E0.3020
G1 X0.700 Y2.288 E0.0068
G1 X0.710 Y-1.947 E0.1409
G1 X0.730 Y-2.136 E0.0063
G1 X2.724 Y-11.334 E0.3130
G1 X3.713 Y-12.132 E0.0423
G1 X14.619 Y-12.132 E0.3627
G1 X15.673 Y-11.077 E0.0496
G1 X15.673 Y-8.807 E0.0755
G1 X20.527 Y-0.299 E0.3258
G1 X20.126 Y-0.195 F9000
G1 X20.119 Y0.561 E0.0251 F2400
G1 X15.273 Y8.715 E0.3155
G1 X15.273 Y10.912 E0.0731
G1 X14.453 Y11.732 E0.0386
G1 X3.858 Y11.732 E0.3524
G1 X3.091 Y11.120 E0.0326
G1 X1.117 Y2.423 E0.2966
G1 X1.100 Y2.266 E0.0053
G1 X1.110 Y-1.925 E0.1394
G1 X1.126 Y-2.072 E0.0049
G1 X3.085 Y-11.111 E0.3076
G1 X3.854 Y-11.732 E0.0329
G1 X14.453 Y-11.732 E0.3525
G1 X15.273 Y-10.912 E0.0386
G1 X15.273 Y-8.701 E0.0735
G1 X20.126 Y-0.195 E0.3257
G1 X19.725 Y-0.090 F9000
G1 X19.720 Y0.450 E0.0180 F2400
G1 X14.873 Y8.605 E0.3155
G1 X14.873 Y10.746 E0.0712
G1 X14.287 Y11.332 E0.0276
G1 X3.998 Y11.332 E0.3422
G1 X3.450 Y10.895 E0.0233
G1 X1.513 Y2.357 E0.2912
G1 X1.500 Y2.245 E0.0038
G1 X1.510 Y-1.903 E0.1380
G1 X1.521 Y-2.008 E0.0035
G1 X3.446 Y-10.889 E0.3022
G1 X3.995 Y-11.332 E0.0235
G1 X14.287 Y-11.332 E0.3423
G1 X14.873 Y-10.746 E0.0276
G1 X14.873 Y-8.595 E0.0715
G1 X19.725 Y-0.090 E0.3257
G1 X19.324 Y0.014 F9000
G1 X19.321 Y0.338 E0.0108 F2400
G1 X14.473 Y8.495 E0.3156
G1 X14.473 Y10.580 E0.0694
G1 X14.122 Y10.932 E0.0165
G1 X4.138 Y10.932 E0.3321
G1 X3.809 Y10.670 E0.0140
G1 X1.908 Y2.290 E0.2858
G1 X1.900 Y2.223 E0.0023
G1 X1.910 Y-1.881 E0.1365
G1 X1.916 Y-1.944 E0.0021
G1 X3.807 Y-10.666 E0.2968
G1 X4.136 Y-10.932 E0.0141
G1 X14.122 Y-10.932 E0.3321
G1 X14.473 Y-10.580 E0.0165
G1 X14.473 Y-8.489 E0.0696
G1 X19.324 Y0.014 E0.3256
G1 X18.923 Y0.119 F9000
G1 X18.922 Y0.227 E0.0036 F2400
G1 X14.073 Y8.385 E0.3157
G1 X14.073 Y10.415 E0.0675
G1 X13.956 Y10.532 E0.0055
G1 X4.278 Y10.532 E0.3219
G1 X4.169 Y10.444 E0.0047
G1 X2.303 Y2.224 E0.2804
G1 X2.300 Y2.201 E0.0008
G1 X2.310 Y-1.859 E0.1351
G1 X2.312 Y-1.880 E0.0007
G1 X4.168 Y-10.443 E0.2914
G1 X4.277 Y-10.532 E0.0047
G1 X13.956 Y-10.532 E0.3219
G1 X14.073 Y-10.415 E0.0055
G1 X14.073 Y-8.383 E0.0676
G1 X18.923 Y0.119 E0.3255
G1 E-1.9000 F1200
; feature inner perimeter
G1 Z0.700 F1200
G1 X-3.210 Y0.165 F9000
G1 Z0.200 F1200
G1 E1.9000 F1200
G1 X-7.965 Y8.165 E0.3095 F1800
G1 X-7.965 Y9.732 E0.0521
G1 X-16.411 Y9.732 E0.2809
G1 X-18.138 Y2.124 E0.2595
G1 X-18.129 Y-1.783 E0.1300
G1 X-16.407 Y-9.732 E0.2705
G1 X-7.965 Y-9.732 E0.2808
G1 X-7.965 Y-8.171 E0.0519
G1 X-3.210 Y0.165 E0.3192
; feature outer perimeter
G1 X-2.747 Y0.169 F9000
G1 X-7.565 Y8.275 E0.3136 F1200
G1 X-7.565 Y10.132 E0.0618
G1 X-16.731 Y10.132 E0.3048
G1 X-18.538 Y2.168 E0.2716
G1 X-18.529 Y-1.827 E0.1329
G1 X-16.729 Y-10.132 E0.2826
G1 X-7.565 Y-10.132 E0.3048
G1 X-7.565 Y-8.277 E0.0617
G1 X-2.747 Y0.169 E0.3234
; feature inner perimeter
G1 X-4.184 Y0.176 F9000
G1 X-8.384 Y-6.575 E0.2644 F1800
G1 X-8.384 Y-9.003 E0.0808
G1 X-16.020 Y-9.003 E0.2540
G1 X-16.020 Y9.144 E0.6036
G1 X-8.384 Y9.144 E0.2540
G1 X-8.384 Y6.720 E0.0806
G1 X-4.184 Y0.176 E0.2586
; feature outer perimeter
G1 X-4.657 Y0.173 F9000
G1 X-8.784 Y-6.461 E0.2598 F1200
G1 X-8.784 Y-8.603 E0.0713
G1 X-15.620 Y-8.603 E0.2274
G1 X-15.620 Y8.744 E0.5770
G1 X-8.784 Y8.744 E0.2274
G1 X-8.784 Y6.602 E0.0712
G1 X-4.657 Y0.173 E0.2541
G1 E-1.9000 F1200
; feature solid layer
G1 Z0.700 F1200
G1 X-7.879 Y7.394 F9000
G1 Z0.200 F1200
G1 E1.9000 F1200
G1 X-8.064 Y7.209 E0.0087 F2400
G1 X-8.064 Y6.814 E0.0132
G1 X-7.998 Y6.710 E0.0041
G1 X-7.669 Y7.039 E0.0155
G1 X-7.458 Y6.684 E0.0137
G1 X-7.777 Y6.365 E0.0150
G1 X-7.556 Y6.021 E0.0136
G1 X-7.247 Y6.330 E0.0145
G1 X-7.036 Y5.975 E0.0137
G1 X-7.334 Y5.676 E0.0140
G1 X-7.113 Y5.332 E0.0136
G1 X-6.825 Y5.620 E0.0136
G1 X-6.614 Y5.265 E0.0137
G1 X-6.892 Y4.987 E0.0131
G1 X-6.671 Y4.643 E0.0136
G1 X-6.403 Y4.910 E0.0126
G1 X-6.192 Y4.556 E0.0137
G1 X-6.450 Y4.298 E0.0121
G1 X-6.229 Y3.954 E0.0136
G1 X-5.981 Y4.201 E0.0116
G1 X-5.771 Y3.846 E0.0137
G1 X-6.008 Y3.609 E0.0111
G1 X-5.786 Y3.265 E0.0136
G1 X-5.560 Y3.491 E0.0107
G1 X-5.349 Y3.136 E0.0137
G1 X-5.565 Y2.920 E0.0102
G1 X-5.344 Y2.575 E0.0136
G1 X-5.138 Y2.782 E0.0097
G1 X-4.927 Y2.427 E0.0137
G1 X-5.123 Y2.231 E0.0092
G1 X-4.902 Y1.886 E0.0136
G1 X-4.716 Y2.072 E0.0087
G1 X-4.505 Y1.717 E0.0137
G1 X-4.681 Y1.542 E0.0083
G1 X-4.459 Y1.197 E0.0136
G1 X-4.294 Y1.362 E0.0078
G1 X-4.083 Y1.008 E0.0137
G1 X-4.238 Y0.853 E0.0073
G1 X-4.017 Y0.508 E0.0136
G1 X-3.873 Y0.653 E0.0068
G1 X-3.662 Y0.298 E0.0137
G1 X-3.846 Y0.114 E0.0087
G1 X-4.777 Y-1.383 E0.0587
G1 X-4.042 Y-0.648 E0.0346
G1 X-4.794 Y-1.965 E0.0504
G1 X-5.709 Y-2.880 E0.0430
G1 X-6.640 Y-4.378 E0.0587
G1 X-5.545 Y-3.282 E0.0515
G1 X-6.296 Y-4.599 E0.0504
G1 X-7.572 Y-5.875 E0.0600
G1 X-8.064 Y-6.666 E0.0310
G1 X-8.064 Y-6.933 E0.0089
G1 X-7.048 Y-5.916 E0.0478
G1 X-7.799 Y-7.233 E0.0504
G1 X-8.064 Y-7.499 E0.0125
G1 X-8.846 Y-9.412 F9000
G1 X-8.758 Y-9.323 E0.0042 F2400
G1 X-9.323 Y-9.323 E0.0188
G1 X-9.412 Y-9.412 E0.0042
G1 X-9.977 Y-9.412 E0.0188
G1 X-9.889 Y-9.323 E0.0042
G1 X-10.455 Y-9.323 E0.0188
G1 X-10.543 Y-9.412 E0.0042
G1 X-11.109 Y-9.412 E0.0188
G1 X-11.020 Y-9.323 E0.0042
G1 X-11.586 Y-9.323 E0.0188
G1 X-11.674 Y-9.412 E0.0042
G1 X-12.240 Y-9.412 E0.0188
G1 X-12.152 Y-9.323 E0.0042
G1 X-12.718 Y-9.323 E0.0188
G1 X-12.806 Y-9.412 E0.0042
G1 X-13.372 Y-9.412 E0.0188
G1 X-13.283 Y-9.323 E0.0042
G1 X-13.849 Y-9.323 E0.0188
G1 X-13.937 Y-9.412 E0.0042
G1 X-14.503 Y-9.412 E0.0188
G1 X-14.415 Y-9.323 E0.0042
G1 X-14.980 Y-9.323 E0.0188
G1 X-15.069 Y-9.412 E0.0042
G1 X-15.634 Y-9.412 E0.0188
G1 X-15.546 Y-9.323 E0.0042
G1 X-16.112 Y-9.323 E0.0188
G1 X-16.158 Y-9.369 E0.0022
G1 X-16.359 Y-8.440 F9000
G1 X-16.340 Y-8.421 E0.0009 F2400
G1 X-16.340 Y-7.855 E0.0188
G1 X-16.460 Y-7.975 E0.0056
G1 X-16.561 Y-7.510 E0.0158
G1 X-16.340 Y-7.289 E0.0104
G1 X-16.340 Y-6.724 E0.0188
G1 X-16.662 Y-7.045 E0.0151
G1 X-16.762 Y-6.580 E0.0158
G1 X-16.340 Y-6.158 E0.0198
G1 X-16.340 Y-5.592 E0.0188
G1 X-16.863 Y-6.115 E0.0246
