; G-Code generated by Simplify3D(R) Version 4.1.2
; May 5, 2020 at 10:23:01 AM
; Settings Summary
;   processName,Process1
;   applyToModels,GateCoverFront,GateCoverRear
;   profileName,MakerBot Replicator 2 HBP (modified)
;   profileVersion,2020-04-21 14:45:34
;   baseProfile,MakerBot Replicator 2(2)
;   printMaterial,PLA
;   printQuality,Medium
;   printExtruders,
;   extruderName,Primary Extruder
;   extruderToolheadNumber,0
;   extruderDiameter,0.4
;   extruderAutoWidth,0
;   extruderWidth,0.4
;   extrusionMultiplier,1
;   extruderUseRetract,1
;   extruderRetractionDistance,1.9
;   extruderExtraRestartDistance,0
;   extruderRetractionZLift,0.5
;   extruderRetractionSpeed,1200
;   extruderUseCoasting,0
;   extruderCoastingDistance,0.2
;   extruderUseWipe,0
;   extruderWipeDistance,5
;   primaryExtruder,0
;   layerHeight,0.2
;   topSolidLayers,3
;   bottomSolidLayers,3
;   perimeterOutlines,2
;   printPerimetersInsideOut,1
;   startPointOption,3
;   startPointOriginX,140
;   startPointOriginY,0
;   sequentialIslands,0
;   spiralVaseMode,0
;   firstLayerHeightPercentage,100
;   firstLayerWidthPercentage,100
;   firstLayerUnderspeed,0.5
;   useRaft,0
;   raftExtruder,0
;   raftTopLayers,2
;   raftBaseLayers,1
;   raftOffset,1
;   raftSeparationDistance,0.14
;   raftTopInfill,90
;   aboveRaftSpeedMultiplier,0.3
;   useSkirt,0
;   skirtExtruder,0
;   skirtLayers,1
;   skirtOutlines,5
;   skirtOffset,0
;   usePrimePillar,0
;   primePillarExtruder,999
;   primePillarWidth,12
;   primePillarLocation,7
;   primePillarSpeedMultiplier,1
;   useOozeShield,0
;   oozeShieldExtruder,999
;   oozeShieldOffset,2
;   oozeShieldOutlines,1
;   oozeShieldSidewallShape,1
;   oozeShieldSidewallAngle,30
;   oozeShieldSpeedMultiplier,1
;   infillExtruder,0
;   internalInfillPattern,Rectilinear
;   externalInfillPattern,Rectilinear
;   infillPercentage,15
;   outlineOverlapPercentage,20
;   infillExtrusionWidthPercentage,100
;   minInfillLength,5
;   infillLayerInterval,1
;   internalInfillAngles,45,-45
;   overlapInternalInfillAngles,0
;   externalInfillAngles,45,-45
;   generateSupport,1
;   supportExtruder,0
;   supportInfillPercentage,30
;   supportExtraInflation,0.6
;   supportBaseLayers,0
;   denseSupportExtruder,0
;   denseSupportLayers,2
;   denseSupportInfillPercentage,70
;   supportLayerInterval,1
;   supportHorizontalPartOffset,0.3
;   supportUpperSeparationLayers,1
;   supportLowerSeparationLayers,1
;   supportType,0
;   supportGridSpacing,99
;   maxOverhangAngle,45
;   supportAngles,0
;   temperatureName,Primary Extruder,Heated Build Platform
;   temperatureNumber,0,0
;   temperatureSetpointCount,1,1
;   temperatureSetpointLayers,1,1
;   temperatureSetpointTemperatures,230,65
;   temperatureStabilizeAtStartup,1,1
;   temperatureHeatedBed,0,1
;   fanLayers,1,2
;   fanSpeeds,0,100
;   blipFanToFullPower,1
;   adjustSpeedForCooling,1
;   minSpeedLayerTime,15
;   minCoolingSpeedSlowdown,20
;   increaseFanForCooling,1
;   minFanLayerTime,45
;   maxCoolingFanSpeed,100
;   increaseFanForBridging,1
;   bridgingFanSpeed,100
;   use5D,1
;   relativeEdistances,1
;   allowEaxisZeroing,0
;   independentExtruderAxes,1
;   includeM10123,0
;   stickySupport,1
;   applyToolheadOffsets,0
;   gcodeXoffset,0
;   gcodeYoffset,0
;   gcodeZoffset,0
;   overrideMachineDefinition,1
;   machineTypeOverride,0
;   strokeXoverride,280
;   strokeYoverride,150
;   strokeZoverride,150
;   originOffsetXoverride,140
;   originOffsetYoverride,75
;   originOffsetZoverride,0
;   homeXdirOverride,1
;   homeYdirOverride,1
;   homeZdirOverride,-1
;   flipXoverride,1
;   flipYoverride,-1
;   flipZoverride,1
;   toolheadOffsets,0,0|0,0|0,0|0,0|0,0|0,0
;   overrideFirmwareConfiguration,1
;   firmwareTypeOverride,MakerBot/Sailfish Firmware
;   GPXconfigOverride,r2h
;   baudRateOverride,115200
;   overridePrinterModels,1
;   printerModelsOverride,MakerBot_Replicator2.stl
;   startingGcode,; **** Replicator 2 start.gcode ****,M73 P0 ; enable build progress,G162 X Y F3000 ; home XY maximum,G161 Z F1200 ; home Z minimum,G92 Z-5 ; set Z to -5,G1 Z0 ; move Z to 0,G28 ; better homing homie,M132 X Y Z A B ; recall home offsets,G1 X-145 Y-75 Z30 F9000 ; move to wait position off table,G130 X20 Y20 Z20 A20 B20 ; lower stepper Vrefs while heating,M126 S[fan_speed_pwm],M140 S[bed0_temperature] T0,M134 T0 ; stabilize bed temperature,M104 S[extruder0_temperature] T0,M133 T0 ; stabilize extruder temperature,G130 X127 Y127 Z40 A127 B127 ; default stepper Vrefs,G92 A0 ; zero extruder,G1 Z0.4 ; position nozzle,G1 E25 F300 ; purge nozzle,G1 X-140 Y-70 Z0.15 F1200 ; slow wipe,G1 X-135 Y-65 Z0.5 F1200 ; lift,G92 A0 ; zero extruder,M73 P1 ;@body (notify GPX body has started),; **** end of start.gcode ****
;   layerChangeGcode,
;   retractionGcode,
;   toolChangeGcode,
;   endingGcode,; **** Replicator 2 end.gcode ****,M73 P100 ; end build progress,G1 Z155 F1000 ; send Z axis to bottom of machine,M104 S0 T0 ; cool down extruder,M140 S0 T0 ; cool down HBP,M127 ; stop blower fan,G162 X Y F3000 ; home XY maximum,M18 ; disable stepper,M0 ; stop codes,M72 P1 ; play Ta-Da song,; **** end of end.gcode ****
;   exportFileFormat,gcode
;   celebration,0
;   celebrationSong,Random Song
;   postProcessing,
;   defaultSpeed,4800
;   outlineUnderspeed,0.5
;   solidInfillUnderspeed,1
;   supportUnderspeed,1
;   rapidXYspeed,9000
;   rapidZspeed,1200
;   minBridgingArea,50
;   bridgingExtraInflation,0
;   bridgingExtrusionMultiplier,1
;   bridgingSpeedMultiplier,0.8
;   useFixedBridgingAngle,0
;   fixedBridgingAngle,0
;   applyBridgingToPerimeters,0
;   filamentDiameters,1.75|1.75|1.75|1.75|1.75|1.75
;   filamentPricesPerKg,46|46|46|46|46|46
;   filamentDensities,1.25|1.25|1.25|1.25|1.25|1.25
;   useMinPrintHeight,0
;   minPrintHeight,0
;   useMaxPrintHeight,0
;   maxPrintHeight,4.84
;   useDiaphragm,0
;   diaphragmLayerInterval,20
;   robustSlicing,1
;   mergeAllIntoSolid,0
;   onlyRetractWhenCrossingOutline,0
;   retractBetweenLayers,0
;   useRetractionMinTravel,1
;   retractionMinTravel,7
;   retractWhileWiping,1
;   onlyWipeOutlines,1
;   avoidCrossingOutline,0
;   maxMovementDetourFactor,3
;   toolChangeRetractionDistance,12
;   toolChangeExtraRestartDistance,-0.5
;   toolChangeRetractionSpeed,600
;   externalThinWallType,0
;   internalThinWallType,0
;   thinWallAllowedOverlapPercentage,10
;   singleExtrusionMinLength,1
;   singleExtrusionMinPrintingWidthPercentage,50
;   singleExtrusionMaxPrintingWidthPercentage,200
;   singleExtrusionEndpointExtension,0.2
;   horizontalSizeCompensation,0
G90
M83
; **** Replicator 2 start.gcode ****
M73 P0 ; enable build progress
G162 X Y F3000 ; home XY maximum
G161 Z F1200 ; home Z minimum
G92 Z-5 ; set Z to -5
G1 Z0 ; move Z to 0
G28 ; better homing homie
M132 X Y Z A B ; recall home offsets
G1 X-145 Y-75 Z30 F9000 ; move to wait position off table
G130 X20 Y20 Z20 A20 B20 ; lower stepper Vrefs while heating
M127
M140 S65 T0
M134 T0 ; stabilize bed temperature
M104 S230 T0
M133 T0 ; stabilize extruder temperature
G130 X127 Y127 Z40 A127 B127 ; default stepper Vrefs
G92 A0 ; zero extruder
G1 Z0.4 ; position nozzle
G1 E25 F300 ; purge nozzle
G1 X-140 Y-70 Z0.15 F1200 ; slow wipe
G1 X-135 Y-65 Z0.5 F1200 ; lift
G92 A0 ; zero extruder
M73 P1 ;@body (notify GPX body has started)
; **** end of start.gcode ****
; process Process1
; layer 1, Z = 0.200
M135 T0
G1 E-1.9000 F1200
; feature inner perimeter
; tool H0.200 W0.400
G1 Z0.500 F1200
G1 X31.731 Y17.850 F9000
G1 Z0.200 F1200
G1 E1.9000 F1200
G1 X3.189 Y17.850 E0.9493 F1800
G1 X8.117 Y-17.850 E1.1987
G1 X26.803 Y-17.850 E0.6215
G1 X31.731 Y17.850 E1.1987
; feature outer perimeter
G1 X32.190 Y18.250 F9000
G1 X2.730 Y18.250 E0.9799 F1200
G1 X7.768 Y-18.250 E1.2255
G1 X27.152 Y-18.250 E0.6447
G1 X32.190 Y18.250 E1.2255
G1 E-1.9000 F1200
; feature solid layer
G1 Z0.700 F1200
G1 X3.604 Y17.181 F9000
G1 Z0.200 F1200
G1 E1.9000 F1200
G1 X3.954 Y17.530 E0.0164 F2400
G1 X4.519 Y17.530 E0.0188
G1 X3.673 Y16.684 E0.0398
G1 X3.741 Y16.186 E0.0167
G1 X5.085 Y17.530 E0.0632
G1 X5.651 Y17.530 E0.0188
G1 X3.810 Y15.689 E0.0866
G1 X3.879 Y15.192 E0.0167
G1 X6.216 Y17.530 E0.1100
G1 X6.782 Y17.530 E0.0188
G1 X3.947 Y14.695 E0.1333
G1 X4.016 Y14.198 E0.0167
G1 X7.348 Y17.530 E0.1567
G1 X7.913 Y17.530 E0.0188
G1 X4.084 Y13.701 E0.1801
G1 X4.153 Y13.204 E0.0167
G1 X8.479 Y17.530 E0.2035
G1 X9.045 Y17.530 E0.0188
G1 X4.222 Y12.707 E0.2269
G1 X4.290 Y12.210 E0.0167
G1 X9.610 Y17.530 E0.2502
G1 X10.176 Y17.530 E0.0188
G1 X4.359 Y11.713 E0.2736
G1 X4.428 Y11.216 E0.0167
G1 X10.742 Y17.530 E0.2970
G1 X11.307 Y17.530 E0.0188
G1 X4.496 Y10.719 E0.3204
G1 X4.565 Y10.222 E0.0167
G1 X11.873 Y17.530 E0.3438
G1 X12.439 Y17.530 E0.0188
G1 X4.633 Y9.725 E0.3671
G1 X4.702 Y9.227 E0.0167
G1 X13.005 Y17.530 E0.3905
G1 X13.570 Y17.530 E0.0188
G1 X4.771 Y8.730 E0.4139
G1 X4.839 Y8.233 E0.0167
G1 X14.136 Y17.530 E0.4373
G1 X14.702 Y17.530 E0.0188
G1 X4.908 Y7.736 E0.4607
G1 X4.976 Y7.239 E0.0167
G1 X15.267 Y17.530 E0.4841
G1 X15.833 Y17.530 E0.0188
G1 X5.045 Y6.742 E0.5074
G1 X5.114 Y6.245 E0.0167
G1 X16.399 Y17.530 E0.5308
G1 X16.964 Y17.530 E0.0188
G1 X5.182 Y5.748 E0.5542
G1 X5.251 Y5.251 E0.0167
G1 X17.530 Y17.530 E0.5776
G1 X18.096 Y17.530 E0.0188
G1 X5.320 Y4.754 E0.6010
G1 X5.388 Y4.257 E0.0167
G1 X18.661 Y17.530 E0.6243
G1 X19.227 Y17.530 E0.0188
G1 X5.457 Y3.760 E0.6477
G1 X5.525 Y3.263 E0.0167
G1 X19.793 Y17.530 E0.6711
G1 X20.358 Y17.530 E0.0188
G1 X5.594 Y2.766 E0.6945
G1 X5.663 Y2.268 E0.0167
G1 X20.924 Y17.530 E0.7179
G1 X21.490 Y17.530 E0.0188
G1 X5.731 Y1.771 E0.7412
G1 X5.800 Y1.274 E0.0167
G1 X22.056 Y17.530 E0.7646
G1 X22.621 Y17.530 E0.0188
G1 X5.868 Y0.777 E0.7880
G1 X5.937 Y0.280 E0.0167
G1 X23.187 Y17.530 E0.8114
G1 X23.753 Y17.530 E0.0188
G1 X6.006 Y-0.217 E0.8348
G1 X6.074 Y-0.714 E0.0167
G1 X24.318 Y17.530 E0.8581
G1 X24.884 Y17.530 E0.0188
G1 X6.143 Y-1.211 E0.8815
G1 X6.212 Y-1.708 E0.0167
G1 X25.450 Y17.530 E0.9049
G1 X26.015 Y17.530 E0.0188
G1 X6.280 Y-2.205 E0.9283
G1 X6.349 Y-2.702 E0.0167
G1 X26.581 Y17.530 E0.9517
G1 X27.147 Y17.530 E0.0188
G1 X6.417 Y-3.199 E0.9750
G1 X6.486 Y-3.696 E0.0167
G1 X27.712 Y17.530 E0.9984
G1 X28.278 Y17.530 E0.0188
G1 X6.555 Y-4.193 E1.0218
G1 X6.623 Y-4.691 E0.0167
G1 X28.844 Y17.530 E1.0452
G1 X29.409 Y17.530 E0.0188
G1 X6.692 Y-5.188 E1.0686
G1 X6.760 Y-5.685 E0.0167
G1 X29.975 Y17.530 E1.0919
G1 X30.541 Y17.530 E0.0188
G1 X6.829 Y-6.182 E1.1153
G1 X6.898 Y-6.679 E0.0167
G1 X31.106 Y17.530 E1.1387
G1 X31.364 Y17.530 E0.0086
G1 X31.314 Y17.172 E0.0120
G1 X6.966 Y-7.176 E1.1453
G1 X7.035 Y-7.673 E0.0167
G1 X31.224 Y16.516 E1.1378
G1 X31.133 Y15.860 E0.0220
G1 X7.103 Y-8.170 E1.1303
G1 X7.172 Y-8.667 E0.0167
G1 X31.043 Y15.203 E1.1228
G1 X30.952 Y14.547 E0.0220
G1 X7.241 Y-9.164 E1.1153
G1 X7.309 Y-9.661 E0.0167
G1 X30.861 Y13.891 E1.1078
G1 X30.771 Y13.235 E0.0220
G1 X7.378 Y-10.158 E1.1003
G1 X7.447 Y-10.655 E0.0167
G1 X30.680 Y12.578 E1.0928
G1 X30.590 Y11.922 E0.0220
G1 X7.515 Y-11.152 E1.0854
G1 X7.584 Y-11.650 E0.0167
G1 X30.499 Y11.266 E1.0779
G1 X30.408 Y10.609 E0.0220
G1 X7.652 Y-12.147 E1.0704
G1 X7.721 Y-12.644 E0.0167
G1 X30.318 Y9.953 E1.0629
G1 X30.227 Y9.297 E0.0220
G1 X7.790 Y-13.141 E1.0554
G1 X7.858 Y-13.638 E0.0167
G1 X30.137 Y8.641 E1.0479
G1 X30.046 Y7.984 E0.0220
G1 X7.927 Y-14.135 E1.0404
G1 X7.995 Y-14.632 E0.0167
G1 X29.956 Y7.328 E1.0329
G1 X29.865 Y6.672 E0.0220
G1 X8.064 Y-15.129 E1.0254
G1 X8.133 Y-15.626 E0.0167
G1 X29.774 Y6.016 E1.0180
G1 X29.684 Y5.359 E0.0220
G1 X8.201 Y-16.123 E1.0105
G1 X8.270 Y-16.620 E0.0167
G1 X29.593 Y4.703 E1.0030
G1 X29.503 Y4.047 E0.0220
G1 X8.339 Y-17.117 E0.9955
G1 X8.396 Y-17.530 E0.0139
G1 X8.491 Y-17.530 E0.0032
G1 X29.412 Y3.390 E0.9841
G1 X29.321 Y2.734 E0.0220
G1 X9.057 Y-17.530 E0.9532
G1 X9.622 Y-17.530 E0.0188
G1 X29.231 Y2.078 E0.9223
G1 X29.140 Y1.422 E0.0220
G1 X10.188 Y-17.530 E0.8914
G1 X10.754 Y-17.530 E0.0188
G1 X29.050 Y0.765 E0.8606
G1 X28.959 Y0.109 E0.0220
G1 X11.320 Y-17.530 E0.8297
G1 X11.885 Y-17.530 E0.0188
G1 X28.868 Y-0.547 E0.7988
G1 X28.778 Y-1.204 E0.0220
G1 X12.451 Y-17.530 E0.7680
G1 X13.017 Y-17.530 E0.0188
G1 X28.687 Y-1.860 E0.7371
G1 X28.597 Y-2.516 E0.0220
G1 X13.582 Y-17.530 E0.7062
G1 X14.148 Y-17.530 E0.0188
G1 X28.506 Y-3.172 E0.6754
G1 X28.415 Y-3.829 E0.0220
G1 X14.714 Y-17.530 E0.6445
G1 X15.279 Y-17.530 E0.0188
G1 X28.325 Y-4.485 E0.6136
G1 X28.234 Y-5.141 E0.0220
G1 X15.845 Y-17.530 E0.5828
G1 X16.411 Y-17.530 E0.0188
G1 X28.144 Y-5.797 E0.5519
G1 X28.053 Y-6.454 E0.0220
G1 X16.976 Y-17.530 E0.5210
G1 X17.542 Y-17.530 E0.0188
G1 X27.963 Y-7.110 E0.4901
G1 X27.872 Y-7.766 E0.0220
G1 X18.108 Y-17.530 E0.4593
G1 X18.673 Y-17.530 E0.0188
G1 X27.781 Y-8.423 E0.4284
G1 X27.691 Y-9.079 E0.0220
G1 X19.239 Y-17.530 E0.3975
G1 X19.805 Y-17.530 E0.0188
G1 X27.600 Y-9.735 E0.3667
G1 X27.510 Y-10.391 E0.0220
G1 X20.370 Y-17.530 E0.3358
G1 X20.936 Y-17.530 E0.0188
G1 X27.419 Y-11.048 E0.3049
G1 X27.328 Y-11.704 E0.0220
G1 X21.502 Y-17.530 E0.2741
G1 X22.068 Y-17.530 E0.0188
G1 X27.238 Y-12.360 E0.2432
G1 X27.147 Y-13.016 E0.0220
G1 X22.633 Y-17.530 E0.2123
G1 X23.199 Y-17.530 E0.0188
G1 X27.057 Y-13.673 E0.1815
G1 X26.966 Y-14.329 E0.0220
G1 X23.765 Y-17.530 E0.1506
G1 X24.330 Y-17.530 E0.0188
G1 X26.875 Y-14.985 E0.1197
G1 X26.785 Y-15.642 E0.0220
G1 X24.896 Y-17.530 E0.0888
G1 X25.462 Y-17.530 E0.0188
G1 X26.694 Y-16.298 E0.0580
G1 X26.604 Y-16.954 E0.0220
G1 X26.027 Y-17.530 E0.0271
G1 E-1.9000 F1200
; feature inner perimeter
G1 Z0.700 F1200
G1 X-3.188 Y17.850 F9000
G1 Z0.200 F1200
G1 E1.9000 F1200
G1 X-31.731 Y17.850 E0.9493 F1800
G1 X-26.803 Y-17.850 E1.1987
G1 X-8.116 Y-17.850 E0.6215
G1 X-3.188 Y17.850 E1.1987
; feature outer perimeter
G1 X-2.729 Y18.250 F9000
G1 X-32.190 Y18.250 E0.9799 F1200
G1 X-27.151 Y-18.250 E1.2255
G1 X-7.768 Y-18.250 E0.6447
G1 X-2.729 Y18.250 E1.2255
G1 E-1.9000 F1200
; feature solid layer
G1 Z0.700 F1200
G1 X-31.118 Y17.530 F9000
G1 Z0.200 F1200
G1 E1.9000 F1200
G1 X-31.334 Y17.315 E0.0101 F2400
G1 X-31.265 Y16.818 E0.0167
G1 X-30.553 Y17.530 E0.0335
G1 X-29.987 Y17.530 E0.0188
G1 X-31.197 Y16.321 E0.0569
G1 X-31.128 Y15.824 E0.0167
G1 X-29.421 Y17.530 E0.0803
G1 X-28.856 Y17.530 E0.0188
G1 X-31.060 Y15.327 E0.1037
G1 X-30.991 Y14.830 E0.0167
G1 X-28.290 Y17.530 E0.1270
G1 X-27.724 Y17.530 E0.0188
G1 X-30.922 Y14.332 E0.1504
G1 X-30.854 Y13.835 E0.0167
G1 X-27.159 Y17.530 E0.1738
G1 X-26.593 Y17.530 E0.0188
G1 X-30.785 Y13.338 E0.1972
G1 X-30.716 Y12.841 E0.0167
G1 X-26.027 Y17.530 E0.2206
G1 X-25.462 Y17.530 E0.0188
G1 X-30.648 Y12.344 E0.2439
G1 X-30.579 Y11.847 E0.0167
G1 X-24.896 Y17.530 E0.2673
G1 X-24.330 Y17.530 E0.0188
G1 X-30.511 Y11.350 E0.2907
G1 X-30.442 Y10.853 E0.0167
G1 X-23.765 Y17.530 E0.3141
G1 X-23.199 Y17.530 E0.0188
G1 X-30.373 Y10.356 E0.3375
G1 X-30.305 Y9.859 E0.0167
G1 X-22.633 Y17.530 E0.3608
G1 X-22.068 Y17.530 E0.0188
G1 X-30.236 Y9.362 E0.3842
G1 X-30.168 Y8.865 E0.0167
G1 X-21.502 Y17.530 E0.4076
G1 X-20.936 Y17.530 E0.0188
G1 X-30.099 Y8.368 E0.4310
G1 X-30.030 Y7.871 E0.0167
G1 X-20.370 Y17.530 E0.4544
G1 X-19.805 Y17.530 E0.0188
G1 X-29.962 Y7.373 E0.4778
G1 X-29.893 Y6.876 E0.0167
G1 X-19.239 Y17.530 E0.5011
G1 X-18.673 Y17.530 E0.0188
G1 X-29.824 Y6.379 E0.5245
G1 X-29.756 Y5.882 E0.0167
G1 X-18.108 Y17.530 E0.5479
G1 X-17.542 Y17.530 E0.0188
G1 X-29.687 Y5.385 E0.5713
G1 X-29.619 Y4.888 E0.0167
G1 X-16.976 Y17.530 E0.5947
G1 X-16.411 Y17.530 E0.0188
G1 X-29.550 Y4.391 E0.6180
G1 X-29.481 Y3.894 E0.0167
G1 X-15.845 Y17.530 E0.6414
G1 X-15.279 Y17.530 E0.0188
G1 X-29.413 Y3.397 E0.6648
G1 X-29.344 Y2.900 E0.0167
G1 X-14.714 Y17.530 E0.6882
G1 X-14.148 Y17.530 E0.0188
G1 X-29.276 Y2.403 E0.7116
G1 X-29.207 Y1.906 E0.0167
G1 X-13.582 Y17.530 E0.7349
G1 X-13.017 Y17.530 E0.0188
G1 X-29.138 Y1.409 E0.7583
G1 X-29.070 Y0.912 E0.0167
G1 X-12.451 Y17.530 E0.7817
G1 X-11.885 Y17.530 E0.0188
G1 X-29.001 Y0.415 E0.8051
G1 X-28.933 Y-0.083 E0.0167
G1 X-11.319 Y17.530 E0.8285
G1 X-10.754 Y17.530 E0.0188
G1 X-28.864 Y-0.580 E0.8518
G1 X-28.795 Y-1.077 E0.0167
G1 X-10.188 Y17.530 E0.8752
G1 X-9.622 Y17.530 E0.0188
