; G-Code generated by Simplify3D(R) Version 4.1.2
; Apr 20, 2020 at 10:16:20 AM
; Settings Summary
;   processName,Process1
;   applyToModels,Jig
;   profileName,MakerBot Replicator 2 HBP (modified)
;   profileVersion,2019-10-28 12:37:50
;   baseProfile,MakerBot Replicator 2(2)
;   printMaterial,PLA
;   printQuality,Medium
;   printExtruders,
;   extruderName,Primary Extruder
;   extruderToolheadNumber,0
;   extruderDiameter,0.4
;   extruderAutoWidth,0
;   extruderWidth,0.4
;   extrusionMultiplier,1
;   extruderUseRetract,1
;   extruderRetractionDistance,1.9
;   extruderExtraRestartDistance,0
;   extruderRetractionZLift,0.5
;   extruderRetractionSpeed,1200
;   extruderUseCoasting,0
;   extruderCoastingDistance,0.2
;   extruderUseWipe,0
;   extruderWipeDistance,5
;   primaryExtruder,0
;   layerHeight,0.2
;   topSolidLayers,3
;   bottomSolidLayers,3
;   perimeterOutlines,2
;   printPerimetersInsideOut,1
;   startPointOption,3
;   startPointOriginX,140
;   startPointOriginY,0
;   sequentialIslands,0
;   spiralVaseMode,0
;   firstLayerHeightPercentage,100
;   firstLayerWidthPercentage,100
;   firstLayerUnderspeed,0.5
;   useRaft,0
;   raftExtruder,0
;   raftTopLayers,2
;   raftBaseLayers,1
;   raftOffset,1
;   raftSeparationDistance,0.14
;   raftTopInfill,90
;   aboveRaftSpeedMultiplier,0.3
;   useSkirt,0
;   skirtExtruder,0
;   skirtLayers,1
;   skirtOutlines,5
;   skirtOffset,0
;   usePrimePillar,0
;   primePillarExtruder,999
;   primePillarWidth,12
;   primePillarLocation,7
;   primePillarSpeedMultiplier,1
;   useOozeShield,0
;   oozeShieldExtruder,999
;   oozeShieldOffset,2
;   oozeShieldOutlines,1
;   oozeShieldSidewallShape,1
;   oozeShieldSidewallAngle,30
;   oozeShieldSpeedMultiplier,1
;   infillExtruder,0
;   internalInfillPattern,Rectilinear
;   externalInfillPattern,Rectilinear
;   infillPercentage,15
;   outlineOverlapPercentage,20
;   infillExtrusionWidthPercentage,100
;   minInfillLength,5
;   infillLayerInterval,1
;   internalInfillAngles,45,-45
;   overlapInternalInfillAngles,0
;   externalInfillAngles,45,-45
;   generateSupport,1
;   supportExtruder,0
;   supportInfillPercentage,20
;   supportExtraInflation,0.5
;   supportBaseLayers,0
;   denseSupportExtruder,0
;   denseSupportLayers,2
;   denseSupportInfillPercentage,70
;   supportLayerInterval,1
;   supportHorizontalPartOffset,0.3
;   supportUpperSeparationLayers,1
;   supportLowerSeparationLayers,1
;   supportType,0
;   supportGridSpacing,2
;   maxOverhangAngle,45
;   supportAngles,0
;   temperatureName,Primary Extruder,Heated Build Platform
;   temperatureNumber,0,0
;   temperatureSetpointCount,1,1
;   temperatureSetpointLayers,1,1
;   temperatureSetpointTemperatures,230,60
;   temperatureStabilizeAtStartup,1,1
;   temperatureHeatedBed,0,1
;   fanLayers,1,2
;   fanSpeeds,0,100
;   blipFanToFullPower,1
;   adjustSpeedForCooling,1
;   minSpeedLayerTime,15
;   minCoolingSpeedSlowdown,20
;   increaseFanForCooling,1
;   minFanLayerTime,45
;   maxCoolingFanSpeed,100
;   increaseFanForBridging,1
;   bridgingFanSpeed,100
;   use5D,1
;   relativeEdistances,1
;   allowEaxisZeroing,0
;   independentExtruderAxes,1
;   includeM10123,0
;   stickySupport,1
;   applyToolheadOffsets,0
;   gcodeXoffset,0
;   gcodeYoffset,0
;   gcodeZoffset,0
;   overrideMachineDefinition,1
;   machineTypeOverride,0
;   strokeXoverride,280
;   strokeYoverride,150
;   strokeZoverride,150
;   originOffsetXoverride,140
;   originOffsetYoverride,75
;   originOffsetZoverride,0
;   homeXdirOverride,1
;   homeYdirOverride,1
;   homeZdirOverride,-1
;   flipXoverride,1
;   flipYoverride,-1
;   flipZoverride,1
;   toolheadOffsets,0,0|0,0|0,0|0,0|0,0|0,0
;   overrideFirmwareConfiguration,1
;   firmwareTypeOverride,MakerBot/Sailfish Firmware
;   GPXconfigOverride,r2h
;   baudRateOverride,115200
;   overridePrinterModels,1
;   printerModelsOverride,MakerBot_Replicator2.stl
;   startingGcode,; **** Replicator 2 start.gcode ****,M73 P0 ; enable build progress,G162 X Y F3000 ; home XY maximum,G161 Z F1200 ; home Z minimum,G92 Z-5 ; set Z to -5,G1 Z0 ; move Z to 0,G161 Z F100 ; home Z slowly,M132 X Y Z A B ; recall home offsets,G1 X-145 Y-75 Z30 F9000 ; move to wait position off table,G130 X20 Y20 Z20 A20 B20 ; lower stepper Vrefs while heating,M126 S[fan_speed_pwm],M140 S[bed0_temperature] T0,M134 T0 ; stabilize bed temperature,M104 S[extruder0_temperature] T0,M133 T0 ; stabilize extruder temperature,G130 X127 Y127 Z40 A127 B127 ; default stepper Vrefs,G92 A0 ; zero extruder,G1 Z0.4 ; position nozzle,G1 E25 F300 ; purge nozzle,G1 X-140 Y-70 Z0.15 F1200 ; slow wipe,G1 X-135 Y-65 Z0.5 F1200 ; lift,G92 A0 ; zero extruder,M73 P1 ;@body (notify GPX body has started),; **** end of start.gcode ****
;   layerChangeGcode,
;   retractionGcode,
;   toolChangeGcode,
;   endingGcode,; **** Replicator 2 end.gcode ****,M73 P100 ; end build progress,G1 Z155 F1000 ; send Z axis to bottom of machine,M104 S0 T0 ; cool down extruder,M140 S0 T0 ; cool down HBP,M127 ; stop blower fan,G162 X Y F3000 ; home XY maximum,M18 ; disable stepper,M0 ; stop codes,M72 P1 ; play Ta-Da song,; **** end of end.gcode ****
;   exportFileFormat,gcode
;   celebration,0
;   celebrationSong,Random Song
;   postProcessing,
;   defaultSpeed,4800
;   outlineUnderspeed,0.5
;   solidInfillUnderspeed,1
;   supportUnderspeed,1
;   rapidXYspeed,9000
;   rapidZspeed,1200
;   minBridgingArea,50
;   bridgingExtraInflation,0
;   bridgingExtrusionMultiplier,1
;   bridgingSpeedMultiplier,0.8
;   useFixedBridgingAngle,0
;   fixedBridgingAngle,0
;   applyBridgingToPerimeters,0
;   filamentDiameters,1.75|1.75|1.75|1.75|1.75|1.75
;   filamentPricesPerKg,46|46|46|46|46|46
;   filamentDensities,1.25|1.25|1.25|1.25|1.25|1.25
;   useMinPrintHeight,0
;   minPrintHeight,0
;   useMaxPrintHeight,0
;   maxPrintHeight,4.84
;   useDiaphragm,0
;   diaphragmLayerInterval,20
;   robustSlicing,1
;   mergeAllIntoSolid,0
;   onlyRetractWhenCrossingOutline,0
;   retractBetweenLayers,0
;   useRetractionMinTravel,1
;   retractionMinTravel,7
;   retractWhileWiping,1
;   onlyWipeOutlines,1
;   avoidCrossingOutline,0
;   maxMovementDetourFactor,3
;   toolChangeRetractionDistance,12
;   toolChangeExtraRestartDistance,-0.5
;   toolChangeRetractionSpeed,600
;   externalThinWallType,0
;   internalThinWallType,0
;   thinWallAllowedOverlapPercentage,10
;   singleExtrusionMinLength,1
;   singleExtrusionMinPrintingWidthPercentage,50
;   singleExtrusionMaxPrintingWidthPercentage,200
;   singleExtrusionEndpointExtension,0.2
;   horizontalSizeCompensation,0
G90
M83
; **** Replicator 2 start.gcode ****
M73 P0 ; enable build progress
G162 X Y F3000 ; home XY maximum
G161 Z F1200 ; home Z minimum
G92 Z-5 ; set Z to -5
G1 Z0 ; move Z to 0
G28 ; better homing, homie
M132 X Y Z A B ; recall home offsets
G1 X-145 Y-75 Z30 F9000 ; move to wait position off table
G130 X20 Y20 Z20 A20 B20 ; lower stepper Vrefs while heating
M127
M140 S60 T0
M134 T0 ; stabilize bed temperature
M104 S230 T0
M133 T0 ; stabilize extruder temperature
G130 X127 Y127 Z40 A127 B127 ; default stepper Vrefs
G92 A0 ; zero extruder
G1 Z0.4 ; position nozzle
G1 E25 F300 ; purge nozzle
G1 X-140 Y-70 Z0.15 F1200 ; slow wipe
G1 X-135 Y-65 Z0.5 F1200 ; lift
G92 A0 ; zero extruder
M73 P1 ;@body (notify GPX body has started)
; **** end of start.gcode ****
; process Process1
; layer 1, Z = 0.200
M135 T0
G1 E-1.9000 F1200
; feature inner perimeter
; tool H0.200 W0.400
G1 Z0.500 F1200
G1 X41.995 Y4.400 F9000
G1 Z0.200 F1200
G1 E1.9000 F1200
G1 X-41.995 Y4.400 E2.7935 F1800
G1 X-41.995 Y-4.400 E0.2927
G1 X41.995 Y-4.400 E2.7935
G1 X41.995 Y4.400 E0.2927
; feature outer perimeter
G1 X42.395 Y4.800 F9000
G1 X-42.395 Y4.800 E2.8201 F1200
G1 X-42.395 Y-4.800 E0.3193
G1 X42.395 Y-4.800 E2.8201
G1 X42.395 Y4.800 E0.3193
G1 E-1.9000 F1200
; feature solid layer
G1 Z0.700 F1200
G1 X41.175 Y-4.080 F9000
G1 Z0.200 F1200
G1 E1.9000 F1200
G1 X41.675 Y-3.580 E0.0235 F2400
G1 X41.675 Y-3.014 E0.0188
G1 X40.609 Y-4.080 E0.0501
G1 X40.043 Y-4.080 E0.0188
G1 X41.675 Y-2.448 E0.0767
G1 X41.675 Y-1.883 E0.0188
G1 X39.478 Y-4.080 E0.1034
G1 X38.912 Y-4.080 E0.0188
G1 X41.675 Y-1.317 E0.1300
G1 X41.675 Y-0.751 E0.0188
G1 X38.346 Y-4.080 E0.1566
G1 X37.781 Y-4.080 E0.0188
G1 X41.675 Y-0.186 E0.1832
G1 X41.675 Y0.380 E0.0188
G1 X37.215 Y-4.080 E0.2098
G1 X36.649 Y-4.080 E0.0188
G1 X41.675 Y0.946 E0.2364
G1 X41.675 Y1.511 E0.0188
G1 X36.084 Y-4.080 E0.2630
G1 X35.518 Y-4.080 E0.0188
G1 X41.675 Y2.077 E0.2896
G1 X41.675 Y2.643 E0.0188
G1 X34.952 Y-4.080 E0.3162
G1 X34.387 Y-4.080 E0.0188
G1 X41.675 Y3.208 E0.3428
G1 X41.675 Y3.774 E0.0188
G1 X33.821 Y-4.080 E0.3694
G1 X33.255 Y-4.080 E0.0188
G1 X41.415 Y4.080 E0.3838
G1 X40.850 Y4.080 E0.0188
G1 X32.690 Y-4.080 E0.3838
G1 X32.124 Y-4.080 E0.0188
G1 X40.284 Y4.080 E0.3838
G1 X39.718 Y4.080 E0.0188
G1 X31.558 Y-4.080 E0.3838
G1 X30.993 Y-4.080 E0.0188
G1 X39.153 Y4.080 E0.3838
G1 X38.587 Y4.080 E0.0188
G1 X30.427 Y-4.080 E0.3838
G1 X29.861 Y-4.080 E0.0188
G1 X38.021 Y4.080 E0.3838
G1 X37.455 Y4.080 E0.0188
G1 X29.295 Y-4.080 E0.3838
G1 X28.730 Y-4.080 E0.0188
G1 X36.890 Y4.080 E0.3838
G1 X36.324 Y4.080 E0.0188
G1 X28.164 Y-4.080 E0.3838
G1 X27.598 Y-4.080 E0.0188
G1 X35.758 Y4.080 E0.3838
G1 X35.193 Y4.080 E0.0188
G1 X27.033 Y-4.080 E0.3838
G1 X26.467 Y-4.080 E0.0188
G1 X34.627 Y4.080 E0.3838
G1 X34.061 Y4.080 E0.0188
G1 X25.901 Y-4.080 E0.3838
G1 X25.336 Y-4.080 E0.0188
G1 X33.496 Y4.080 E0.3838
G1 X32.930 Y4.080 E0.0188
G1 X24.770 Y-4.080 E0.3838
G1 X24.204 Y-4.080 E0.0188
G1 X32.364 Y4.080 E0.3838
G1 X31.799 Y4.080 E0.0188
G1 X23.639 Y-4.080 E0.3838
G1 X23.073 Y-4.080 E0.0188
G1 X31.233 Y4.080 E0.3838
G1 X30.667 Y4.080 E0.0188
G1 X22.507 Y-4.080 E0.3838
G1 X21.942 Y-4.080 E0.0188
G1 X30.102 Y4.080 E0.3838
G1 X29.536 Y4.080 E0.0188
G1 X21.376 Y-4.080 E0.3838
G1 X20.810 Y-4.080 E0.0188
G1 X28.970 Y4.080 E0.3838
G1 X28.404 Y4.080 E0.0188
G1 X20.244 Y-4.080 E0.3838
G1 X19.679 Y-4.080 E0.0188
G1 X27.839 Y4.080 E0.3838
G1 X27.273 Y4.080 E0.0188
G1 X19.113 Y-4.080 E0.3838
G1 X18.547 Y-4.080 E0.0188
G1 X26.707 Y4.080 E0.3838
G1 X26.142 Y4.080 E0.0188
G1 X17.982 Y-4.080 E0.3838
G1 X17.416 Y-4.080 E0.0188
G1 X25.576 Y4.080 E0.3838
G1 X25.010 Y4.080 E0.0188
G1 X16.850 Y-4.080 E0.3838
G1 X16.285 Y-4.080 E0.0188
G1 X24.445 Y4.080 E0.3838
G1 X23.879 Y4.080 E0.0188
G1 X15.719 Y-4.080 E0.3838
G1 X15.153 Y-4.080 E0.0188
G1 X23.313 Y4.080 E0.3838
G1 X22.748 Y4.080 E0.0188
G1 X14.588 Y-4.080 E0.3838
G1 X14.022 Y-4.080 E0.0188
G1 X22.182 Y4.080 E0.3838
G1 X21.616 Y4.080 E0.0188
G1 X13.456 Y-4.080 E0.3838
G1 X12.891 Y-4.080 E0.0188
G1 X21.051 Y4.080 E0.3838
G1 X20.485 Y4.080 E0.0188
G1 X12.325 Y-4.080 E0.3838
G1 X11.759 Y-4.080 E0.0188
G1 X19.919 Y4.080 E0.3838
G1 X19.354 Y4.080 E0.0188
G1 X11.194 Y-4.080 E0.3838
G1 X10.628 Y-4.080 E0.0188
G1 X18.788 Y4.080 E0.3838
G1 X18.222 Y4.080 E0.0188
G1 X10.062 Y-4.080 E0.3838
G1 X9.496 Y-4.080 E0.0188
G1 X17.656 Y4.080 E0.3838
G1 X17.091 Y4.080 E0.0188
G1 X8.931 Y-4.080 E0.3838
G1 X8.365 Y-4.080 E0.0188
G1 X16.525 Y4.080 E0.3838
G1 X15.959 Y4.080 E0.0188
G1 X7.799 Y-4.080 E0.3838
G1 X7.234 Y-4.080 E0.0188
G1 X15.394 Y4.080 E0.3838
G1 X14.828 Y4.080 E0.0188
G1 X6.668 Y-4.080 E0.3838
G1 X6.102 Y-4.080 E0.0188
G1 X14.262 Y4.080 E0.3838
G1 X13.697 Y4.080 E0.0188
G1 X5.537 Y-4.080 E0.3838
G1 X4.971 Y-4.080 E0.0188
G1 X13.131 Y4.080 E0.3838
G1 X12.565 Y4.080 E0.0188
G1 X4.405 Y-4.080 E0.3838
G1 X3.840 Y-4.080 E0.0188
G1 X12.000 Y4.080 E0.3838
G1 X11.434 Y4.080 E0.0188
G1 X3.274 Y-4.080 E0.3838
G1 X2.708 Y-4.080 E0.0188
G1 X10.868 Y4.080 E0.3838
G1 X10.303 Y4.080 E0.0188
G1 X2.143 Y-4.080 E0.3838
G1 X1.577 Y-4.080 E0.0188
G1 X9.737 Y4.080 E0.3838
G1 X9.171 Y4.080 E0.0188
G1 X1.011 Y-4.080 E0.3838
G1 X0.445 Y-4.080 E0.0188
G1 X8.605 Y4.080 E0.3838
G1 X8.040 Y4.080 E0.0188
G1 X-0.120 Y-4.080 E0.3838
G1 X-0.686 Y-4.080 E0.0188
G1 X7.474 Y4.080 E0.3838
G1 X6.908 Y4.080 E0.0188
G1 X-1.252 Y-4.080 E0.3838
G1 X-1.817 Y-4.080 E0.0188
G1 X6.343 Y4.080 E0.3838
G1 X5.777 Y4.080 E0.0188
G1 X-2.383 Y-4.080 E0.3838
G1 X-2.949 Y-4.080 E0.0188
G1 X5.211 Y4.080 E0.3838
G1 X4.646 Y4.080 E0.0188
G1 X-3.514 Y-4.080 E0.3838
G1 X-4.080 Y-4.080 E0.0188
G1 X4.080 Y4.080 E0.3838
G1 X3.514 Y4.080 E0.0188
G1 X-4.646 Y-4.080 E0.3838
G1 X-5.211 Y-4.080 E0.0188
G1 X2.949 Y4.080 E0.3838
G1 X2.383 Y4.080 E0.0188
G1 X-5.777 Y-4.080 E0.3838
G1 X-6.343 Y-4.080 E0.0188
G1 X1.817 Y4.080 E0.3838
G1 X1.252 Y4.080 E0.0188
G1 X-6.908 Y-4.080 E0.3838
G1 X-7.474 Y-4.080 E0.0188
G1 X0.686 Y4.080 E0.3838
G1 X0.120 Y4.080 E0.0188
G1 X-8.040 Y-4.080 E0.3838
G1 X-8.605 Y-4.080 E0.0188
G1 X-0.445 Y4.080 E0.3838
G1 X-1.011 Y4.080 E0.0188
G1 X-9.171 Y-4.080 E0.3838
G1 X-9.737 Y-4.080 E0.0188
G1 X-1.577 Y4.080 E0.3838
G1 X-2.143 Y4.080 E0.0188
G1 X-10.303 Y-4.080 E0.3838
G1 X-10.868 Y-4.080 E0.0188
G1 X-2.708 Y4.080 E0.3838
G1 X-3.274 Y4.080 E0.0188
G1 X-11.434 Y-4.080 E0.3838
G1 X-12.000 Y-4.080 E0.0188
G1 X-3.840 Y4.080 E0.3838
G1 X-4.405 Y4.080 E0.0188
G1 X-12.565 Y-4.080 E0.3838
G1 X-13.131 Y-4.080 E0.0188
G1 X-4.971 Y4.080 E0.3838
G1 X-5.537 Y4.080 E0.0188
G1 X-13.697 Y-4.080 E0.3838
G1 X-14.262 Y-4.080 E0.0188
G1 X-6.102 Y4.080 E0.3838
G1 X-6.668 Y4.080 E0.0188
G1 X-14.828 Y-4.080 E0.3838
G1 X-15.394 Y-4.080 E0.0188
G1 X-7.234 Y4.080 E0.3838
G1 X-7.799 Y4.080 E0.0188
G1 X-15.959 Y-4.080 E0.3838
G1 X-16.525 Y-4.080 E0.0188
G1 X-8.365 Y4.080 E0.3838
G1 X-8.931 Y4.080 E0.0188
G1 X-17.091 Y-4.080 E0.3838
G1 X-17.656 Y-4.080 E0.0188
G1 X-9.496 Y4.080 E0.3838
G1 X-10.062 Y4.080 E0.0188
G1 X-18.222 Y-4.080 E0.3838
G1 X-18.788 Y-4.080 E0.0188
G1 X-10.628 Y4.080 E0.3838
G1 X-11.193 Y4.080 E0.0188
G1 X-19.353 Y-4.080 E0.3838
G1 X-19.919 Y-4.080 E0.0188
G1 X-11.759 Y4.080 E0.3838
G1 X-12.325 Y4.080 E0.0188
G1 X-20.485 Y-4.080 E0.3838
G1 X-21.051 Y-4.080 E0.0188
G1 X-12.891 Y4.080 E0.3838
G1 X-13.456 Y4.080 E0.0188
G1 X-21.616 Y-4.080 E0.3838
G1 X-22.182 Y-4.080 E0.0188
G1 X-14.022 Y4.080 E0.3838
G1 X-14.588 Y4.080 E0.0188
G1 X-22.748 Y-4.080 E0.3838
G1 X-23.313 Y-4.080 E0.0188
G1 X-15.153 Y4.080 E0.3838
G1 X-15.719 Y4.080 E0.0188
G1 X-23.879 Y-4.080 E0.3838
G1 X-24.445 Y-4.080 E0.0188
G1 X-16.285 Y4.080 E0.3838
G1 X-16.850 Y4.080 E0.0188
G1 X-25.010 Y-4.080 E0.3838
G1 X-25.576 Y-4.080 E0.0188
G1 X-17.416 Y4.080 E0.3838
G1 X-17.982 Y4.080 E0.0188
G1 X-26.142 Y-4.080 E0.3838
G1 X-26.707 Y-4.080 E0.0188
G1 X-18.547 Y4.080 E0.3838
G1 X-19.113 Y4.080 E0.0188
G1 X-27.273 Y-4.080 E0.3838
G1 X-27.839 Y-4.080 E0.0188
G1 X-19.679 Y4.080 E0.3838
G1 X-20.244 Y4.080 E0.0188
G1 X-28.404 Y-4.080 E0.3838
G1 X-28.970 Y-4.080 E0.0188
G1 X-20.810 Y4.080 E0.3838
G1 X-21.376 Y4.080 E0.0188
G1 X-29.536 Y-4.080 E0.3838
G1 X-30.102 Y-4.080 E0.0188
G1 X-21.942 Y4.080 E0.3838
G1 X-22.507 Y4.080 E0.0188
G1 X-30.667 Y-4.080 E0.3838
G1 X-31.233 Y-4.080 E0.0188
G1 X-23.073 Y4.080 E0.3838
G1 X-23.639 Y4.080 E0.0188
G1 X-31.799 Y-4.080 E0.3838
G1 X-32.364 Y-4.080 E0.0188
G1 X-24.204 Y4.080 E0.3838
G1 X-24.770 Y4.080 E0.0188
G1 X-32.930 Y-4.080 E0.3838
G1 X-33.496 Y-4.080 E0.0188
G1 X-25.336 Y4.080 E0.3838
G1 X-25.901 Y4.080 E0.0188
G1 X-34.061 Y-4.080 E0.3838
G1 X-34.627 Y-4.080 E0.0188
G1 X-26.467 Y4.080 E0.3838
G1 X-27.033 Y4.080 E0.0188
G1 X-35.193 Y-4.080 E0.3838
G1 X-35.758 Y-4.080 E0.0188
G1 X-27.598 Y4.080 E0.3838
G1 X-28.164 Y4.080 E0.0188
G1 X-36.324 Y-4.080 E0.3838
G1 X-36.890 Y-4.080 E0.0188
G1 X-28.730 Y4.080 E0.3838
G1 X-29.295 Y4.080 E0.0188
G1 X-37.455 Y-4.080 E0.3838
G1 X-38.021 Y-4.080 E0.0188
G1 X-29.861 Y4.080 E0.3838
G1 X-30.427 Y4.080 E0.0188
G1 X-38.587 Y-4.080 E0.3838
G1 X-39.152 Y-4.080 E0.0188
G1 X-30.992 Y4.080 E0.3838
G1 X-31.558 Y4.080 E0.0188
G1 X-39.718 Y-4.080 E0.3838
G1 X-40.284 Y-4.080 E0.0188
G1 X-32.124 Y4.080 E0.3838
G1 X-32.690 Y4.080 E0.0188
G1 X-40.850 Y-4.080 E0.3838
G1 X-41.415 Y-4.080 E0.0188
G1 X-33.255 Y4.080 E0.3838
G1 X-33.821 Y4.080 E0.0188
G1 X-41.675 Y-3.774 E0.3694
G1 X-41.675 Y-3.208 E0.0188
G1 X-34.387 Y4.080 E0.3428
G1 X-34.952 Y4.080 E0.0188
G1 X-41.675 Y-2.643 E0.3162
G1 X-41.675 Y-2.077 E0.0188
G1 X-35.518 Y4.080 E0.2896
G1 X-36.084 Y4.080 E0.0188
G1 X-41.675 Y-1.511 E0.2630
G1 X-41.675 Y-0.946 E0.0188
