; G-Code generated by Simplify3D(R) Version 4.1.2
; Jun 25, 2020 at 11:19:05 AM
; Settings Summary
;   processName,Process1
;   applyToModels,MasherBig,MasherBig(2),MasherBig(3),MasherBig(4),MasherBig(5),MasherBig(6)
;   profileName,MakerBot Replicator 2 HBP (modified)
;   profileVersion,2020-04-21 14:45:34
;   baseProfile,MakerBot Replicator 2(2)
;   printMaterial,PLA
;   printQuality,Medium
;   printExtruders,
;   extruderName,Primary Extruder
;   extruderToolheadNumber,0
;   extruderDiameter,0.4
;   extruderAutoWidth,0
;   extruderWidth,0.4
;   extrusionMultiplier,1
;   extruderUseRetract,1
;   extruderRetractionDistance,1.9
;   extruderExtraRestartDistance,0
;   extruderRetractionZLift,0.5
;   extruderRetractionSpeed,1200
;   extruderUseCoasting,0
;   extruderCoastingDistance,0.2
;   extruderUseWipe,0
;   extruderWipeDistance,5
;   primaryExtruder,0
;   layerHeight,0.2
;   topSolidLayers,4
;   bottomSolidLayers,3
;   perimeterOutlines,2
;   printPerimetersInsideOut,1
;   startPointOption,3
;   startPointOriginX,140
;   startPointOriginY,0
;   sequentialIslands,0
;   spiralVaseMode,0
;   firstLayerHeightPercentage,100
;   firstLayerWidthPercentage,100
;   firstLayerUnderspeed,0.5
;   useRaft,0
;   raftExtruder,0
;   raftTopLayers,2
;   raftBaseLayers,1
;   raftOffset,1
;   raftSeparationDistance,0.14
;   raftTopInfill,90
;   aboveRaftSpeedMultiplier,0.3
;   useSkirt,0
;   skirtExtruder,0
;   skirtLayers,1
;   skirtOutlines,5
;   skirtOffset,0
;   usePrimePillar,0
;   primePillarExtruder,999
;   primePillarWidth,12
;   primePillarLocation,7
;   primePillarSpeedMultiplier,1
;   useOozeShield,0
;   oozeShieldExtruder,999
;   oozeShieldOffset,2
;   oozeShieldOutlines,1
;   oozeShieldSidewallShape,1
;   oozeShieldSidewallAngle,30
;   oozeShieldSpeedMultiplier,1
;   infillExtruder,0
;   internalInfillPattern,Rectilinear
;   externalInfillPattern,Rectilinear
;   infillPercentage,15
;   outlineOverlapPercentage,20
;   infillExtrusionWidthPercentage,100
;   minInfillLength,5
;   infillLayerInterval,1
;   internalInfillAngles,45,-45
;   overlapInternalInfillAngles,0
;   externalInfillAngles,45,-45
;   generateSupport,1
;   supportExtruder,0
;   supportInfillPercentage,30
;   supportExtraInflation,0.6
;   supportBaseLayers,0
;   denseSupportExtruder,0
;   denseSupportLayers,2
;   denseSupportInfillPercentage,70
;   supportLayerInterval,1
;   supportHorizontalPartOffset,0.3
;   supportUpperSeparationLayers,1
;   supportLowerSeparationLayers,1
;   supportType,0
;   supportGridSpacing,99
;   maxOverhangAngle,45
;   supportAngles,0
;   temperatureName,Primary Extruder,Heated Build Platform
;   temperatureNumber,0,0
;   temperatureSetpointCount,1,1
;   temperatureSetpointLayers,1,1
;   temperatureSetpointTemperatures,210,65
;   temperatureStabilizeAtStartup,1,1
;   temperatureHeatedBed,0,1
;   fanLayers,1,2
;   fanSpeeds,0,100
;   blipFanToFullPower,1
;   adjustSpeedForCooling,1
;   minSpeedLayerTime,15
;   minCoolingSpeedSlowdown,20
;   increaseFanForCooling,1
;   minFanLayerTime,45
;   maxCoolingFanSpeed,100
;   increaseFanForBridging,1
;   bridgingFanSpeed,100
;   use5D,1
;   relativeEdistances,1
;   allowEaxisZeroing,0
;   independentExtruderAxes,1
;   includeM10123,0
;   stickySupport,1
;   applyToolheadOffsets,0
;   gcodeXoffset,0
;   gcodeYoffset,0
;   gcodeZoffset,0
;   overrideMachineDefinition,1
;   machineTypeOverride,0
;   strokeXoverride,280
;   strokeYoverride,150
;   strokeZoverride,150
;   originOffsetXoverride,140
;   originOffsetYoverride,75
;   originOffsetZoverride,0
;   homeXdirOverride,1
;   homeYdirOverride,1
;   homeZdirOverride,-1
;   flipXoverride,1
;   flipYoverride,-1
;   flipZoverride,1
;   toolheadOffsets,0,0|0,0|0,0|0,0|0,0|0,0
;   overrideFirmwareConfiguration,1
;   firmwareTypeOverride,MakerBot/Sailfish Firmware
;   GPXconfigOverride,r2h
;   baudRateOverride,115200
;   overridePrinterModels,1
;   printerModelsOverride,MakerBot_Replicator2.stl
;   startingGcode,; **** Replicator 2 start.gcode ****,M73 P0 ; enable build progress,G162 X Y F3000 ; home XY maximum,G161 Z F1200 ; home Z minimum,G92 Z-5 ; set Z to -5,G1 Z0 ; move Z to 0,G28 ; better homing homie,M132 X Y Z A B ; recall home offsets,G1 X-145 Y-75 Z30 F9000 ; move to wait position off table,G130 X20 Y20 Z20 A20 B20 ; lower stepper Vrefs while heating,M126 S[fan_speed_pwm],M140 S[bed0_temperature] T0,M134 T0 ; stabilize bed temperature,M104 S[extruder0_temperature] T0,M133 T0 ; stabilize extruder temperature,G130 X127 Y127 Z40 A127 B127 ; default stepper Vrefs,G92 A0 ; zero extruder,G1 Z0.4 ; position nozzle,G1 E25 F300 ; purge nozzle,G1 X-140 Y-70 Z0.15 F1200 ; slow wipe,G1 X-135 Y-65 Z0.5 F1200 ; lift,G92 A0 ; zero extruder,M73 P1 ;@body (notify GPX body has started),; **** end of start.gcode ****
;   layerChangeGcode,
;   retractionGcode,
;   toolChangeGcode,
;   endingGcode,; **** Replicator 2 end.gcode ****,M73 P100 ; end build progress,G1 Z155 F1000 ; send Z axis to bottom of machine,M104 S0 T0 ; cool down extruder,M140 S0 T0 ; cool down HBP,M127 ; stop blower fan,G162 X Y F3000 ; home XY maximum,M18 ; disable stepper,M0 ; stop codes,M72 P1 ; play Ta-Da song,; **** end of end.gcode ****
;   exportFileFormat,gcode
;   celebration,0
;   celebrationSong,Random Song
;   postProcessing,
;   defaultSpeed,4800
;   outlineUnderspeed,0.5
;   solidInfillUnderspeed,1
;   supportUnderspeed,1
;   rapidXYspeed,9000
;   rapidZspeed,1200
;   minBridgingArea,50
;   bridgingExtraInflation,0
;   bridgingExtrusionMultiplier,1
;   bridgingSpeedMultiplier,0.8
;   useFixedBridgingAngle,0
;   fixedBridgingAngle,0
;   applyBridgingToPerimeters,0
;   filamentDiameters,1.75|1.75|1.75|1.75|1.75|1.75
;   filamentPricesPerKg,46|46|46|46|46|46
;   filamentDensities,1.25|1.25|1.25|1.25|1.25|1.25
;   useMinPrintHeight,0
;   minPrintHeight,0
;   useMaxPrintHeight,0
;   maxPrintHeight,4.84
;   useDiaphragm,0
;   diaphragmLayerInterval,20
;   robustSlicing,1
;   mergeAllIntoSolid,0
;   onlyRetractWhenCrossingOutline,0
;   retractBetweenLayers,0
;   useRetractionMinTravel,1
;   retractionMinTravel,7
;   retractWhileWiping,1
;   onlyWipeOutlines,1
;   avoidCrossingOutline,0
;   maxMovementDetourFactor,3
;   toolChangeRetractionDistance,12
;   toolChangeExtraRestartDistance,-0.5
;   toolChangeRetractionSpeed,600
;   externalThinWallType,0
;   internalThinWallType,0
;   thinWallAllowedOverlapPercentage,10
;   singleExtrusionMinLength,1
;   singleExtrusionMinPrintingWidthPercentage,50
;   singleExtrusionMaxPrintingWidthPercentage,200
;   singleExtrusionEndpointExtension,0.2
;   horizontalSizeCompensation,0
G90
M83
; **** Replicator 2 start.gcode ****
M73 P0 ; enable build progress
G162 X Y F3000 ; home XY maximum
G161 Z F1200 ; home Z minimum
G92 Z-5 ; set Z to -5
G1 Z0 ; move Z to 0
G28 ; better homing homie
M132 X Y Z A B ; recall home offsets
G1 X-145 Y-75 Z30 F9000 ; move to wait position off table
G130 X20 Y20 Z20 A20 B20 ; lower stepper Vrefs while heating
M127
M140 S65 T0
M134 T0 ; stabilize bed temperature
M104 S210 T0
M133 T0 ; stabilize extruder temperature
G130 X127 Y127 Z40 A127 B127 ; default stepper Vrefs
G92 A0 ; zero extruder
G1 Z0.4 ; position nozzle
G1 E25 F300 ; purge nozzle
G1 X-140 Y-70 Z0.15 F1200 ; slow wipe
G1 X-135 Y-65 Z0.5 F1200 ; lift
G92 A0 ; zero extruder
M73 P1 ;@body (notify GPX body has started)
; **** end of start.gcode ****
; process Process1
; layer 1, Z = 0.200
M135 T0
G1 E-1.9000 F1200
; feature inner perimeter
; tool H0.200 W0.400
G1 Z0.500 F1200
G1 X-3.158 Y14.014 F9000
G1 Z0.200 F1200
G1 E1.9000 F1200
G1 X-3.115 Y14.606 E0.0198 F1800
G1 X-3.100 Y15.200 E0.0197
G1 X-3.115 Y15.794 E0.0197
G1 X-3.158 Y16.386 E0.0198
G1 X-3.231 Y16.975 E0.0198
G1 X-3.333 Y17.561 E0.0198
G1 X-3.463 Y18.140 E0.0198
G1 X-3.621 Y18.712 E0.0197
G1 X-3.807 Y19.276 E0.0198
G1 X-4.021 Y19.831 E0.0198
G1 X-4.262 Y20.373 E0.0197
G1 X-4.529 Y20.904 E0.0197
G1 X-4.822 Y21.421 E0.0198
G1 X-5.139 Y21.922 E0.0197
G1 X-5.481 Y22.408 E0.0198
G1 X-5.847 Y22.876 E0.0197
G1 X-6.235 Y23.326 E0.0198
G1 X-6.644 Y23.756 E0.0198
G1 X-7.074 Y24.165 E0.0197
G1 X-7.524 Y24.553 E0.0198
G1 X-7.992 Y24.919 E0.0197
G1 X-8.478 Y25.261 E0.0198
G1 X-8.979 Y25.578 E0.0197
G1 X-9.496 Y25.871 E0.0198
G1 X-10.027 Y26.138 E0.0197
G1 X-10.569 Y26.379 E0.0197
G1 X-11.124 Y26.593 E0.0198
G1 X-11.688 Y26.779 E0.0197
G1 X-12.260 Y26.937 E0.0198
G1 X-12.839 Y27.067 E0.0197
G1 X-13.425 Y27.169 E0.0198
G1 X-14.014 Y27.242 E0.0198
G1 X-14.606 Y27.285 E0.0198
G1 X-15.200 Y27.300 E0.0197
G1 X-15.794 Y27.285 E0.0197
G1 X-16.386 Y27.242 E0.0198
G1 X-16.975 Y27.169 E0.0197
G1 X-17.561 Y27.067 E0.0198
G1 X-18.140 Y26.937 E0.0197
G1 X-18.712 Y26.779 E0.0197
G1 X-19.276 Y26.593 E0.0198
G1 X-19.830 Y26.379 E0.0198
G1 X-20.373 Y26.138 E0.0198
G1 X-20.904 Y25.871 E0.0197
G1 X-21.421 Y25.578 E0.0198
G1 X-21.922 Y25.261 E0.0197
G1 X-22.408 Y24.919 E0.0198
G1 X-22.876 Y24.553 E0.0198
G1 X-23.326 Y24.166 E0.0197
G1 X-23.756 Y23.756 E0.0198
G1 X-24.165 Y23.326 E0.0198
G1 X-24.553 Y22.876 E0.0197
G1 X-24.919 Y22.408 E0.0198
G1 X-25.261 Y21.922 E0.0198
G1 X-25.578 Y21.421 E0.0198
G1 X-25.871 Y20.904 E0.0198
G1 X-26.138 Y20.373 E0.0198
G1 X-26.379 Y19.831 E0.0197
G1 X-26.593 Y19.276 E0.0198
G1 X-26.779 Y18.712 E0.0198
G1 X-26.937 Y18.140 E0.0197
G1 X-27.067 Y17.561 E0.0198
G1 X-27.169 Y16.975 E0.0198
G1 X-27.242 Y16.386 E0.0198
G1 X-27.285 Y15.794 E0.0198
G1 X-27.300 Y15.200 E0.0198
G1 X-27.285 Y14.606 E0.0197
G1 X-27.242 Y14.014 E0.0198
G1 X-27.169 Y13.425 E0.0197
G1 X-27.067 Y12.839 E0.0198
G1 X-26.937 Y12.260 E0.0198
G1 X-26.779 Y11.688 E0.0197
G1 X-26.593 Y11.124 E0.0198
G1 X-26.379 Y10.569 E0.0198
G1 X-26.138 Y10.027 E0.0197
G1 X-25.871 Y9.496 E0.0198
G1 X-25.578 Y8.979 E0.0198
G1 X-25.261 Y8.478 E0.0198
G1 X-24.919 Y7.992 E0.0198
G1 X-24.553 Y7.524 E0.0198
G1 X-24.185 Y7.097 E0.0187
G1 X-23.755 Y6.644 E0.0208
G1 X-23.326 Y6.235 E0.0197
G1 X-22.876 Y5.847 E0.0197
G1 X-22.408 Y5.481 E0.0198
G1 X-21.922 Y5.139 E0.0197
G1 X-21.421 Y4.822 E0.0197
G1 X-20.904 Y4.529 E0.0198
G1 X-20.373 Y4.262 E0.0197
G1 X-19.831 Y4.021 E0.0198
G1 X-19.276 Y3.807 E0.0198
G1 X-18.712 Y3.621 E0.0198
G1 X-18.140 Y3.463 E0.0198
G1 X-17.561 Y3.333 E0.0197
G1 X-16.975 Y3.231 E0.0198
G1 X-16.386 Y3.158 E0.0197
G1 X-15.794 Y3.115 E0.0198
G1 X-15.200 Y3.100 E0.0197
G1 X-14.606 Y3.115 E0.0197
G1 X-14.014 Y3.158 E0.0198
G1 X-13.425 Y3.231 E0.0197
G1 X-12.839 Y3.333 E0.0198
G1 X-12.260 Y3.463 E0.0198
G1 X-11.688 Y3.621 E0.0197
G1 X-11.124 Y3.807 E0.0198
G1 X-10.569 Y4.021 E0.0198
G1 X-10.027 Y4.262 E0.0197
G1 X-9.496 Y4.529 E0.0198
G1 X-8.979 Y4.822 E0.0198
G1 X-8.478 Y5.139 E0.0197
G1 X-7.992 Y5.481 E0.0198
G1 X-7.524 Y5.847 E0.0198
G1 X-7.074 Y6.235 E0.0197
G1 X-6.644 Y6.644 E0.0198
G1 X-6.235 Y7.074 E0.0198
G1 X-5.847 Y7.524 E0.0197
G1 X-5.481 Y7.992 E0.0198
G1 X-5.139 Y8.478 E0.0198
G1 X-4.822 Y8.979 E0.0197
G1 X-4.529 Y9.496 E0.0198
G1 X-4.262 Y10.027 E0.0197
G1 X-4.021 Y10.569 E0.0197
G1 X-3.807 Y11.124 E0.0198
G1 X-3.621 Y11.688 E0.0198
G1 X-3.463 Y12.260 E0.0197
G1 X-3.333 Y12.839 E0.0198
G1 X-3.231 Y13.425 E0.0198
G1 X-3.158 Y14.014 E0.0198
; feature outer perimeter
G1 X-2.760 Y13.975 F9000
G1 X-2.715 Y14.587 E0.0204 F1200
G1 X-2.700 Y15.200 E0.0204
G1 X-2.715 Y15.813 E0.0204
G1 X-2.760 Y16.425 E0.0204
G1 X-2.835 Y17.034 E0.0204
G1 X-2.940 Y17.639 E0.0204
G1 X-3.075 Y18.237 E0.0204
G1 X-3.238 Y18.828 E0.0204
G1 X-3.431 Y19.411 E0.0204
G1 X-3.652 Y19.984 E0.0204
G1 X-3.900 Y20.544 E0.0204
G1 X-4.176 Y21.092 E0.0204
G1 X-4.478 Y21.626 E0.0204
G1 X-4.807 Y22.145 E0.0204
G1 X-5.160 Y22.646 E0.0204
G1 X-5.537 Y23.130 E0.0204
G1 X-5.938 Y23.594 E0.0204
G1 X-6.361 Y24.039 E0.0204
G1 X-6.806 Y24.462 E0.0204
G1 X-7.270 Y24.863 E0.0204
G1 X-7.754 Y25.240 E0.0204
G1 X-8.255 Y25.593 E0.0204
G1 X-8.774 Y25.922 E0.0204
G1 X-9.308 Y26.224 E0.0204
G1 X-9.855 Y26.500 E0.0204
G1 X-10.416 Y26.748 E0.0204
G1 X-10.989 Y26.969 E0.0204
G1 X-11.571 Y27.162 E0.0204
G1 X-12.163 Y27.325 E0.0204
G1 X-12.761 Y27.460 E0.0204
G1 X-13.366 Y27.565 E0.0204
G1 X-13.975 Y27.640 E0.0204
G1 X-14.587 Y27.685 E0.0204
G1 X-15.200 Y27.700 E0.0204
G1 X-15.813 Y27.685 E0.0204
G1 X-16.425 Y27.640 E0.0204
G1 X-17.034 Y27.565 E0.0204
G1 X-17.639 Y27.460 E0.0204
G1 X-18.237 Y27.325 E0.0204
G1 X-18.828 Y27.162 E0.0204
G1 X-19.411 Y26.969 E0.0204
G1 X-19.984 Y26.748 E0.0204
G1 X-20.544 Y26.500 E0.0204
G1 X-21.092 Y26.224 E0.0204
G1 X-21.626 Y25.922 E0.0204
G1 X-22.145 Y25.593 E0.0204
G1 X-22.646 Y25.240 E0.0204
G1 X-23.130 Y24.863 E0.0204
G1 X-23.594 Y24.462 E0.0204
G1 X-24.039 Y24.039 E0.0204
G1 X-24.462 Y23.594 E0.0204
G1 X-24.862 Y23.130 E0.0204
G1 X-25.240 Y22.646 E0.0204
G1 X-25.593 Y22.145 E0.0204
G1 X-25.922 Y21.626 E0.0204
G1 X-26.224 Y21.092 E0.0204
G1 X-26.500 Y20.544 E0.0204
G1 X-26.748 Y19.984 E0.0204
G1 X-26.969 Y19.411 E0.0204
G1 X-27.162 Y18.828 E0.0204
G1 X-27.325 Y18.237 E0.0204
G1 X-27.460 Y17.639 E0.0204
G1 X-27.565 Y17.034 E0.0204
G1 X-27.640 Y16.425 E0.0204
G1 X-27.685 Y15.813 E0.0204
G1 X-27.700 Y15.200 E0.0204
G1 X-27.685 Y14.587 E0.0204
G1 X-27.640 Y13.975 E0.0204
G1 X-27.565 Y13.366 E0.0204
G1 X-27.460 Y12.761 E0.0204
G1 X-27.325 Y12.163 E0.0204
G1 X-27.162 Y11.572 E0.0204
G1 X-26.969 Y10.989 E0.0204
G1 X-26.748 Y10.416 E0.0204
G1 X-26.500 Y9.855 E0.0204
G1 X-26.224 Y9.308 E0.0204
G1 X-25.921 Y8.774 E0.0204
G1 X-25.593 Y8.255 E0.0204
G1 X-25.240 Y7.754 E0.0204
G1 X-24.862 Y7.270 E0.0204
G1 X-24.482 Y6.829 E0.0194
G1 X-24.039 Y6.361 E0.0214
G1 X-23.594 Y5.938 E0.0204
G1 X-23.130 Y5.537 E0.0204
G1 X-22.646 Y5.160 E0.0204
G1 X-22.145 Y4.807 E0.0204
G1 X-21.626 Y4.478 E0.0204
G1 X-21.092 Y4.176 E0.0204
G1 X-20.544 Y3.900 E0.0204
G1 X-19.984 Y3.652 E0.0204
G1 X-19.411 Y3.431 E0.0204
G1 X-18.828 Y3.238 E0.0204
G1 X-18.237 Y3.075 E0.0204
G1 X-17.639 Y2.940 E0.0204
G1 X-17.034 Y2.835 E0.0204
G1 X-16.425 Y2.760 E0.0204
G1 X-15.813 Y2.715 E0.0204
G1 X-15.200 Y2.700 E0.0204
G1 X-14.587 Y2.715 E0.0204
G1 X-13.975 Y2.760 E0.0204
G1 X-13.366 Y2.835 E0.0204
G1 X-12.761 Y2.940 E0.0204
G1 X-12.163 Y3.075 E0.0204
G1 X-11.572 Y3.238 E0.0204
G1 X-10.989 Y3.431 E0.0204
G1 X-10.416 Y3.652 E0.0204
G1 X-9.856 Y3.900 E0.0204
G1 X-9.308 Y4.176 E0.0204
G1 X-8.774 Y4.479 E0.0204
G1 X-8.256 Y4.807 E0.0204
G1 X-7.754 Y5.160 E0.0204
G1 X-7.270 Y5.537 E0.0204
G1 X-6.806 Y5.938 E0.0204
G1 X-6.361 Y6.361 E0.0204
G1 X-5.938 Y6.806 E0.0204
G1 X-5.537 Y7.270 E0.0204
G1 X-5.160 Y7.754 E0.0204
G1 X-4.807 Y8.255 E0.0204
G1 X-4.478 Y8.774 E0.0204
G1 X-4.176 Y9.308 E0.0204
G1 X-3.900 Y9.855 E0.0204
G1 X-3.652 Y10.416 E0.0204
G1 X-3.431 Y10.989 E0.0204
G1 X-3.238 Y11.572 E0.0204
G1 X-3.075 Y12.163 E0.0204
G1 X-2.940 Y12.761 E0.0204
G1 X-2.835 Y13.366 E0.0204
G1 X-2.760 Y13.975 E0.0204
G1 E-1.9000 F1200
; feature inner perimeter
G1 Z0.700 F1200
G1 X-12.114 Y14.896 F9000
G1 Z0.200 F1200
G1 E1.9000 F1200
G1 X-12.159 Y14.595 E0.0101 F1800
G1 X-12.233 Y14.300 E0.0101
G1 X-12.335 Y14.013 E0.0101
G1 X-12.465 Y13.738 E0.0101
G1 X-12.622 Y13.477 E0.0101
G1 X-12.803 Y13.233 E0.0101
G1 X-13.007 Y13.007 E0.0101
G1 X-13.233 Y12.803 E0.0101
G1 X-13.477 Y12.622 E0.0101
G1 X-13.738 Y12.465 E0.0101
G1 X-14.013 Y12.335 E0.0101
G1 X-14.300 Y12.233 E0.0101
G1 X-14.595 Y12.159 E0.0101
G1 X-14.896 Y12.114 E0.0101
G1 X-15.200 Y12.099 E0.0101
G1 X-15.504 Y12.114 E0.0101
G1 X-15.805 Y12.159 E0.0101
G1 X-16.100 Y12.233 E0.0101
G1 X-16.387 Y12.335 E0.0101
G1 X-16.662 Y12.465 E0.0101
G1 X-16.923 Y12.622 E0.0101
G1 X-17.167 Y12.803 E0.0101
G1 X-17.393 Y13.007 E0.0101
G1 X-17.597 Y13.233 E0.0101
G1 X-17.778 Y13.477 E0.0101
G1 X-17.935 Y13.738 E0.0101
G1 X-18.065 Y14.013 E0.0101
G1 X-18.167 Y14.300 E0.0101
G1 X-18.241 Y14.595 E0.0101
G1 X-18.286 Y14.896 E0.0101
G1 X-18.301 Y15.215 E0.0106
G1 X-18.245 Y15.791 E0.0192
G1 X-18.167 Y16.100 E0.0106
G1 X-18.065 Y16.387 E0.0101
G1 X-17.935 Y16.662 E0.0101
G1 X-17.778 Y16.923 E0.0101
G1 X-17.597 Y17.167 E0.0101
G1 X-17.393 Y17.393 E0.0101
G1 X-17.167 Y17.597 E0.0101
G1 X-16.923 Y17.778 E0.0101
G1 X-16.662 Y17.935 E0.0101
G1 X-16.387 Y18.065 E0.0101
G1 X-16.100 Y18.167 E0.0101
G1 X-15.805 Y18.241 E0.0101
G1 X-15.504 Y18.286 E0.0101
G1 X-15.200 Y18.301 E0.0101
