; G-Code generated by Simplify3D(R) Version 4.1.2
; Jun 25, 2020 at 11:18:13 AM
; Settings Summary
;   processName,Process1
;   applyToModels,MasherSmall,MasherSmall(2),MasherSmall(3),MasherSmall(4),MasherSmall(5),MasherSmall(6)
;   profileName,MakerBot Replicator 2 HBP (modified)
;   profileVersion,2020-04-21 14:45:34
;   baseProfile,MakerBot Replicator 2(2)
;   printMaterial,PLA
;   printQuality,Medium
;   printExtruders,
;   extruderName,Primary Extruder
;   extruderToolheadNumber,0
;   extruderDiameter,0.4
;   extruderAutoWidth,0
;   extruderWidth,0.4
;   extrusionMultiplier,1
;   extruderUseRetract,1
;   extruderRetractionDistance,1.9
;   extruderExtraRestartDistance,0
;   extruderRetractionZLift,0.5
;   extruderRetractionSpeed,1200
;   extruderUseCoasting,0
;   extruderCoastingDistance,0.2
;   extruderUseWipe,0
;   extruderWipeDistance,5
;   primaryExtruder,0
;   layerHeight,0.2
;   topSolidLayers,4
;   bottomSolidLayers,3
;   perimeterOutlines,2
;   printPerimetersInsideOut,1
;   startPointOption,3
;   startPointOriginX,140
;   startPointOriginY,0
;   sequentialIslands,0
;   spiralVaseMode,0
;   firstLayerHeightPercentage,100
;   firstLayerWidthPercentage,100
;   firstLayerUnderspeed,0.5
;   useRaft,0
;   raftExtruder,0
;   raftTopLayers,2
;   raftBaseLayers,1
;   raftOffset,1
;   raftSeparationDistance,0.14
;   raftTopInfill,90
;   aboveRaftSpeedMultiplier,0.3
;   useSkirt,0
;   skirtExtruder,0
;   skirtLayers,1
;   skirtOutlines,5
;   skirtOffset,0
;   usePrimePillar,0
;   primePillarExtruder,999
;   primePillarWidth,12
;   primePillarLocation,7
;   primePillarSpeedMultiplier,1
;   useOozeShield,0
;   oozeShieldExtruder,999
;   oozeShieldOffset,2
;   oozeShieldOutlines,1
;   oozeShieldSidewallShape,1
;   oozeShieldSidewallAngle,30
;   oozeShieldSpeedMultiplier,1
;   infillExtruder,0
;   internalInfillPattern,Rectilinear
;   externalInfillPattern,Rectilinear
;   infillPercentage,15
;   outlineOverlapPercentage,20
;   infillExtrusionWidthPercentage,100
;   minInfillLength,5
;   infillLayerInterval,1
;   internalInfillAngles,45,-45
;   overlapInternalInfillAngles,0
;   externalInfillAngles,45,-45
;   generateSupport,1
;   supportExtruder,0
;   supportInfillPercentage,30
;   supportExtraInflation,0.6
;   supportBaseLayers,0
;   denseSupportExtruder,0
;   denseSupportLayers,2
;   denseSupportInfillPercentage,70
;   supportLayerInterval,1
;   supportHorizontalPartOffset,0.3
;   supportUpperSeparationLayers,1
;   supportLowerSeparationLayers,1
;   supportType,0
;   supportGridSpacing,99
;   maxOverhangAngle,45
;   supportAngles,0
;   temperatureName,Primary Extruder,Heated Build Platform
;   temperatureNumber,0,0
;   temperatureSetpointCount,1,1
;   temperatureSetpointLayers,1,1
;   temperatureSetpointTemperatures,210,65
;   temperatureStabilizeAtStartup,1,1
;   temperatureHeatedBed,0,1
;   fanLayers,1,2
;   fanSpeeds,0,100
;   blipFanToFullPower,1
;   adjustSpeedForCooling,1
;   minSpeedLayerTime,15
;   minCoolingSpeedSlowdown,20
;   increaseFanForCooling,1
;   minFanLayerTime,45
;   maxCoolingFanSpeed,100
;   increaseFanForBridging,1
;   bridgingFanSpeed,100
;   use5D,1
;   relativeEdistances,1
;   allowEaxisZeroing,0
;   independentExtruderAxes,1
;   includeM10123,0
;   stickySupport,1
;   applyToolheadOffsets,0
;   gcodeXoffset,0
;   gcodeYoffset,0
;   gcodeZoffset,0
;   overrideMachineDefinition,1
;   machineTypeOverride,0
;   strokeXoverride,280
;   strokeYoverride,150
;   strokeZoverride,150
;   originOffsetXoverride,140
;   originOffsetYoverride,75
;   originOffsetZoverride,0
;   homeXdirOverride,1
;   homeYdirOverride,1
;   homeZdirOverride,-1
;   flipXoverride,1
;   flipYoverride,-1
;   flipZoverride,1
;   toolheadOffsets,0,0|0,0|0,0|0,0|0,0|0,0
;   overrideFirmwareConfiguration,1
;   firmwareTypeOverride,MakerBot/Sailfish Firmware
;   GPXconfigOverride,r2h
;   baudRateOverride,115200
;   overridePrinterModels,1
;   printerModelsOverride,MakerBot_Replicator2.stl
;   startingGcode,; **** Replicator 2 start.gcode ****,M73 P0 ; enable build progress,G162 X Y F3000 ; home XY maximum,G161 Z F1200 ; home Z minimum,G92 Z-5 ; set Z to -5,G1 Z0 ; move Z to 0,G28 ; better homing homie,M132 X Y Z A B ; recall home offsets,G1 X-145 Y-75 Z30 F9000 ; move to wait position off table,G130 X20 Y20 Z20 A20 B20 ; lower stepper Vrefs while heating,M126 S[fan_speed_pwm],M140 S[bed0_temperature] T0,M134 T0 ; stabilize bed temperature,M104 S[extruder0_temperature] T0,M133 T0 ; stabilize extruder temperature,G130 X127 Y127 Z40 A127 B127 ; default stepper Vrefs,G92 A0 ; zero extruder,G1 Z0.4 ; position nozzle,G1 E25 F300 ; purge nozzle,G1 X-140 Y-70 Z0.15 F1200 ; slow wipe,G1 X-135 Y-65 Z0.5 F1200 ; lift,G92 A0 ; zero extruder,M73 P1 ;@body (notify GPX body has started),; **** end of start.gcode ****
;   layerChangeGcode,
;   retractionGcode,
;   toolChangeGcode,
;   endingGcode,; **** Replicator 2 end.gcode ****,M73 P100 ; end build progress,G1 Z155 F1000 ; send Z axis to bottom of machine,M104 S0 T0 ; cool down extruder,M140 S0 T0 ; cool down HBP,M127 ; stop blower fan,G162 X Y F3000 ; home XY maximum,M18 ; disable stepper,M0 ; stop codes,M72 P1 ; play Ta-Da song,; **** end of end.gcode ****
;   exportFileFormat,gcode
;   celebration,0
;   celebrationSong,Random Song
;   postProcessing,
;   defaultSpeed,4800
;   outlineUnderspeed,0.5
;   solidInfillUnderspeed,1
;   supportUnderspeed,1
;   rapidXYspeed,9000
;   rapidZspeed,1200
;   minBridgingArea,50
;   bridgingExtraInflation,0
;   bridgingExtrusionMultiplier,1
;   bridgingSpeedMultiplier,0.8
;   useFixedBridgingAngle,0
;   fixedBridgingAngle,0
;   applyBridgingToPerimeters,0
;   filamentDiameters,1.75|1.75|1.75|1.75|1.75|1.75
;   filamentPricesPerKg,46|46|46|46|46|46
;   filamentDensities,1.25|1.25|1.25|1.25|1.25|1.25
;   useMinPrintHeight,0
;   minPrintHeight,0
;   useMaxPrintHeight,0
;   maxPrintHeight,4.84
;   useDiaphragm,0
;   diaphragmLayerInterval,20
;   robustSlicing,1
;   mergeAllIntoSolid,0
;   onlyRetractWhenCrossingOutline,0
;   retractBetweenLayers,0
;   useRetractionMinTravel,1
;   retractionMinTravel,7
;   retractWhileWiping,1
;   onlyWipeOutlines,1
;   avoidCrossingOutline,0
;   maxMovementDetourFactor,3
;   toolChangeRetractionDistance,12
;   toolChangeExtraRestartDistance,-0.5
;   toolChangeRetractionSpeed,600
;   externalThinWallType,0
;   internalThinWallType,0
;   thinWallAllowedOverlapPercentage,10
;   singleExtrusionMinLength,1
;   singleExtrusionMinPrintingWidthPercentage,50
;   singleExtrusionMaxPrintingWidthPercentage,200
;   singleExtrusionEndpointExtension,0.2
;   horizontalSizeCompensation,0
G90
M83
; **** Replicator 2 start.gcode ****
M73 P0 ; enable build progress
G162 X Y F3000 ; home XY maximum
G161 Z F1200 ; home Z minimum
G92 Z-5 ; set Z to -5
G1 Z0 ; move Z to 0
G28 ; better homing homie
M132 X Y Z A B ; recall home offsets
G1 X-145 Y-75 Z30 F9000 ; move to wait position off table
G130 X20 Y20 Z20 A20 B20 ; lower stepper Vrefs while heating
M127
M140 S65 T0
M134 T0 ; stabilize bed temperature
M104 S210 T0
M133 T0 ; stabilize extruder temperature
G130 X127 Y127 Z40 A127 B127 ; default stepper Vrefs
G92 A0 ; zero extruder
G1 Z0.4 ; position nozzle
G1 E25 F300 ; purge nozzle
G1 X-140 Y-70 Z0.15 F1200 ; slow wipe
G1 X-135 Y-65 Z0.5 F1200 ; lift
G92 A0 ; zero extruder
M73 P1 ;@body (notify GPX body has started)
; **** end of start.gcode ****
; process Process1
; layer 1, Z = 0.200
M135 T0
G1 E-1.9000 F1200
; feature inner perimeter
; tool H0.200 W0.400
G1 Z0.500 F1200
G1 X-3.151 Y12.571 F9000
G1 Z0.200 F1200
G1 E1.9000 F1200
G1 X-3.113 Y13.085 E0.0171 F1800
G1 X-3.100 Y13.600 E0.0171
G1 X-3.113 Y14.115 E0.0171
G1 X-3.151 Y14.629 E0.0171
G1 X-3.214 Y15.141 E0.0171
G1 X-3.302 Y15.648 E0.0171
G1 X-3.415 Y16.151 E0.0171
G1 X-3.552 Y16.648 E0.0171
G1 X-3.714 Y17.137 E0.0171
G1 X-3.900 Y17.618 E0.0171
G1 X-4.108 Y18.089 E0.0171
G1 X-4.340 Y18.549 E0.0171
G1 X-4.594 Y18.998 E0.0171
G1 X-4.870 Y19.433 E0.0171
G1 X-5.166 Y19.855 E0.0171
G1 X-5.484 Y20.261 E0.0171
G1 X-5.820 Y20.651 E0.0171
G1 X-6.175 Y21.024 E0.0171
G1 X-6.549 Y21.380 E0.0172
G1 X-6.939 Y21.716 E0.0171
G1 X-7.345 Y22.034 E0.0171
G1 X-7.767 Y22.330 E0.0171
G1 X-8.202 Y22.606 E0.0171
G1 X-8.650 Y22.860 E0.0171
G1 X-9.111 Y23.092 E0.0171
G1 X-9.582 Y23.300 E0.0171
G1 X-10.063 Y23.486 E0.0171
G1 X-10.552 Y23.648 E0.0171
G1 X-11.049 Y23.785 E0.0171
G1 X-11.551 Y23.898 E0.0171
G1 X-12.059 Y23.986 E0.0171
G1 X-12.571 Y24.049 E0.0171
G1 X-13.085 Y24.087 E0.0171
G1 X-13.600 Y24.100 E0.0171
G1 X-14.115 Y24.087 E0.0171
G1 X-14.629 Y24.049 E0.0171
G1 X-15.141 Y23.986 E0.0171
G1 X-15.648 Y23.898 E0.0171
G1 X-16.151 Y23.785 E0.0171
G1 X-16.648 Y23.648 E0.0171
G1 X-17.137 Y23.486 E0.0171
G1 X-17.618 Y23.301 E0.0171
G1 X-18.089 Y23.092 E0.0171
G1 X-18.549 Y22.860 E0.0171
G1 X-18.998 Y22.606 E0.0172
G1 X-19.433 Y22.330 E0.0171
G1 X-19.855 Y22.034 E0.0171
G1 X-20.261 Y21.716 E0.0171
G1 X-20.651 Y21.380 E0.0171
G1 X-21.024 Y21.024 E0.0171
G1 X-21.380 Y20.651 E0.0171
G1 X-21.716 Y20.261 E0.0171
G1 X-22.034 Y19.855 E0.0171
G1 X-22.330 Y19.433 E0.0171
G1 X-22.606 Y18.998 E0.0171
G1 X-22.860 Y18.550 E0.0171
G1 X-23.092 Y18.089 E0.0171
G1 X-23.301 Y17.618 E0.0171
G1 X-23.486 Y17.137 E0.0171
G1 X-23.648 Y16.648 E0.0171
G1 X-23.785 Y16.151 E0.0171
G1 X-23.898 Y15.648 E0.0171
G1 X-23.986 Y15.141 E0.0171
G1 X-24.049 Y14.629 E0.0171
G1 X-24.087 Y14.115 E0.0171
G1 X-24.100 Y13.600 E0.0171
G1 X-24.087 Y13.085 E0.0171
G1 X-24.049 Y12.571 E0.0171
G1 X-23.986 Y12.059 E0.0171
G1 X-23.898 Y11.551 E0.0171
G1 X-23.785 Y11.049 E0.0171
G1 X-23.648 Y10.552 E0.0171
G1 X-23.486 Y10.063 E0.0171
G1 X-23.300 Y9.582 E0.0171
G1 X-23.092 Y9.111 E0.0171
G1 X-22.860 Y8.650 E0.0171
G1 X-22.606 Y8.202 E0.0171
G1 X-22.330 Y7.767 E0.0171
G1 X-22.034 Y7.345 E0.0171
G1 X-21.716 Y6.939 E0.0171
G1 X-21.380 Y6.549 E0.0171
G1 X-21.024 Y6.175 E0.0171
G1 X-20.651 Y5.820 E0.0171
G1 X-20.281 Y5.501 E0.0163
G1 X-19.854 Y5.166 E0.0180
G1 X-19.433 Y4.870 E0.0171
G1 X-18.998 Y4.594 E0.0171
G1 X-18.549 Y4.340 E0.0171
G1 X-18.089 Y4.108 E0.0171
G1 X-17.618 Y3.899 E0.0171
G1 X-17.137 Y3.714 E0.0171
G1 X-16.648 Y3.552 E0.0171
G1 X-16.151 Y3.415 E0.0171
G1 X-15.649 Y3.302 E0.0171
G1 X-15.141 Y3.214 E0.0171
G1 X-14.629 Y3.151 E0.0171
G1 X-14.115 Y3.113 E0.0171
G1 X-13.600 Y3.100 E0.0171
G1 X-13.085 Y3.113 E0.0171
G1 X-12.571 Y3.151 E0.0171
G1 X-12.059 Y3.214 E0.0171
G1 X-11.552 Y3.302 E0.0171
G1 X-11.049 Y3.415 E0.0171
G1 X-10.552 Y3.552 E0.0171
G1 X-10.063 Y3.714 E0.0171
G1 X-9.582 Y3.900 E0.0171
G1 X-9.111 Y4.108 E0.0171
G1 X-8.651 Y4.340 E0.0171
G1 X-8.202 Y4.594 E0.0172
G1 X-7.767 Y4.870 E0.0171
G1 X-7.345 Y5.166 E0.0171
G1 X-6.939 Y5.484 E0.0171
G1 X-6.549 Y5.820 E0.0171
G1 X-6.176 Y6.176 E0.0171
G1 X-5.820 Y6.549 E0.0171
G1 X-5.484 Y6.939 E0.0171
G1 X-5.166 Y7.345 E0.0171
G1 X-4.870 Y7.767 E0.0171
G1 X-4.594 Y8.202 E0.0171
G1 X-4.340 Y8.650 E0.0171
G1 X-4.108 Y9.111 E0.0171
G1 X-3.900 Y9.582 E0.0171
G1 X-3.714 Y10.063 E0.0171
G1 X-3.552 Y10.552 E0.0171
G1 X-3.415 Y11.049 E0.0171
G1 X-3.302 Y11.551 E0.0171
G1 X-3.214 Y12.059 E0.0171
G1 X-3.151 Y12.571 E0.0171
; feature outer perimeter
G1 X-2.753 Y12.532 F9000
G1 X-2.713 Y13.065 E0.0178 F1200
G1 X-2.700 Y13.600 E0.0178
G1 X-2.713 Y14.135 E0.0178
G1 X-2.753 Y14.668 E0.0178
G1 X-2.818 Y15.199 E0.0178
G1 X-2.910 Y15.727 E0.0178
G1 X-3.027 Y16.248 E0.0178
G1 X-3.169 Y16.764 E0.0178
G1 X-3.337 Y17.272 E0.0178
G1 X-3.530 Y17.771 E0.0178
G1 X-3.747 Y18.260 E0.0178
G1 X-3.987 Y18.738 E0.0178
G1 X-4.251 Y19.204 E0.0178
G1 X-4.537 Y19.656 E0.0178
G1 X-4.845 Y20.093 E0.0178
G1 X-5.174 Y20.515 E0.0178
G1 X-5.524 Y20.920 E0.0178
G1 X-5.893 Y21.307 E0.0178
G1 X-6.280 Y21.676 E0.0178
G1 X-6.685 Y22.026 E0.0178
G1 X-7.107 Y22.355 E0.0178
G1 X-7.544 Y22.663 E0.0178
G1 X-7.996 Y22.949 E0.0178
G1 X-8.462 Y23.213 E0.0178
G1 X-8.940 Y23.453 E0.0178
G1 X-9.429 Y23.670 E0.0178
G1 X-9.928 Y23.863 E0.0178
G1 X-10.436 Y24.031 E0.0178
G1 X-10.952 Y24.173 E0.0178
G1 X-11.473 Y24.290 E0.0178
G1 X-12.001 Y24.382 E0.0178
G1 X-12.532 Y24.447 E0.0178
G1 X-13.065 Y24.487 E0.0178
G1 X-13.600 Y24.500 E0.0178
G1 X-14.135 Y24.487 E0.0178
G1 X-14.668 Y24.447 E0.0178
G1 X-15.199 Y24.382 E0.0178
G1 X-15.727 Y24.290 E0.0178
G1 X-16.248 Y24.173 E0.0178
G1 X-16.764 Y24.031 E0.0178
G1 X-17.272 Y23.863 E0.0178
G1 X-17.771 Y23.670 E0.0178
G1 X-18.260 Y23.453 E0.0178
G1 X-18.738 Y23.213 E0.0178
G1 X-19.204 Y22.949 E0.0178
G1 X-19.656 Y22.663 E0.0178
G1 X-20.093 Y22.355 E0.0178
G1 X-20.515 Y22.026 E0.0178
G1 X-20.920 Y21.676 E0.0178
G1 X-21.307 Y21.307 E0.0178
G1 X-21.676 Y20.920 E0.0178
G1 X-22.026 Y20.515 E0.0178
G1 X-22.355 Y20.093 E0.0178
G1 X-22.663 Y19.656 E0.0178
G1 X-22.949 Y19.204 E0.0178
G1 X-23.213 Y18.738 E0.0178
G1 X-23.453 Y18.260 E0.0178
G1 X-23.670 Y17.771 E0.0178
G1 X-23.863 Y17.272 E0.0178
G1 X-24.031 Y16.764 E0.0178
G1 X-24.173 Y16.248 E0.0178
G1 X-24.290 Y15.727 E0.0178
G1 X-24.382 Y15.199 E0.0178
G1 X-24.447 Y14.668 E0.0178
G1 X-24.487 Y14.135 E0.0178
G1 X-24.500 Y13.600 E0.0178
G1 X-24.487 Y13.065 E0.0178
G1 X-24.447 Y12.532 E0.0178
G1 X-24.382 Y12.001 E0.0178
G1 X-24.290 Y11.473 E0.0178
G1 X-24.173 Y10.952 E0.0178
G1 X-24.031 Y10.436 E0.0178
G1 X-23.863 Y9.928 E0.0178
G1 X-23.670 Y9.429 E0.0178
G1 X-23.453 Y8.940 E0.0178
G1 X-23.213 Y8.462 E0.0178
G1 X-22.949 Y7.996 E0.0178
G1 X-22.663 Y7.544 E0.0178
G1 X-22.355 Y7.107 E0.0178
G1 X-22.026 Y6.685 E0.0178
G1 X-21.676 Y6.280 E0.0178
G1 X-21.307 Y5.893 E0.0178
G1 X-20.920 Y5.524 E0.0178
G1 X-20.535 Y5.192 E0.0169
G1 X-20.093 Y4.845 E0.0187
G1 X-19.656 Y4.537 E0.0178
G1 X-19.204 Y4.251 E0.0178
G1 X-18.738 Y3.987 E0.0178
G1 X-18.260 Y3.747 E0.0178
G1 X-17.771 Y3.530 E0.0178
G1 X-17.272 Y3.337 E0.0178
G1 X-16.764 Y3.169 E0.0178
G1 X-16.248 Y3.027 E0.0178
G1 X-15.727 Y2.910 E0.0178
G1 X-15.199 Y2.818 E0.0178
G1 X-14.668 Y2.753 E0.0178
G1 X-14.135 Y2.713 E0.0178
G1 X-13.600 Y2.700 E0.0178
G1 X-13.065 Y2.713 E0.0178
G1 X-12.532 Y2.753 E0.0178
G1 X-12.001 Y2.818 E0.0178
G1 X-11.473 Y2.910 E0.0178
G1 X-10.951 Y3.027 E0.0178
G1 X-10.436 Y3.169 E0.0178
G1 X-9.928 Y3.337 E0.0178
G1 X-9.429 Y3.530 E0.0178
G1 X-8.940 Y3.747 E0.0178
G1 X-8.462 Y3.987 E0.0178
G1 X-7.996 Y4.251 E0.0178
G1 X-7.544 Y4.537 E0.0178
G1 X-7.107 Y4.845 E0.0178
G1 X-6.685 Y5.174 E0.0178
G1 X-6.280 Y5.524 E0.0178
G1 X-5.893 Y5.893 E0.0178
G1 X-5.524 Y6.280 E0.0178
G1 X-5.174 Y6.685 E0.0178
G1 X-4.845 Y7.107 E0.0178
G1 X-4.537 Y7.544 E0.0178
G1 X-4.251 Y7.996 E0.0178
G1 X-3.987 Y8.462 E0.0178
G1 X-3.747 Y8.940 E0.0178
G1 X-3.530 Y9.429 E0.0178
G1 X-3.337 Y9.928 E0.0178
G1 X-3.169 Y10.436 E0.0178
G1 X-3.027 Y10.952 E0.0178
G1 X-2.910 Y11.473 E0.0178
G1 X-2.818 Y12.001 E0.0178
G1 X-2.753 Y12.532 E0.0178
G1 E-1.9000 F1200
; feature inner perimeter
G1 Z0.700 F1200
G1 X-10.514 Y13.296 F9000
G1 Z0.200 F1200
G1 E1.9000 F1200
G1 X-10.559 Y12.995 E0.0101 F1800
G1 X-10.633 Y12.700 E0.0101
G1 X-10.735 Y12.413 E0.0101
G1 X-10.865 Y12.138 E0.0101
G1 X-11.022 Y11.877 E0.0101
G1 X-11.203 Y11.633 E0.0101
G1 X-11.407 Y11.407 E0.0101
G1 X-11.633 Y11.203 E0.0101
G1 X-11.877 Y11.022 E0.0101
G1 X-12.138 Y10.865 E0.0101
G1 X-12.413 Y10.735 E0.0101
G1 X-12.700 Y10.633 E0.0101
G1 X-12.995 Y10.559 E0.0101
G1 X-13.296 Y10.514 E0.0101
G1 X-13.600 Y10.499 E0.0101
G1 X-13.904 Y10.514 E0.0101
G1 X-14.205 Y10.559 E0.0101
G1 X-14.500 Y10.633 E0.0101
G1 X-14.787 Y10.735 E0.0101
G1 X-15.062 Y10.865 E0.0101
G1 X-15.323 Y11.022 E0.0101
G1 X-15.567 Y11.203 E0.0101
G1 X-15.793 Y11.407 E0.0101
G1 X-15.997 Y11.633 E0.0101
G1 X-16.178 Y11.877 E0.0101
G1 X-16.335 Y12.138 E0.0101
G1 X-16.465 Y12.413 E0.0101
G1 X-16.567 Y12.700 E0.0101
G1 X-16.641 Y12.995 E0.0101
G1 X-16.686 Y13.296 E0.0101
G1 X-16.701 Y13.615 E0.0106
G1 X-16.645 Y14.191 E0.0192
G1 X-16.567 Y14.500 E0.0106
G1 X-16.465 Y14.787 E0.0101
G1 X-16.335 Y15.062 E0.0101
G1 X-16.178 Y15.323 E0.0101
G1 X-15.997 Y15.567 E0.0101
G1 X-15.793 Y15.793 E0.0101
G1 X-15.567 Y15.997 E0.0101
G1 X-15.323 Y16.178 E0.0101
G1 X-15.062 Y16.335 E0.0101
G1 X-14.787 Y16.465 E0.0101
G1 X-14.500 Y16.567 E0.0101
G1 X-14.205 Y16.641 E0.0101
G1 X-13.904 Y16.686 E0.0101
G1 X-13.600 Y16.701 E0.0101
