; G-Code generated by Simplify3D(R) Version 4.1.2
; May 20, 2020 at 1:48:51 PM
; Settings Summary
;   processName,Process1
;   applyToModels,ST drop bracket
;   profileName,MakerBot Replicator 2 HBP (modified)
;   profileVersion,2020-04-21 14:45:34
;   baseProfile,MakerBot Replicator 2(2)
;   printMaterial,PLA
;   printQuality,Medium
;   printExtruders,
;   extruderName,Primary Extruder
;   extruderToolheadNumber,0
;   extruderDiameter,0.4
;   extruderAutoWidth,0
;   extruderWidth,0.4
;   extrusionMultiplier,1
;   extruderUseRetract,1
;   extruderRetractionDistance,1.9
;   extruderExtraRestartDistance,0
;   extruderRetractionZLift,0.5
;   extruderRetractionSpeed,1200
;   extruderUseCoasting,0
;   extruderCoastingDistance,0.2
;   extruderUseWipe,0
;   extruderWipeDistance,5
;   primaryExtruder,0
;   layerHeight,0.2
;   topSolidLayers,3
;   bottomSolidLayers,3
;   perimeterOutlines,2
;   printPerimetersInsideOut,1
;   startPointOption,3
;   startPointOriginX,140
;   startPointOriginY,0
;   sequentialIslands,0
;   spiralVaseMode,0
;   firstLayerHeightPercentage,100
;   firstLayerWidthPercentage,100
;   firstLayerUnderspeed,0.5
;   useRaft,0
;   raftExtruder,0
;   raftTopLayers,2
;   raftBaseLayers,1
;   raftOffset,1
;   raftSeparationDistance,0.14
;   raftTopInfill,90
;   aboveRaftSpeedMultiplier,0.3
;   useSkirt,0
;   skirtExtruder,0
;   skirtLayers,1
;   skirtOutlines,5
;   skirtOffset,0
;   usePrimePillar,0
;   primePillarExtruder,999
;   primePillarWidth,12
;   primePillarLocation,7
;   primePillarSpeedMultiplier,1
;   useOozeShield,0
;   oozeShieldExtruder,999
;   oozeShieldOffset,2
;   oozeShieldOutlines,1
;   oozeShieldSidewallShape,1
;   oozeShieldSidewallAngle,30
;   oozeShieldSpeedMultiplier,1
;   infillExtruder,0
;   internalInfillPattern,Rectilinear
;   externalInfillPattern,Rectilinear
;   infillPercentage,15
;   outlineOverlapPercentage,20
;   infillExtrusionWidthPercentage,100
;   minInfillLength,5
;   infillLayerInterval,1
;   internalInfillAngles,45,-45
;   overlapInternalInfillAngles,0
;   externalInfillAngles,45,-45
;   generateSupport,1
;   supportExtruder,0
;   supportInfillPercentage,30
;   supportExtraInflation,0.6
;   supportBaseLayers,0
;   denseSupportExtruder,0
;   denseSupportLayers,2
;   denseSupportInfillPercentage,70
;   supportLayerInterval,1
;   supportHorizontalPartOffset,0.3
;   supportUpperSeparationLayers,1
;   supportLowerSeparationLayers,1
;   supportType,0
;   supportGridSpacing,99
;   maxOverhangAngle,45
;   supportAngles,0
;   temperatureName,Primary Extruder,Heated Build Platform
;   temperatureNumber,0,0
;   temperatureSetpointCount,1,1
;   temperatureSetpointLayers,1,1
;   temperatureSetpointTemperatures,230,65
;   temperatureStabilizeAtStartup,1,1
;   temperatureHeatedBed,0,1
;   fanLayers,1,2
;   fanSpeeds,0,100
;   blipFanToFullPower,1
;   adjustSpeedForCooling,1
;   minSpeedLayerTime,15
;   minCoolingSpeedSlowdown,20
;   increaseFanForCooling,1
;   minFanLayerTime,45
;   maxCoolingFanSpeed,100
;   increaseFanForBridging,1
;   bridgingFanSpeed,100
;   use5D,1
;   relativeEdistances,1
;   allowEaxisZeroing,0
;   independentExtruderAxes,1
;   includeM10123,0
;   stickySupport,1
;   applyToolheadOffsets,0
;   gcodeXoffset,0
;   gcodeYoffset,0
;   gcodeZoffset,0
;   overrideMachineDefinition,1
;   machineTypeOverride,0
;   strokeXoverride,280
;   strokeYoverride,150
;   strokeZoverride,150
;   originOffsetXoverride,140
;   originOffsetYoverride,75
;   originOffsetZoverride,0
;   homeXdirOverride,1
;   homeYdirOverride,1
;   homeZdirOverride,-1
;   flipXoverride,1
;   flipYoverride,-1
;   flipZoverride,1
;   toolheadOffsets,0,0|0,0|0,0|0,0|0,0|0,0
;   overrideFirmwareConfiguration,1
;   firmwareTypeOverride,MakerBot/Sailfish Firmware
;   GPXconfigOverride,r2h
;   baudRateOverride,115200
;   overridePrinterModels,1
;   printerModelsOverride,MakerBot_Replicator2.stl
;   startingGcode,; **** Replicator 2 start.gcode ****,M73 P0 ; enable build progress,G162 X Y F3000 ; home XY maximum,G161 Z F1200 ; home Z minimum,G92 Z-5 ; set Z to -5,G1 Z0 ; move Z to 0,G28 ; better homing homie,M132 X Y Z A B ; recall home offsets,G1 X-145 Y-75 Z30 F9000 ; move to wait position off table,G130 X20 Y20 Z20 A20 B20 ; lower stepper Vrefs while heating,M126 S[fan_speed_pwm],M140 S[bed0_temperature] T0,M134 T0 ; stabilize bed temperature,M104 S[extruder0_temperature] T0,M133 T0 ; stabilize extruder temperature,G130 X127 Y127 Z40 A127 B127 ; default stepper Vrefs,G92 A0 ; zero extruder,G1 Z0.4 ; position nozzle,G1 E25 F300 ; purge nozzle,G1 X-140 Y-70 Z0.15 F1200 ; slow wipe,G1 X-135 Y-65 Z0.5 F1200 ; lift,G92 A0 ; zero extruder,M73 P1 ;@body (notify GPX body has started),; **** end of start.gcode ****
;   layerChangeGcode,
;   retractionGcode,
;   toolChangeGcode,
;   endingGcode,; **** Replicator 2 end.gcode ****,M73 P100 ; end build progress,G1 Z155 F1000 ; send Z axis to bottom of machine,M104 S0 T0 ; cool down extruder,M140 S0 T0 ; cool down HBP,M127 ; stop blower fan,G162 X Y F3000 ; home XY maximum,M18 ; disable stepper,M0 ; stop codes,M72 P1 ; play Ta-Da song,; **** end of end.gcode ****
;   exportFileFormat,gcode
;   celebration,0
;   celebrationSong,Random Song
;   postProcessing,
;   defaultSpeed,4800
;   outlineUnderspeed,0.5
;   solidInfillUnderspeed,1
;   supportUnderspeed,1
;   rapidXYspeed,9000
;   rapidZspeed,1200
;   minBridgingArea,50
;   bridgingExtraInflation,0
;   bridgingExtrusionMultiplier,1
;   bridgingSpeedMultiplier,0.8
;   useFixedBridgingAngle,0
;   fixedBridgingAngle,0
;   applyBridgingToPerimeters,0
;   filamentDiameters,1.75|1.75|1.75|1.75|1.75|1.75
;   filamentPricesPerKg,46|46|46|46|46|46
;   filamentDensities,1.25|1.25|1.25|1.25|1.25|1.25
;   useMinPrintHeight,0
;   minPrintHeight,0
;   useMaxPrintHeight,0
;   maxPrintHeight,4.84
;   useDiaphragm,0
;   diaphragmLayerInterval,20
;   robustSlicing,1
;   mergeAllIntoSolid,0
;   onlyRetractWhenCrossingOutline,0
;   retractBetweenLayers,0
;   useRetractionMinTravel,1
;   retractionMinTravel,7
;   retractWhileWiping,1
;   onlyWipeOutlines,1
;   avoidCrossingOutline,0
;   maxMovementDetourFactor,3
;   toolChangeRetractionDistance,12
;   toolChangeExtraRestartDistance,-0.5
;   toolChangeRetractionSpeed,600
;   externalThinWallType,0
;   internalThinWallType,0
;   thinWallAllowedOverlapPercentage,10
;   singleExtrusionMinLength,1
;   singleExtrusionMinPrintingWidthPercentage,50
;   singleExtrusionMaxPrintingWidthPercentage,200
;   singleExtrusionEndpointExtension,0.2
;   horizontalSizeCompensation,0
G90
M83
; **** Replicator 2 start.gcode ****
M73 P0 ; enable build progress
G162 X Y F3000 ; home XY maximum
G161 Z F1200 ; home Z minimum
G92 Z-5 ; set Z to -5
G1 Z0 ; move Z to 0
G28 ; better homing homie
M132 X Y Z A B ; recall home offsets
G1 X-145 Y-75 Z30 F9000 ; move to wait position off table
G130 X20 Y20 Z20 A20 B20 ; lower stepper Vrefs while heating
M126 S143
M140 S65 T0
M134 T0 ; stabilize bed temperature
M104 S230 T0
M133 T0 ; stabilize extruder temperature
G130 X127 Y127 Z40 A127 B127 ; default stepper Vrefs
G92 A0 ; zero extruder
G1 Z0.4 ; position nozzle
G1 E25 F300 ; purge nozzle
G1 X-140 Y-70 Z0.15 F1200 ; slow wipe
G1 X-135 Y-65 Z0.5 F1200 ; lift
G92 A0 ; zero extruder
M73 P1 ;@body (notify GPX body has started)
; **** end of start.gcode ****
; process Process1
; layer 1, Z = 0.200
M135 T0
G1 E-1.9000 F1200
; feature inner perimeter
; tool H0.200 W0.400
G1 Z0.500 F1200
G1 X15.916 Y-1.896 F9000
G1 Z0.200 F1200
G1 E1.9000 F1200
G1 X-8.144 Y-1.896 E0.8002 F1800
G1 X-8.556 Y-1.485 E0.0194
G1 X-8.556 Y6.662 E0.2710
G1 X-15.916 Y6.662 E0.2448
G1 X-15.916 Y-6.662 E0.4432
G1 X15.916 Y-6.662 E1.0587
G1 X15.916 Y-1.896 E0.1585
; feature outer perimeter
G1 X16.316 Y-1.496 F9000
G1 X-7.979 Y-1.496 E0.8080 F1200
G1 X-8.156 Y-1.319 E0.0083
G1 X-8.156 Y7.062 E0.2787
G1 X-16.316 Y7.062 E0.2714
G1 X-16.316 Y-7.062 E0.4698
G1 X16.316 Y-7.062 E1.0853
G1 X16.316 Y-1.496 E0.1851
G1 E-1.9000 F1200
; feature inner perimeter
G1 Z0.700 F1200
G1 X-9.205 Y2.380 F9000
G1 Z0.200 F1200
G1 E1.9000 F1200
G1 X-9.381 Y1.800 E0.0201 F1800
G1 X-9.667 Y1.266 E0.0201
G1 X-10.051 Y0.798 E0.0201
G1 X-10.519 Y0.414 E0.0201
G1 X-11.053 Y0.128 E0.0201
G1 X-11.633 Y-0.048 E0.0201
G1 X-12.236 Y-0.107 E0.0201
G1 X-12.839 Y-0.048 E0.0201
G1 X-13.418 Y0.128 E0.0201
G1 X-13.952 Y0.414 E0.0201
G1 X-14.421 Y0.798 E0.0201
G1 X-14.805 Y1.266 E0.0201
G1 X-15.090 Y1.800 E0.0201
G1 X-15.266 Y2.380 E0.0201
G1 X-15.326 Y2.983 E0.0201
G1 X-15.266 Y3.586 E0.0201
G1 X-15.090 Y4.165 E0.0201
G1 X-14.805 Y4.699 E0.0201
G1 X-14.421 Y5.168 E0.0201
G1 X-13.952 Y5.552 E0.0201
G1 X-13.418 Y5.837 E0.0201
G1 X-12.839 Y6.013 E0.0201
G1 X-12.236 Y6.073 E0.0201
G1 X-11.633 Y6.013 E0.0201
G1 X-11.053 Y5.837 E0.0201
G1 X-10.519 Y5.552 E0.0201
G1 X-10.051 Y5.168 E0.0201
G1 X-9.667 Y4.699 E0.0201
G1 X-9.381 Y4.165 E0.0201
G1 X-9.205 Y3.586 E0.0201
G1 X-9.146 Y2.983 E0.0201
G1 X-9.205 Y2.380 E0.0201
; feature outer perimeter
G1 X-9.600 Y2.458 F9000
G1 X-9.753 Y1.954 E0.0175 F1200
G1 X-10.001 Y1.490 E0.0175
G1 X-10.335 Y1.082 E0.0175
G1 X-10.743 Y0.748 E0.0175
G1 X-11.207 Y0.500 E0.0175
G1 X-11.711 Y0.347 E0.0175
G1 X-12.236 Y0.295 E0.0175
G1 X-12.760 Y0.347 E0.0175
G1 X-13.264 Y0.500 E0.0175
G1 X-13.729 Y0.748 E0.0175
G1 X-14.136 Y1.082 E0.0175
G1 X-14.471 Y1.490 E0.0175
G1 X-14.719 Y1.954 E0.0175
G1 X-14.872 Y2.458 E0.0175
G1 X-14.924 Y2.983 E0.0175
G1 X-14.872 Y3.507 E0.0175
G1 X-14.719 Y4.011 E0.0175
G1 X-14.471 Y4.476 E0.0175
G1 X-14.136 Y4.883 E0.0175
G1 X-13.729 Y5.218 E0.0175
G1 X-13.264 Y5.466 E0.0175
G1 X-12.760 Y5.619 E0.0175
G1 X-12.236 Y5.671 E0.0175
G1 X-11.711 Y5.619 E0.0175
G1 X-11.207 Y5.466 E0.0175
G1 X-10.743 Y5.218 E0.0175
G1 X-10.335 Y4.883 E0.0175
G1 X-10.001 Y4.476 E0.0175
G1 X-9.753 Y4.011 E0.0175
G1 X-9.600 Y3.507 E0.0175
G1 X-9.548 Y2.983 E0.0175
G1 X-9.600 Y2.458 E0.0175
; feature solid layer
G1 X-8.878 Y2.435 F9000
G1 X-8.876 Y2.438 E0.0001 F2400
G1 X-8.882 Y3.563 F9000
G1 X-8.876 Y3.569 E0.0003 F2400
G1 X-8.876 Y4.135 E0.0188
G1 X-9.000 Y4.011 E0.0058
G1 X-9.084 Y4.288 E0.0096
G1 X-9.155 Y4.421 E0.0050
G1 X-8.876 Y4.700 E0.0131
G1 X-8.876 Y5.266 E0.0188
G1 X-9.352 Y4.790 E0.0224
G1 X-9.399 Y4.878 E0.0033
G1 X-9.593 Y5.114 E0.0102
G1 X-8.876 Y5.832 E0.0337
G1 X-8.876 Y6.342 E0.0170
G1 X-8.932 Y6.342 E0.0018
G1 X-9.854 Y5.420 E0.0434
G1 X-10.164 Y5.675 E0.0134
G1 X-9.497 Y6.342 E0.0314
G1 X-10.063 Y6.342 E0.0188
G1 X-10.500 Y5.905 E0.0206
G1 X-10.869 Y6.102 E0.0139
G1 X-10.629 Y6.342 E0.0113
G1 X-11.194 Y6.342 E0.0188
G1 X-11.292 Y6.244 E0.0046
G1 X-12.906 Y6.327 F9000
G1 X-12.891 Y6.342 E0.0007 F2400
G1 X-13.457 Y6.342 E0.0188
G1 X-13.806 Y5.993 E0.0164
G1 X-15.154 Y6.342 F9000
G1 X-15.596 Y5.900 E0.0208 F2400
G1 X-15.596 Y5.335 E0.0188
G1 X-14.588 Y6.342 E0.0474
G1 X-14.023 Y6.342 E0.0188
G1 X-15.596 Y4.769 E0.0740
G1 X-15.596 Y4.203 E0.0188
G1 X-15.246 Y4.553 E0.0165
G1 X-15.387 Y4.288 E0.0100
G1 X-15.580 Y3.653 E0.0221
G1 X-15.596 Y3.638 E0.0007
G1 X-15.596 Y1.941 F9000
G1 X-15.497 Y2.039 E0.0046 F2400
G1 X-15.387 Y1.677 E0.0126
G1 X-15.355 Y1.616 E0.0023
G1 X-15.596 Y1.375 E0.0113
G1 X-15.596 Y0.809 E0.0188
G1 X-15.158 Y1.247 E0.0206
G1 X-15.072 Y1.088 E0.0060
G1 X-14.928 Y0.912 E0.0076
G1 X-15.596 Y0.244 E0.0314
G1 X-15.596 Y-0.322 E0.0188
G1 X-14.673 Y0.601 E0.0434
G1 X-14.648 Y0.571 E0.0013
G1 X-14.367 Y0.340 E0.0121
G1 X-15.596 Y-0.888 E0.0578
G1 X-15.596 Y-1.453 E0.0188
G1 X-14.043 Y0.099 E0.0730
G1 X-13.674 Y-0.098 E0.0139
G1 X-15.596 Y-2.019 E0.0904
G1 X-15.596 Y-2.585 E0.0188
G1 X-13.264 Y-0.253 E0.1097
G1 X-12.901 Y-0.363 E0.0126
G1 X-12.816 Y-0.371 E0.0028
G1 X-15.596 Y-3.151 E0.1307
G1 X-15.596 Y-3.716 E0.0188
G1 X-12.301 Y-0.422 E0.1550
G1 X-12.236 Y-0.428 E0.0022
G1 X-11.688 Y-0.374 E0.0183
G1 X-15.596 Y-4.282 E0.1838
G1 X-15.596 Y-4.848 E0.0188
G1 X-10.901 Y-0.153 E0.2208
G1 X-10.341 Y0.146 E0.0211
G1 X-9.824 Y0.571 E0.0222
G1 X-9.399 Y1.088 E0.0222
G1 X-9.100 Y1.648 E0.0211
G1 X-8.876 Y1.872 E0.0105
G1 X-8.876 Y1.306 E0.0188
G1 X-15.596 Y-5.413 E0.3161
G1 X-15.596 Y-5.979 E0.0188
G1 X-8.876 Y0.741 E0.3161
G1 X-8.876 Y0.175 E0.0188
G1 X-15.393 Y-6.342 E0.3065
G1 X-14.827 Y-6.342 E0.0188
G1 X-8.876 Y-0.391 E0.2799
G1 X-8.876 Y-0.956 E0.0188
G1 X-14.262 Y-6.342 E0.2533
G1 X-13.696 Y-6.342 E0.0188
G1 X-8.876 Y-1.522 E0.2267
G1 X-8.876 Y-1.617 E0.0032
G1 X-8.641 Y-1.852 E0.0111
G1 X-13.130 Y-6.342 E0.2112
G1 X-12.564 Y-6.342 E0.0188
G1 X-8.358 Y-2.135 E0.1979
G1 X-8.277 Y-2.216 E0.0038
G1 X-7.873 Y-2.216 E0.0134
G1 X-11.999 Y-6.342 E0.1941
G1 X-11.433 Y-6.342 E0.0188
G1 X-7.307 Y-2.216 E0.1941
G1 X-6.742 Y-2.216 E0.0188
G1 X-10.867 Y-6.342 E0.1941
G1 X-10.302 Y-6.342 E0.0188
G1 X-6.176 Y-2.216 E0.1941
G1 X-5.610 Y-2.216 E0.0188
G1 X-9.736 Y-6.342 E0.1941
G1 X-9.170 Y-6.342 E0.0188
G1 X-5.045 Y-2.216 E0.1941
G1 X-4.479 Y-2.216 E0.0188
G1 X-8.605 Y-6.342 E0.1941
G1 X-8.039 Y-6.342 E0.0188
G1 X-3.913 Y-2.216 E0.1941
G1 X-3.348 Y-2.216 E0.0188
G1 X-7.473 Y-6.342 E0.1941
G1 X-6.908 Y-6.342 E0.0188
G1 X-2.782 Y-2.216 E0.1941
G1 X-2.216 Y-2.216 E0.0188
G1 X-6.342 Y-6.342 E0.1941
G1 X-5.776 Y-6.342 E0.0188
G1 X-1.651 Y-2.216 E0.1941
G1 X-1.085 Y-2.216 E0.0188
G1 X-5.211 Y-6.342 E0.1941
G1 X-4.645 Y-6.342 E0.0188
G1 X-0.519 Y-2.216 E0.1941
G1 X0.046 Y-2.216 E0.0188
G1 X-4.079 Y-6.342 E0.1941
G1 X-3.514 Y-6.342 E0.0188
G1 X0.612 Y-2.216 E0.1941
G1 X1.178 Y-2.216 E0.0188
G1 X-2.948 Y-6.342 E0.1941
G1 X-2.382 Y-6.342 E0.0188
G1 X1.744 Y-2.216 E0.1941
G1 X2.309 Y-2.216 E0.0188
G1 X-1.816 Y-6.342 E0.1941
G1 X-1.251 Y-6.342 E0.0188
G1 X2.875 Y-2.216 E0.1941
G1 X3.441 Y-2.216 E0.0188
G1 X-0.685 Y-6.342 E0.1941
G1 X-0.119 Y-6.342 E0.0188
G1 X4.006 Y-2.216 E0.1941
G1 X4.572 Y-2.216 E0.0188
G1 X0.446 Y-6.342 E0.1941
G1 X1.012 Y-6.342 E0.0188
G1 X5.138 Y-2.216 E0.1941
G1 X5.703 Y-2.216 E0.0188
G1 X1.578 Y-6.342 E0.1941
G1 X2.143 Y-6.342 E0.0188
G1 X6.269 Y-2.216 E0.1941
G1 X6.835 Y-2.216 E0.0188
G1 X2.709 Y-6.342 E0.1941
G1 X3.275 Y-6.342 E0.0188
G1 X7.400 Y-2.216 E0.1941
G1 X7.966 Y-2.216 E0.0188
G1 X3.840 Y-6.342 E0.1941
G1 X4.406 Y-6.342 E0.0188
G1 X8.532 Y-2.216 E0.1941
G1 X9.097 Y-2.216 E0.0188
G1 X4.972 Y-6.342 E0.1941
G1 X5.537 Y-6.342 E0.0188
G1 X9.663 Y-2.216 E0.1941
G1 X10.229 Y-2.216 E0.0188
G1 X6.103 Y-6.342 E0.1941
G1 X6.669 Y-6.342 E0.0188
G1 X10.795 Y-2.216 E0.1941
G1 X11.360 Y-2.216 E0.0188
G1 X7.234 Y-6.342 E0.1941
G1 X7.800 Y-6.342 E0.0188
G1 X11.926 Y-2.216 E0.1941
G1 X12.492 Y-2.216 E0.0188
G1 X8.366 Y-6.342 E0.1941
G1 X8.932 Y-6.342 E0.0188
G1 X13.057 Y-2.216 E0.1941
G1 X13.623 Y-2.216 E0.0188
G1 X9.497 Y-6.342 E0.1941
G1 X10.063 Y-6.342 E0.0188
G1 X14.189 Y-2.216 E0.1941
G1 X14.754 Y-2.216 E0.0188
G1 X10.629 Y-6.342 E0.1941
G1 X11.194 Y-6.342 E0.0188
G1 X15.320 Y-2.216 E0.1941
G1 X15.596 Y-2.216 E0.0092
G1 X15.596 Y-2.506 E0.0096
G1 X11.760 Y-6.342 E0.1804
G1 X12.326 Y-6.342 E0.0188
G1 X15.596 Y-3.072 E0.1538
G1 X15.596 Y-3.638 E0.0188
G1 X12.891 Y-6.342 E0.1272
G1 X13.457 Y-6.342 E0.0188
G1 X15.596 Y-4.203 E0.1006
G1 X15.596 Y-4.769 E0.0188
G1 X14.023 Y-6.342 E0.0740
G1 X14.588 Y-6.342 E0.0188
G1 X15.596 Y-5.335 E0.0474
G1 X15.596 Y-5.900 E0.0188
G1 X15.154 Y-6.342 E0.0208
; layer 2, Z = 0.400
M126 S255
; feature inner perimeter
G1 Z0.400 F1200
G1 X15.916 Y-1.896 F9000
G1 X-8.144 Y-1.896 E0.8002 F2370
G1 X-8.556 Y-1.485 E0.0194
G1 X-8.556 Y6.662 E0.2710
G1 X-15.916 Y6.662 E0.2448
G1 X-15.916 Y-6.662 E0.4432
G1 X15.916 Y-6.662 E1.0587
G1 X15.916 Y-1.896 E0.1585
; feature outer perimeter
G1 X16.316 Y-1.496 F9000
G1 X-7.979 Y-1.496 E0.8080 F1580
G1 X-8.156 Y-1.319 E0.0083
G1 X-8.156 Y7.062 E0.2787
G1 X-16.316 Y7.062 E0.2714
G1 X-16.316 Y-7.062 E0.4698
G1 X16.316 Y-7.062 E1.0853
G1 X16.316 Y-1.496 E0.1851
G1 E-1.9000 F1200
; feature inner perimeter
G1 Z0.900 F1200
G1 X-9.205 Y2.380 F9000
G1 Z0.400 F1200
G1 E1.9000 F1200
G1 X-9.381 Y1.800 E0.0201 F2370
G1 X-9.667 Y1.266 E0.0201
G1 X-10.051 Y0.798 E0.0201
G1 X-10.519 Y0.414 E0.0201
G1 X-11.053 Y0.128 E0.0201
G1 X-11.633 Y-0.048 E0.0201
G1 X-12.236 Y-0.107 E0.0201
G1 X-12.839 Y-0.048 E0.0201
G1 X-13.418 Y0.128 E0.0201
G1 X-13.952 Y0.414 E0.0201
G1 X-14.421 Y0.798 E0.0201
