; G-Code generated by Simplify3D(R) Version 4.1.2
; Apr 28, 2020 at 10:29:14 AM
; Settings Summary
;   processName,Process1
;   applyToModels,Splint
;   profileName,MakerBot Replicator 2 HBP (modified)
;   profileVersion,2020-04-21 14:45:34
;   baseProfile,MakerBot Replicator 2(2)
;   printMaterial,PLA
;   printQuality,Medium
;   printExtruders,
;   extruderName,Primary Extruder
;   extruderToolheadNumber,0
;   extruderDiameter,0.4
;   extruderAutoWidth,0
;   extruderWidth,0.4
;   extrusionMultiplier,1
;   extruderUseRetract,1
;   extruderRetractionDistance,1.9
;   extruderExtraRestartDistance,0
;   extruderRetractionZLift,0.5
;   extruderRetractionSpeed,1200
;   extruderUseCoasting,0
;   extruderCoastingDistance,0.2
;   extruderUseWipe,0
;   extruderWipeDistance,5
;   primaryExtruder,0
;   layerHeight,0.2
;   topSolidLayers,3
;   bottomSolidLayers,2
;   perimeterOutlines,2
;   printPerimetersInsideOut,1
;   startPointOption,3
;   startPointOriginX,140
;   startPointOriginY,0
;   sequentialIslands,0
;   spiralVaseMode,0
;   firstLayerHeightPercentage,100
;   firstLayerWidthPercentage,100
;   firstLayerUnderspeed,0.5
;   useRaft,0
;   raftExtruder,0
;   raftTopLayers,2
;   raftBaseLayers,1
;   raftOffset,1
;   raftSeparationDistance,0.14
;   raftTopInfill,90
;   aboveRaftSpeedMultiplier,0.3
;   useSkirt,0
;   skirtExtruder,0
;   skirtLayers,1
;   skirtOutlines,5
;   skirtOffset,0
;   usePrimePillar,0
;   primePillarExtruder,999
;   primePillarWidth,12
;   primePillarLocation,7
;   primePillarSpeedMultiplier,1
;   useOozeShield,0
;   oozeShieldExtruder,999
;   oozeShieldOffset,2
;   oozeShieldOutlines,1
;   oozeShieldSidewallShape,1
;   oozeShieldSidewallAngle,30
;   oozeShieldSpeedMultiplier,1
;   infillExtruder,0
;   internalInfillPattern,Rectilinear
;   externalInfillPattern,Rectilinear
;   infillPercentage,15
;   outlineOverlapPercentage,20
;   infillExtrusionWidthPercentage,100
;   minInfillLength,5
;   infillLayerInterval,1
;   internalInfillAngles,45,-45
;   overlapInternalInfillAngles,0
;   externalInfillAngles,45,-45
;   generateSupport,0
;   supportExtruder,0
;   supportInfillPercentage,30
;   supportExtraInflation,0.6
;   supportBaseLayers,0
;   denseSupportExtruder,0
;   denseSupportLayers,2
;   denseSupportInfillPercentage,70
;   supportLayerInterval,1
;   supportHorizontalPartOffset,0.3
;   supportUpperSeparationLayers,1
;   supportLowerSeparationLayers,1
;   supportType,0
;   supportGridSpacing,2
;   maxOverhangAngle,45
;   supportAngles,0
;   temperatureName,Primary Extruder,Heated Build Platform
;   temperatureNumber,0,0
;   temperatureSetpointCount,1,1
;   temperatureSetpointLayers,1,1
;   temperatureSetpointTemperatures,230,60
;   temperatureStabilizeAtStartup,1,1
;   temperatureHeatedBed,0,1
;   fanLayers,1,2
;   fanSpeeds,0,100
;   blipFanToFullPower,1
;   adjustSpeedForCooling,1
;   minSpeedLayerTime,15
;   minCoolingSpeedSlowdown,20
;   increaseFanForCooling,1
;   minFanLayerTime,45
;   maxCoolingFanSpeed,100
;   increaseFanForBridging,1
;   bridgingFanSpeed,100
;   use5D,1
;   relativeEdistances,1
;   allowEaxisZeroing,0
;   independentExtruderAxes,1
;   includeM10123,0
;   stickySupport,1
;   applyToolheadOffsets,0
;   gcodeXoffset,0
;   gcodeYoffset,0
;   gcodeZoffset,0
;   overrideMachineDefinition,1
;   machineTypeOverride,0
;   strokeXoverride,280
;   strokeYoverride,150
;   strokeZoverride,150
;   originOffsetXoverride,140
;   originOffsetYoverride,75
;   originOffsetZoverride,0
;   homeXdirOverride,1
;   homeYdirOverride,1
;   homeZdirOverride,-1
;   flipXoverride,1
;   flipYoverride,-1
;   flipZoverride,1
;   toolheadOffsets,0,0|0,0|0,0|0,0|0,0|0,0
;   overrideFirmwareConfiguration,1
;   firmwareTypeOverride,MakerBot/Sailfish Firmware
;   GPXconfigOverride,r2h
;   baudRateOverride,115200
;   overridePrinterModels,1
;   printerModelsOverride,MakerBot_Replicator2.stl
;   startingGcode,; **** Replicator 2 start.gcode ****,M73 P0 ; enable build progress,G162 X Y F3000 ; home XY maximum,G161 Z F1200 ; home Z minimum,G92 Z-5 ; set Z to -5,G1 Z0 ; move Z to 0,G161 Z F100 ; home Z slowly,M132 X Y Z A B ; recall home offsets,G1 X-145 Y-75 Z30 F9000 ; move to wait position off table,G130 X20 Y20 Z20 A20 B20 ; lower stepper Vrefs while heating,M126 S[fan_speed_pwm],M140 S[bed0_temperature] T0,M134 T0 ; stabilize bed temperature,M104 S[extruder0_temperature] T0,M133 T0 ; stabilize extruder temperature,G130 X127 Y127 Z40 A127 B127 ; default stepper Vrefs,G92 A0 ; zero extruder,G1 Z0.4 ; position nozzle,G1 E25 F300 ; purge nozzle,G1 X-140 Y-70 Z0.15 F1200 ; slow wipe,G1 X-135 Y-65 Z0.5 F1200 ; lift,G92 A0 ; zero extruder,M73 P1 ;@body (notify GPX body has started),; **** end of start.gcode ****
;   layerChangeGcode,
;   retractionGcode,
;   toolChangeGcode,
;   endingGcode,; **** Replicator 2 end.gcode ****,M73 P100 ; end build progress,G1 Z155 F1000 ; send Z axis to bottom of machine,M104 S0 T0 ; cool down extruder,M140 S0 T0 ; cool down HBP,M127 ; stop blower fan,G162 X Y F3000 ; home XY maximum,M18 ; disable stepper,M0 ; stop codes,M72 P1 ; play Ta-Da song,; **** end of end.gcode ****
;   exportFileFormat,gcode
;   celebration,0
;   celebrationSong,Random Song
;   postProcessing,
;   defaultSpeed,4800
;   outlineUnderspeed,0.5
;   solidInfillUnderspeed,1
;   supportUnderspeed,1
;   rapidXYspeed,9000
;   rapidZspeed,1200
;   minBridgingArea,50
;   bridgingExtraInflation,0
;   bridgingExtrusionMultiplier,1
;   bridgingSpeedMultiplier,0.8
;   useFixedBridgingAngle,0
;   fixedBridgingAngle,0
;   applyBridgingToPerimeters,0
;   filamentDiameters,1.75|1.75|1.75|1.75|1.75|1.75
;   filamentPricesPerKg,46|46|46|46|46|46
;   filamentDensities,1.25|1.25|1.25|1.25|1.25|1.25
;   useMinPrintHeight,0
;   minPrintHeight,0
;   useMaxPrintHeight,0
;   maxPrintHeight,4.84
;   useDiaphragm,0
;   diaphragmLayerInterval,20
;   robustSlicing,1
;   mergeAllIntoSolid,0
;   onlyRetractWhenCrossingOutline,0
;   retractBetweenLayers,0
;   useRetractionMinTravel,1
;   retractionMinTravel,7
;   retractWhileWiping,1
;   onlyWipeOutlines,1
;   avoidCrossingOutline,0
;   maxMovementDetourFactor,3
;   toolChangeRetractionDistance,12
;   toolChangeExtraRestartDistance,-0.5
;   toolChangeRetractionSpeed,600
;   externalThinWallType,0
;   internalThinWallType,0
;   thinWallAllowedOverlapPercentage,10
;   singleExtrusionMinLength,1
;   singleExtrusionMinPrintingWidthPercentage,50
;   singleExtrusionMaxPrintingWidthPercentage,200
;   singleExtrusionEndpointExtension,0.2
;   horizontalSizeCompensation,0
G90
M83
; **** Replicator 2 start.gcode ****
M73 P0 ; enable build progress
G162 X Y F3000 ; home XY maximum
G161 Z F1200 ; home Z minimum
G92 Z-5 ; set Z to -5
G1 Z0 ; move Z to 0
G161 Z F100 ; home Z slowly
M132 X Y Z A B ; recall home offsets
G1 X-145 Y-75 Z30 F9000 ; move to wait position off table
G130 X20 Y20 Z20 A20 B20 ; lower stepper Vrefs while heating
M126 S130
M140 S60 T0
M134 T0 ; stabilize bed temperature
M104 S230 T0
M133 T0 ; stabilize extruder temperature
G130 X127 Y127 Z40 A127 B127 ; default stepper Vrefs
G92 A0 ; zero extruder
G1 Z0.4 ; position nozzle
G1 E25 F300 ; purge nozzle
G1 X-140 Y-70 Z0.15 F1200 ; slow wipe
G1 X-135 Y-65 Z0.5 F1200 ; lift
G92 A0 ; zero extruder
M73 P1 ;@body (notify GPX body has started)
; **** end of start.gcode ****
; process Process1
; layer 1, Z = 0.200
M135 T0
G1 E-1.9000 F1200
; feature inner perimeter
; tool H0.200 W0.400
G1 Z0.500 F1200
G1 X8.900 Y7.164 F9000
G1 Z0.200 F1200
G1 E1.9000 F1200
G1 X8.900 Y14.498 E0.2439 F1800
G1 X-8.900 Y14.498 E0.5920
G1 X-8.900 Y7.164 E0.2439
G1 X-6.650 Y2.001 E0.1873
G1 X-6.650 Y-11.604 E0.4525
G1 X-4.686 Y-11.604 E0.0653
G1 X-3.920 Y-10.351 E0.0488
G1 X-5.450 Y-10.351 E0.0509
G1 X-5.450 Y5.822 E0.5379
G1 X5.450 Y5.822 E0.3625
G1 X5.450 Y-10.351 E0.5379
G1 X3.920 Y-10.351 E0.0509
G1 X4.686 Y-11.604 E0.0488
G1 X6.650 Y-11.604 E0.0653
G1 X6.650 Y2.001 E0.4525
G1 X8.900 Y7.164 E0.1873
; feature outer perimeter
G1 X9.300 Y7.080 F9000
G1 X9.300 Y14.898 E0.2600 F1200
G1 X-9.300 Y14.898 E0.6186
G1 X-9.300 Y7.080 E0.2600
G1 X-7.050 Y1.917 E0.1873
G1 X-7.050 Y-12.004 E0.4630
G1 X-4.462 Y-12.004 E0.0861
G1 X-3.207 Y-9.951 E0.0800
G1 X-5.050 Y-9.951 E0.0613
G1 X-5.050 Y5.422 E0.5113
G1 X5.050 Y5.422 E0.3359
G1 X5.050 Y-9.951 E0.5113
G1 X3.207 Y-9.951 E0.0613
G1 X4.462 Y-12.004 E0.0800
G1 X7.050 Y-12.004 E0.0861
G1 X7.050 Y1.917 E0.4630
G1 X9.300 Y7.080 E0.1873
; feature inner perimeter
G1 X6.879 Y8.772 F9000
G1 X6.576 Y8.469 E0.0142 F1800
G1 X6.237 Y8.232 E0.0138
G1 X6.024 Y8.121 E0.0080
G1 X5.635 Y7.979 E0.0138
G1 X5.214 Y7.905 E0.0142
G1 X4.786 Y7.905 E0.0142
G1 X4.365 Y7.979 E0.0142
G1 X3.976 Y8.121 E0.0138
G1 X3.763 Y8.232 E0.0080
G1 X3.424 Y8.469 E0.0138
G1 X3.121 Y8.772 E0.0142
G1 X2.876 Y9.122 E0.0142
G1 X2.696 Y9.509 E0.0142
G1 X2.588 Y9.909 E0.0138
G1 X2.557 Y10.147 E0.0080
G1 X2.557 Y10.562 E0.0138
G1 X2.631 Y10.983 E0.0142
G1 X2.774 Y11.374 E0.0139
G1 X2.894 Y11.601 E0.0085
G1 X3.122 Y11.925 E0.0132
G1 X3.424 Y12.226 E0.0142
G1 X3.765 Y12.465 E0.0139
G1 X3.994 Y12.582 E0.0085
G1 X4.366 Y12.717 E0.0132
G1 X4.786 Y12.791 E0.0142
G1 X5.214 Y12.791 E0.0142
G1 X5.622 Y12.719 E0.0138
G1 X5.851 Y12.647 E0.0080
G1 X6.226 Y12.472 E0.0138
G1 X6.576 Y12.226 E0.0142
G1 X6.879 Y11.924 E0.0142
G1 X7.124 Y11.574 E0.0142
G1 X7.304 Y11.187 E0.0142
G1 X7.416 Y10.772 E0.0143
G1 X7.450 Y10.343 E0.0143
G1 X7.441 Y10.121 E0.0074
G1 X7.369 Y9.713 E0.0138
G1 X7.227 Y9.324 E0.0138
G1 X7.116 Y9.111 E0.0080
G1 X6.879 Y8.772 E0.0138
; feature outer perimeter
G1 X6.571 Y9.030 F9000
G1 X6.318 Y8.777 E0.0119 F1200
G1 X6.029 Y8.574 E0.0117
G1 X5.863 Y8.488 E0.0062
G1 X5.531 Y8.367 E0.0117
G1 X5.179 Y8.305 E0.0119
G1 X4.821 Y8.305 E0.0119
G1 X4.469 Y8.367 E0.0119
G1 X4.137 Y8.488 E0.0117
G1 X3.971 Y8.574 E0.0062
G1 X3.682 Y8.777 E0.0117
G1 X3.429 Y9.030 E0.0119
G1 X3.224 Y9.322 E0.0119
G1 X3.073 Y9.646 E0.0119
G1 X2.982 Y9.988 E0.0117
G1 X2.957 Y10.174 E0.0062
G1 X2.957 Y10.527 E0.0117
G1 X3.019 Y10.879 E0.0119
G1 X3.140 Y11.211 E0.0118
G1 X3.236 Y11.391 E0.0068
G1 X3.429 Y11.666 E0.0112
G1 X3.682 Y11.919 E0.0119
G1 X3.972 Y12.122 E0.0118
G1 X4.153 Y12.215 E0.0068
G1 X4.469 Y12.329 E0.0112
G1 X4.821 Y12.391 E0.0119
G1 X5.179 Y12.391 E0.0119
G1 X5.526 Y12.330 E0.0117
G1 X5.705 Y12.273 E0.0062
G1 X6.025 Y12.124 E0.0117
G1 X6.318 Y11.919 E0.0119
G1 X6.571 Y11.666 E0.0119
G1 X6.776 Y11.373 E0.0119
G1 X6.927 Y11.049 E0.0119
G1 X7.020 Y10.703 E0.0119
G1 X7.050 Y10.335 E0.0123
G1 X7.042 Y10.165 E0.0057
G1 X6.981 Y9.817 E0.0117
G1 X6.860 Y9.485 E0.0117
G1 X6.773 Y9.319 E0.0062
G1 X6.571 Y9.030 E0.0117
G1 E-1.9000 F1200
; feature inner perimeter
G1 Z0.700 F1200
G1 X-2.559 Y10.121 F9000
G1 Z0.200 F1200
G1 E1.9000 F1200
G1 X-2.631 Y9.713 E0.0138 F1800
G1 X-2.777 Y9.312 E0.0142
G1 X-2.985 Y8.953 E0.0138
G1 X-3.131 Y8.762 E0.0080
G1 X-3.424 Y8.469 E0.0138
G1 X-3.763 Y8.232 E0.0138
G1 X-3.976 Y8.121 E0.0080
G1 X-4.365 Y7.979 E0.0138
G1 X-4.786 Y7.905 E0.0142
G1 X-5.214 Y7.905 E0.0142
G1 X-5.635 Y7.979 E0.0142
G1 X-6.024 Y8.121 E0.0138
G1 X-6.237 Y8.232 E0.0080
G1 X-6.576 Y8.469 E0.0138
G1 X-6.879 Y8.772 E0.0142
G1 X-7.124 Y9.122 E0.0142
G1 X-7.299 Y9.497 E0.0138
G1 X-7.371 Y9.726 E0.0080
G1 X-7.443 Y10.134 E0.0138
G1 X-7.443 Y10.562 E0.0142
G1 X-7.371 Y10.970 E0.0138
G1 X-7.299 Y11.199 E0.0080
G1 X-7.124 Y11.574 E0.0138
G1 X-6.879 Y11.924 E0.0142
G1 X-6.576 Y12.226 E0.0142
G1 X-6.226 Y12.472 E0.0142
G1 X-5.851 Y12.647 E0.0138
G1 X-5.622 Y12.719 E0.0080
G1 X-5.214 Y12.791 E0.0138
G1 X-4.786 Y12.791 E0.0142
G1 X-4.378 Y12.719 E0.0138
G1 X-4.149 Y12.647 E0.0080
G1 X-3.774 Y12.472 E0.0138
G1 X-3.424 Y12.226 E0.0142
G1 X-3.121 Y11.924 E0.0142
G1 X-2.876 Y11.574 E0.0142
G1 X-2.696 Y11.187 E0.0142
G1 X-2.584 Y10.772 E0.0143
G1 X-2.550 Y10.343 E0.0143
G1 X-2.559 Y10.121 E0.0074
; feature outer perimeter
G1 X-2.958 Y10.165 F9000
G1 X-3.019 Y9.817 E0.0117 F1200
G1 X-3.141 Y9.481 E0.0119
G1 X-3.318 Y9.175 E0.0117
G1 X-3.432 Y9.027 E0.0062
G1 X-3.682 Y8.777 E0.0117
G1 X-3.971 Y8.574 E0.0117
G1 X-4.137 Y8.488 E0.0062
G1 X-4.469 Y8.367 E0.0117
G1 X-4.821 Y8.305 E0.0119
G1 X-5.179 Y8.305 E0.0119
G1 X-5.531 Y8.367 E0.0119
G1 X-5.863 Y8.488 E0.0117
G1 X-6.029 Y8.574 E0.0062
G1 X-6.318 Y8.777 E0.0117
G1 X-6.571 Y9.030 E0.0119
G1 X-6.776 Y9.322 E0.0119
G1 X-6.925 Y9.643 E0.0117
G1 X-6.982 Y9.821 E0.0062
G1 X-7.043 Y10.169 E0.0117
G1 X-7.043 Y10.527 E0.0119
G1 X-6.982 Y10.874 E0.0117
G1 X-6.925 Y11.053 E0.0062
G1 X-6.776 Y11.373 E0.0117
G1 X-6.571 Y11.666 E0.0119
G1 X-6.318 Y11.919 E0.0119
G1 X-6.025 Y12.124 E0.0119
G1 X-5.705 Y12.273 E0.0117
G1 X-5.526 Y12.330 E0.0062
G1 X-5.179 Y12.391 E0.0117
G1 X-4.821 Y12.391 E0.0119
G1 X-4.474 Y12.330 E0.0117
G1 X-4.295 Y12.273 E0.0062
G1 X-3.975 Y12.124 E0.0117
G1 X-3.682 Y11.919 E0.0119
G1 X-3.429 Y11.666 E0.0119
G1 X-3.224 Y11.373 E0.0119
G1 X-3.073 Y11.049 E0.0119
G1 X-2.980 Y10.703 E0.0119
G1 X-2.950 Y10.335 E0.0123
G1 X-2.958 Y10.165 E0.0057
; feature solid layer
G1 X-2.362 Y9.517 F9000
G1 X2.298 Y14.178 E0.2192 F2400
G1 X1.733 Y14.178 E0.0188
G1 X-2.235 Y10.210 E0.1866
G1 X-2.229 Y10.349 E0.0046
G1 X-2.262 Y10.749 E0.0134
G1 X1.167 Y14.178 E0.1613
G1 X0.601 Y14.178 E0.0188
G1 X-2.370 Y11.207 E0.1398
G1 X-2.394 Y11.296 E0.0031
G1 X-2.537 Y11.605 E0.0113
G1 X0.036 Y14.178 E0.1210
G1 X-0.530 Y14.178 E0.0188
G1 X-2.753 Y11.955 E0.1045
G1 X-2.875 Y12.131 E0.0071
G1 X-3.009 Y12.264 E0.0063
G1 X-1.096 Y14.178 E0.0900
G1 X-1.661 Y14.178 E0.0188
G1 X-3.305 Y12.534 E0.0773
G1 X-3.613 Y12.750 E0.0125
G1 X-3.642 Y12.763 E0.0010
G1 X-2.227 Y14.178 E0.0665
G1 X-2.793 Y14.178 E0.0188
G1 X-4.028 Y12.943 E0.0581
G1 X-4.033 Y12.946 E0.0002
G1 X-4.302 Y13.030 E0.0094
G1 X-4.475 Y13.061 E0.0059
G1 X-3.358 Y14.178 E0.0525
G1 X-3.924 Y14.178 E0.0188
G1 X-4.991 Y13.111 E0.0502
G1 X-5.242 Y13.111 E0.0083
G1 X-5.624 Y13.043 E0.0129
G1 X-4.490 Y14.178 E0.0534
G1 X-5.055 Y14.178 E0.0188
G1 X-6.709 Y12.524 E0.0778
G1 X-6.783 Y12.473 E0.0030
G1 X-7.125 Y12.131 E0.0161
G1 X-7.176 Y12.057 E0.0030
G1 X-8.580 Y10.653 E0.0660
G1 X-8.580 Y10.088 E0.0188
G1 X-7.696 Y10.972 E0.0416
G1 X-7.763 Y10.590 E0.0129
G1 X-7.763 Y10.339 E0.0083
G1 X-8.580 Y9.522 E0.0384
G1 X-8.580 Y8.956 E0.0188
G1 X-7.713 Y9.823 E0.0408
G1 X-7.683 Y9.650 E0.0059
G1 X-7.598 Y9.381 E0.0094
G1 X-7.595 Y9.375 E0.0002
G1 X-8.580 Y8.391 E0.0463
G1 X-8.580 Y7.825 E0.0188
G1 X-7.415 Y8.990 E0.0548
G1 X-7.402 Y8.961 E0.0010
G1 X-7.186 Y8.653 E0.0125
G1 X-8.580 Y7.259 E0.0656
G1 X-8.580 Y7.230 E0.0010
G1 X-8.417 Y6.856 E0.0136
G1 X-6.917 Y8.357 E0.0706
G1 X-6.783 Y8.223 E0.0063
G1 X-6.607 Y8.100 E0.0071
G1 X-8.245 Y6.462 E0.0770
G1 X-8.074 Y6.068 E0.0143
G1 X-6.259 Y7.883 E0.0853
G1 X-6.153 Y7.827 E0.0040
G1 X-5.857 Y7.720 E0.0105
G1 X-7.902 Y5.674 E0.0962
G1 X-7.730 Y5.281 E0.0143
G1 X-5.398 Y7.613 E0.1097
G1 X-8.580 Y11.219 F9000
G1 X-5.621 Y14.178 E0.1392 F2400
G1 X-6.187 Y14.178 E0.0188
G1 X-8.580 Y11.785 E0.1126
G1 X-8.580 Y12.350 E0.0188
G1 X-6.752 Y14.178 E0.0860
G1 X-7.318 Y14.178 E0.0188
G1 X-8.580 Y12.916 E0.0594
G1 X-8.580 Y13.482 E0.0188
G1 X-7.884 Y14.178 E0.0327
G1 X-8.450 Y14.178 E0.0188
G1 X-8.580 Y14.047 E0.0061
G1 E-1.9000 F1200
G1 Z0.700 F1200
G1 X3.783 Y12.834 F9000
G1 Z0.200 F1200
G1 E1.9000 F1200
G1 X5.127 Y14.178 E0.0632 F2400
G1 X5.693 Y14.178 E0.0188
G1 X4.597 Y13.082 E0.0515
G1 X4.758 Y13.111 E0.0054
G1 X5.191 Y13.111 E0.0144
G1 X6.258 Y14.178 E0.0502
G1 X6.824 Y14.178 E0.0188
G1 X5.680 Y13.034 E0.0538
G1 X5.698 Y13.030 E0.0006
G1 X5.967 Y12.946 E0.0094
G1 X6.097 Y12.885 E0.0048
G1 X7.390 Y14.178 E0.0608
G1 X7.955 Y14.178 E0.0188
G1 X6.469 Y12.692 E0.0699
G1 X6.783 Y12.473 E0.0127
G1 X6.799 Y12.456 E0.0008
G1 X8.521 Y14.178 E0.0810
G1 X8.580 Y14.178 E0.0020
G1 X8.580 Y13.671 E0.0169
G1 X7.082 Y12.173 E0.0705
G1 X7.125 Y12.131 E0.0020
G1 X7.323 Y11.848 E0.0115
G1 X8.580 Y13.105 E0.0591
G1 X8.580 Y12.540 E0.0188
G1 X7.521 Y11.480 E0.0498
G1 X7.606 Y11.296 E0.0067
G1 X7.669 Y11.063 E0.0080
G1 X8.580 Y11.974 E0.0429
G1 X8.580 Y11.408 E0.0188
G1 X7.752 Y10.581 E0.0389
G1 X7.771 Y10.349 E0.0077
G1 X7.759 Y10.086 E0.0087
G1 X7.746 Y10.008 E0.0026
G1 X8.580 Y10.843 E0.0392
G1 X8.580 Y10.277 E0.0188
